assets/luts/clean_bright.cube
TITLE "Clean Bright SaaS"
LUT_3D_SIZE 17
DOMAIN_MIN 0.0 0.0 0.0
DOMAIN_MAX 1.0 1.0 1.0
0.048522 0.048522 0.048522
0.106879 0.050871 0.050871
0.163156 0.053213 0.053213
0.218194 0.055548 0.055548
0.272350 0.057877 0.057877
0.325822 0.060200 0.060200
0.378738 0.062518 0.062518
0.431183 0.064830 0.064830
0.483224 0.067137 0.067137
0.534909 0.069438 0.069438
0.586276 0.071735 0.071735
0.637358 0.074027 0.074027
0.688179 0.076315 0.076315
0.738761 0.078598 0.078598
0.789123 0.080877 0.080877
0.839280 0.083152 0.083152
0.889247 0.085423 0.085423
0.053176 0.109675 0.053176
0.111312 0.111907 0.055512
0.167473 0.114136 0.057841
0.222433 0.116362 0.060165
0.276530 0.118585 0.062482
0.329955 0.120806 0.064794
0.382831 0.123024 0.067101
0.435243 0.125240 0.069403
0.487255 0.127453 0.071700
0.538913 0.129663 0.073992
0.590258 0.131872 0.076280
0.641318 0.134078 0.078563
0.692119 0.136281 0.080842
0.742684 0.138482 0.083117
0.793030 0.140681 0.085388
0.843172 0.142878 0.087656
0.893124 0.145073 0.089919
0.057805 0.168598 0.057805
0.115734 0.170770 0.060129
0.171783 0.172940 0.062446
0.226667 0.175109 0.064759
0.280706 0.177275 0.067066
0.334084 0.179440 0.069367
0.386921 0.181603 0.071664
0.439301 0.183765 0.073957
0.491283 0.185925 0.076245
0.542916 0.188083 0.078528
0.594237 0.190240 0.080807
0.645276 0.192395 0.083082
0.696059 0.194549 0.085353
0.746606 0.196701 0.087621
0.796935 0.198852 0.089884
0.847062 0.201001 0.092144
0.897000 0.203149 0.094400
0.062411 0.226207 0.062411
0.120146 0.228338 0.064723
0.176087 0.230469 0.067030
0.230895 0.232598 0.069332
0.284877 0.234726 0.071629
0.338210 0.236853 0.073921
0.391009 0.238978 0.076209
0.443356 0.241102 0.078493
0.495309 0.243225 0.080772
0.546917 0.245347 0.083047
0.598215 0.247468 0.085318
0.649233 0.249587 0.087586
0.699997 0.251706 0.089849
0.750526 0.253823 0.092109
0.800839 0.255939 0.094366
0.850951 0.258054 0.096619
0.900875 0.260168 0.098868
0.066994 0.282883 0.066994
0.124547 0.284984 0.069296
0.180383 0.287085 0.071594
0.235119 0.289185 0.073886
0.289045 0.291283 0.076174
0.342333 0.293381 0.078457
0.395094 0.295478 0.080737
0.447408 0.297574 0.083012
0.499333 0.299668 0.085283
0.550916 0.301762 0.087551
0.602191 0.303855 0.089814
0.653189 0.305947 0.092074
0.703933 0.308038 0.094331
0.754445 0.310129 0.096584
0.804742 0.312218 0.098833
0.854839 0.314306 0.101080
0.904749 0.316394 0.103323
0.071558 0.338838 0.071558
0.128938 0.340916 0.073851
0.184673 0.342992 0.076139
0.239338 0.345068 0.078422
0.293209 0.347144 0.080702
0.346453 0.349218 0.082977
0.399177 0.351292 0.085248
0.451458 0.353364 0.087516
0.503355 0.355437 0.089779
0.554913 0.357508 0.092039
0.606165 0.359578 0.094296
0.657143 0.361648 0.096549
0.707869 0.363717 0.098799
0.758363 0.365785 0.101045
0.808644 0.367853 0.103288
0.858726 0.369920 0.105529
0.908622 0.371986 0.107766
0.076103 0.394207 0.076103
0.133319 0.396264 0.078387
0.188957 0.398321 0.080666
0.243552 0.400378 0.082942
0.297370 0.402433 0.085213
0.350569 0.404488 0.087481
0.403256 0.406543 0.089744
0.455506 0.408596 0.092004
0.507376 0.410649 0.094261
0.558908 0.412702 0.096514
0.610138 0.414753 0.098764
0.661095 0.416804 0.101011
0.711802 0.418855 0.103254
0.762280 0.420905 0.105494
0.812545 0.422954 0.107731
0.862612 0.425002 0.109965
0.912494 0.427050 0.112197
0.080631 0.449081 0.080631
0.137692 0.451122 0.082907
0.193234 0.453162 0.085178
0.247761 0.455202 0.087446
0.301526 0.457241 0.089709
0.354683 0.459279 0.091970
0.407333 0.461317 0.094226
0.459552 0.463354 0.096479
0.511394 0.465391 0.098729
0.562901 0.467427 0.100976
0.614109 0.469462 0.103219
0.665046 0.471497 0.105459
0.715735 0.473532 0.107697
0.766195 0.475565 0.109931
0.816444 0.477599 0.112162
0.866496 0.479631 0.114391
0.916364 0.481663 0.116617
0.085143 0.503530 0.085143
0.142055 0.505556 0.087411
0.197506 0.507582 0.089674
0.251966 0.509607 0.091935
0.305679 0.511631 0.094191
0.358793 0.513655 0.096445
0.411408 0.515678 0.098695
0.463595 0.517701 0.100941
0.515409 0.519723 0.103185
0.566893 0.521745 0.105425
0.618079 0.523766 0.107662
0.668996 0.525787 0.109896
0.719666 0.527807 0.112128
0.770109 0.529827 0.114357
0.820342 0.531846 0.116582
0.870380 0.533865 0.118805
0.920234 0.535884 0.121026
0.089640 0.557605 0.089640
0.146410 0.559618 0.091900
0.201771 0.561631 0.094157
0.256167 0.563642 0.096410
0.309829 0.565654 0.098660
0.362900 0.567665 0.100906
0.415480 0.569675 0.103150
0.467636 0.571685 0.105390
0.519423 0.573695 0.107628
0.570883 0.575704 0.109862
0.622047 0.577712 0.112093
0.672944 0.579721 0.114322
0.723595 0.581728 0.116548
0.774022 0.583736 0.118771
0.824239 0.585743 0.120992
0.874262 0.587749 0.123210
0.924103 0.589755 0.125425
0.094122 0.611347 0.094122
0.150757 0.613348 0.096375
0.206031 0.615349 0.098625
0.260363 0.617349 0.100872
0.313974 0.619349 0.103115
0.367005 0.621348 0.105356
0.419549 0.623347 0.107593
0.471675 0.625345 0.109827
0.523435 0.627344 0.112059
0.574871 0.629341 0.114288
0.626013 0.631339 0.116514
0.676890 0.633335 0.118737
0.727524 0.635332 0.120957
0.777933 0.637328 0.123175
0.828135 0.639324 0.125391
0.878143 0.641319 0.127604
0.927970 0.643314 0.129814
0.098590 0.664789 0.098590
0.155096 0.666779 0.100837
0.210285 0.668769 0.103081
0.264554 0.670759 0.105321
0.318117 0.672748 0.107559
0.371106 0.674737 0.109793
0.423616 0.676725 0.112025
0.475712 0.678713 0.114253
0.527446 0.680701 0.116479
0.578857 0.682688 0.118702
0.629978 0.684675 0.120923
0.680835 0.686662 0.123141
0.731451 0.688648 0.125356
0.781844 0.690634 0.127569
0.832030 0.692619 0.129780
0.882023 0.694604 0.131988
0.931837 0.696589 0.134194
0.103046 0.717957 0.103046
0.159427 0.719938 0.105287
0.214534 0.721918 0.107524
0.268742 0.723898 0.109758
0.322256 0.725877 0.111990
0.375205 0.727857 0.114219
0.427680 0.729835 0.116445
0.479746 0.731814 0.118668
0.531454 0.733792 0.120889
0.582841 0.735770 0.123107
0.633941 0.737747 0.125322
0.684779 0.739725 0.127535
0.735376 0.741701 0.129746
0.785753 0.743678 0.131954
0.835923 0.745654 0.134160
0.885903 0.747630 0.136363
0.935702 0.749605 0.138564
0.107489 0.770875 0.107489
0.163750 0.772847 0.109724
0.218778 0.774818 0.111956
0.272925 0.776789 0.114184
0.326391 0.778760 0.116410
0.379301 0.780730 0.118634
0.431742 0.782700 0.120854
0.483779 0.784670 0.123073
0.535460 0.786639 0.125288
0.586824 0.788608 0.127501
0.637902 0.790577 0.129712
0.688721 0.792545 0.131920
0.739300 0.794514 0.134126
0.789660 0.796481 0.136329
0.839816 0.798449 0.138530
0.889781 0.800416 0.140729
0.939567 0.802383 0.142926
0.111921 0.823562 0.111921
0.168067 0.825525 0.114150
0.223016 0.827488 0.116376
0.277104 0.829451 0.118599
0.330523 0.831413 0.120820
0.383394 0.833376 0.123038
0.435801 0.835337 0.125254
0.487809 0.837299 0.127467
0.539464 0.839260 0.129678
0.590805 0.841221 0.131886
0.641862 0.843182 0.134092
0.692661 0.845142 0.136295
0.743223 0.847102 0.138496
0.793567 0.849062 0.140695
0.843707 0.851022 0.142892
0.893657 0.852981 0.145087
0.943430 0.854940 0.147279
0.116342 0.876034 0.116342
0.172376 0.877990 0.118565
0.227249 0.879945 0.120786
0.281280 0.881900 0.123004
0.334652 0.883855 0.125220
0.387484 0.885810 0.127433
0.439858 0.887764 0.129643
0.491837 0.889718 0.131852
0.543466 0.891672 0.134057
0.594784 0.893625 0.136261
0.645821 0.895578 0.138462
0.696601 0.897531 0.140661
0.747145 0.899484 0.142858
0.797472 0.901436 0.145053
0.847597 0.903388 0.147246
0.897533 0.905340 0.149436
0.947293 0.907291 0.151625
0.120752 0.928307 0.120752
0.176678 0.930255 0.122970
0.231477 0.932203 0.125185
0.285451 0.934151 0.127399
0.338778 0.936099 0.129609
0.391571 0.938046 0.131818
0.443913 0.939993 0.134023
0.495863 0.941940 0.136227
0.547467 0.943887 0.138428
0.598762 0.945833 0.140627
0.649777 0.947779 0.142824
0.700538 0.949725 0.145019
0.751065 0.951671 0.147212
0.801376 0.953616 0.149402
0.851486 0.955561 0.151591
0.901408 0.957506 0.153777
0.951154 0.959451 0.155962
0.049408 0.049408 0.104888
0.107722 0.051755 0.107126
0.163977 0.054094 0.109361
0.219000 0.056427 0.111593
0.273145 0.058754 0.113823
0.326608 0.061075 0.116049
0.379516 0.063390 0.118273
0.431955 0.065701 0.120494
0.483990 0.068005 0.122712
0.535670 0.070305 0.124928
0.587033 0.072600 0.127142
0.638110 0.074891 0.129353
0.688928 0.077177 0.131561
0.739506 0.079458 0.133768
0.789865 0.081736 0.135971
0.840020 0.084009 0.138173
0.889984 0.086279 0.140372
0.054058 0.110517 0.109327
0.112154 0.112748 0.111559
0.168293 0.114976 0.113788
0.223238 0.117201 0.116015
0.277324 0.119423 0.118239
0.330740 0.121643 0.120460
0.383608 0.123860 0.122678
0.436014 0.126075 0.124894
0.488020 0.128287 0.127108
0.539674 0.130497 0.129319
0.591014 0.132704 0.131527
0.642070 0.134909 0.133733
0.692868 0.137112 0.135937
0.743429 0.139312 0.138139
0.793772 0.141510 0.140338
0.843911 0.143706 0.142536
0.893861 0.145900 0.144731
0.058682 0.169418 0.113754
0.116573 0.171589 0.115980
0.172602 0.173758 0.118204
0.227471 0.175926 0.120425
0.281499 0.178092 0.122644
0.334869 0.180256 0.124860
0.387698 0.182419 0.127073
0.440071 0.184580 0.129284
0.492048 0.186739 0.131493
0.543676 0.188897 0.133699
0.594993 0.191053 0.135903
0.646028 0.193208 0.138105
0.696807 0.195361 0.140304
0.747351 0.197512 0.142502
0.797677 0.199662 0.144697
0.847801 0.201811 0.146890
0.897737 0.203958 0.149080
0.063283 0.227011 0.118170
0.120983 0.229142 0.120391
0.176904 0.231272 0.122610
0.231698 0.233401 0.124826
0.285670 0.235528 0.127039
0.338994 0.237654 0.129250
0.391786 0.239779 0.131459
0.444126 0.241903 0.133665
0.496074 0.244026 0.135869
0.547677 0.246147 0.138071
0.598971 0.248267 0.140270
0.649985 0.250386 0.142468
0.700745 0.252504 0.144663
0.751271 0.254621 0.146856
0.801581 0.256737 0.149047
0.851690 0.258852 0.151235
0.901611 0.260965 0.153422
0.067863 0.283676 0.122575
0.125382 0.285777 0.124792
0.181199 0.287877 0.127005
0.235921 0.289976 0.129216
0.289837 0.292075 0.131425
0.343116 0.294172 0.133631
0.395870 0.296268 0.135835
0.448178 0.298364 0.138037
0.500098 0.300458 0.140236
0.551675 0.302552 0.142434
0.602946 0.304644 0.144629
0.653940 0.306736 0.146822
0.704681 0.308827 0.149013
0.755190 0.310917 0.151202
0.805484 0.313006 0.153389
0.855578 0.315094 0.155573
0.905485 0.317181 0.157756
0.072423 0.339622 0.126971
0.129771 0.341699 0.129182
0.185488 0.343775 0.131391
0.240139 0.345851 0.133597
0.294000 0.347926 0.135801
0.347235 0.350000 0.138003
0.399952 0.352073 0.140203
0.452228 0.354146 0.142400
0.504120 0.356218 0.144595
0.555672 0.358289 0.146788
0.606921 0.360359 0.148979
0.657894 0.362428 0.151168
0.708616 0.364497 0.153355
0.759108 0.366565 0.155540
0.809385 0.368632 0.157723
0.859464 0.370699 0.159904
0.909358 0.372765 0.162083
0.076965 0.394983 0.131357
0.134151 0.397040 0.133563
0.189770 0.399097 0.135767
0.244352 0.401153 0.137969
0.298160 0.403208 0.140169
0.351351 0.405263 0.142366
0.404031 0.407317 0.144561
0.456275 0.409371 0.146754
0.508139 0.411423 0.148945
0.559667 0.413475 0.151134
0.610893 0.415527 0.153321
0.661846 0.417578 0.155506
0.712550 0.419628 0.157689
0.763024 0.421677 0.159870
0.813286 0.423726 0.162049
0.863350 0.425775 0.164226
0.913229 0.427822 0.166402
0.081490 0.449851 0.135733
0.138522 0.451892 0.137935
0.194047 0.453931 0.140135
0.248561 0.455971 0.142332
0.302316 0.458009 0.144527
0.355464 0.460048 0.146720
0.408108 0.462085 0.148911
0.460320 0.464122 0.151100
0.512157 0.466159 0.153287
0.563660 0.468194 0.155472
0.614864 0.470230 0.157655
0.665797 0.472264 0.159836
0.716482 0.474299 0.162015
0.766939 0.476332 0.164193
0.817185 0.478365 0.166368
0.867234 0.480398 0.168542
0.917100 0.482430 0.170714
0.085999 0.504295 0.140101
0.142883 0.506320 0.142298
0.198317 0.508345 0.144493
0.252765 0.510370 0.146686
0.306468 0.512394 0.148877
0.359574 0.514418 0.151066
0.412182 0.516441 0.153253
0.464363 0.518464 0.155438
0.516172 0.520486 0.157621
0.567651 0.522507 0.159803
0.618833 0.524528 0.161982
0.669746 0.526549 0.164159
0.720413 0.528569 0.166335
0.770853 0.530589 0.168508
0.821083 0.532608 0.170680
0.871118 0.534626 0.172850
0.920969 0.536645 0.175019
0.090492 0.558365 0.144459
0.147237 0.560377 0.146653
0.202581 0.562389 0.148844
0.256964 0.564401 0.151033
0.310617 0.566412 0.153220
0.363681 0.568423 0.155405
0.416253 0.570433 0.157588
0.468404 0.572443 0.159769
0.520186 0.574452 0.161948
0.571641 0.576461 0.164125
0.622801 0.578470 0.166301
0.673694 0.580478 0.168475
0.724342 0.582485 0.170647
0.774765 0.584493 0.172817
0.824980 0.586499 0.174985
0.875000 0.588506 0.177152
0.924838 0.590511 0.179317
0.094972 0.612102 0.148810
0.151582 0.614103 0.150999
0.206840 0.616103 0.153186
0.261160 0.618103 0.155371
0.314762 0.620103 0.157554
0.367785 0.622102 0.159735
0.420322 0.624101 0.161914
0.472442 0.626099 0.164092
0.524198 0.628097 0.166267
0.575628 0.630095 0.168441
0.626767 0.632092 0.170613
0.677640 0.634088 0.172783
0.728270 0.636085 0.174952
0.778676 0.638081 0.177118
0.828875 0.640076 0.179283
0.878881 0.642071 0.181447
0.928705 0.644066 0.183608
0.099438 0.665539 0.153152
0.155919 0.667530 0.155337
0.211093 0.669519 0.157520
0.265351 0.671509 0.159701
0.318903 0.673498 0.161881
0.371886 0.675487 0.164058
0.424388 0.677475 0.166234
0.476479 0.679463 0.168407
0.528207 0.681450 0.170579
0.579614 0.683437 0.172750
0.630731 0.685424 0.174918
0.681584 0.687411 0.177085
0.732197 0.689397 0.179250
0.782586 0.691383 0.181413
0.832770 0.693368 0.183575
0.882761 0.695353 0.185735
0.932571 0.697338 0.187894
0.103891 0.718704 0.157487
0.160249 0.720684 0.159668
0.215341 0.722665 0.161847
0.269537 0.724644 0.164025
0.323042 0.726624 0.166200
0.375984 0.728603 0.168374
0.428452 0.730582 0.170546
0.480513 0.732560 0.172716
0.532215 0.734538 0.174885
0.583598 0.736516 0.177051
0.634694 0.738493 0.179216
0.685528 0.740470 0.181380
0.736122 0.742447 0.183542
0.786495 0.744423 0.185702
0.836663 0.746399 0.187860
0.886640 0.748375 0.190017
0.936437 0.750350 0.192173
0.108332 0.771619 0.161813
0.164571 0.773590 0.163991
0.219583 0.775561 0.166167
0.273720 0.777532 0.168340
0.327176 0.779503 0.170512
0.380079 0.781473 0.172683
0.432514 0.783443 0.174851
0.484545 0.785412 0.177018
0.536221 0.787382 0.179183
0.587581 0.789351 0.181346
0.638655 0.791319 0.183508
0.689470 0.793288 0.185668
0.740046 0.795256 0.187827
0.790403 0.797224 0.189984
0.840555 0.799191 0.192139
0.890517 0.801158 0.194293
0.940301 0.803125 0.196446
0.112762 0.824302 0.166133
0.168886 0.826266 0.168307
0.223820 0.828228 0.170479
0.277898 0.830191 0.172649
0.331308 0.832153 0.174818
0.384171 0.834116 0.176984
0.436573 0.836077 0.179150
0.488574 0.838039 0.181313
0.540225 0.840000 0.183475
0.591561 0.841961 0.185635
0.642615 0.843921 0.187794
0.693410 0.845882 0.189951
0.743969 0.847842 0.192106
0.794309 0.849801 0.194260
0.844446 0.851761 0.196412
0.894394 0.853720 0.198563
0.944164 0.855679 0.200713
0.117181 0.876772 0.170445
0.173194 0.878727 0.172616
0.228052 0.880683 0.174784
0.282073 0.882638 0.176951
0.335436 0.884592 0.179116
0.388261 0.886547 0.181280
0.440629 0.888501 0.183441
0.492602 0.890455 0.185602
0.544227 0.892408 0.187760
0.595540 0.894362 0.189917
0.646573 0.896315 0.192073
0.697349 0.898267 0.194227
0.747890 0.900220 0.196379
0.798214 0.902172 0.198530
0.848336 0.904124 0.200679
0.898270 0.906076 0.202827
0.948027 0.908027 0.204974
0.121588 0.929042 0.174751
0.177495 0.930990 0.176917
0.232279 0.932938 0.179083
0.286243 0.934886 0.181246
0.339561 0.936833 0.183408
0.392348 0.938781 0.185568
0.444683 0.940728 0.187727
0.496628 0.942674 0.189884
0.548227 0.944621 0.192039
0.599517 0.946567 0.194193
0.650529 0.948513 0.196346
0.701286 0.950459 0.198497
0.751810 0.952404 0.200646
0.802118 0.954350 0.202794
0.852225 0.956295 0.204941
0.902144 0.958239 0.207086
0.951888 0.960184 0.209229
0.050294 0.050294 0.159280
0.108565 0.052638 0.161460
0.164798 0.054975 0.163637
0.219806 0.057305 0.165813
0.273939 0.059630 0.167987
0.327393 0.061949 0.170160
0.380294 0.064262 0.172330
0.432727 0.066570 0.174499
0.484756 0.068873 0.176666
0.536431 0.071171 0.178831
0.587790 0.073465 0.180995
0.638863 0.075753 0.183157
0.689676 0.078038 0.185318
0.740252 0.080318 0.187476
0.790608 0.082594 0.189634
0.840760 0.084866 0.191789
0.890721 0.087134 0.193943
0.054939 0.111359 0.163604
0.112994 0.113588 0.165780
0.169112 0.115815 0.167954
0.224043 0.118039 0.170126
0.278117 0.120261 0.172297
0.331525 0.122479 0.174466
0.384386 0.124696 0.176633
0.436786 0.126909 0.178798
0.488786 0.129120 0.180962
0.540435 0.131329 0.183124
0.591770 0.133536 0.185284
0.642822 0.135740 0.187443
0.693617 0.137942 0.189600
0.744175 0.140141 0.191756
0.794514 0.142339 0.193910
0.844650 0.144534 0.196063
0.894598 0.146727 0.198214
0.059558 0.170237 0.167920
0.117412 0.172407 0.170093
0.173420 0.174576 0.172263
0.228274 0.176743 0.174432
0.282292 0.178908 0.176599
0.335653 0.181072 0.178765
0.388475 0.183234 0.180928
0.440842 0.185394 0.183090
0.492814 0.187553 0.185251
0.544437 0.189710 0.187410
0.595749 0.191866 0.189567
0.646780 0.194020 0.191723
0.697556 0.196172 0.193877
0.748096 0.198323 0.196030
0.798419 0.200473 0.198181
0.848540 0.202621 0.200330
0.898473 0.204768 0.202479
0.064155 0.227815 0.172230
0.121820 0.229945 0.174399
0.177720 0.232075 0.176566
0.232501 0.234203 0.178731
0.286462 0.236330 0.180895
0.339778 0.238456 0.183057
0.392562 0.240580 0.185218
0.444896 0.242704 0.187376
0.496839 0.244826 0.189534
0.548437 0.246947 0.191689
0.599726 0.249067 0.193844
0.650737 0.251185 0.195996
0.701493 0.253303 0.198147
0.752016 0.255419 0.200297
0.802323 0.257535 0.202445
0.852429 0.259649 0.204592
0.902348 0.261762 0.206737
0.068731 0.284468 0.176532
0.126217 0.286569 0.178698
0.182015 0.288669 0.180861
0.236723 0.290768 0.183024
0.290628 0.292866 0.185184
0.343899 0.294963 0.187343
0.396646 0.297059 0.189500
0.448948 0.299154 0.191656
0.500862 0.301248 0.193810
0.552435 0.303341 0.195963
0.603702 0.305433 0.198114
0.654692 0.307525 0.200264
0.705429 0.309615 0.202412
0.755935 0.311705 0.204559
0.806225 0.313793 0.206704
0.856316 0.315881 0.208848
0.906221 0.317968 0.210991
0.073288 0.340405 0.180828
0.130604 0.342482 0.182990
0.186302 0.344558 0.185151
0.240940 0.346634 0.187310
0.294791 0.348708 0.189467
0.348018 0.350782 0.191623
0.400727 0.352855 0.193777
0.452997 0.354927 0.195930
0.504884 0.356999 0.198081
0.556431 0.359070 0.200231
0.607676 0.361140 0.202379
0.658645 0.363209 0.204526
0.709364 0.365277 0.206671
0.759852 0.367345 0.208815
0.810127 0.369412 0.210958
0.860203 0.371478 0.213099
0.910094 0.373544 0.215238
0.077826 0.395759 0.185117
0.134982 0.397816 0.187276
0.190583 0.399872 0.189434
0.245152 0.401928 0.191590
0.298950 0.403983 0.193744
0.352133 0.406038 0.195897
0.404806 0.408092 0.198048
0.457044 0.410145 0.200198
0.508903 0.412197 0.202346
0.560426 0.414249 0.204493
0.611648 0.416300 0.206638
0.662597 0.418351 0.208782
0.713297 0.420401 0.210924
0.763768 0.422450 0.213066
0.814027 0.424499 0.215205
0.864088 0.426547 0.217344
0.913965 0.428594 0.219481
0.082348 0.450621 0.189400
0.139351 0.452661 0.191556
0.194859 0.454701 0.193711
0.249360 0.456740 0.195863
0.303105 0.458778 0.198015
0.356245 0.460816 0.200164
0.408882 0.462853 0.202313
0.461089 0.464890 0.204459
0.512920 0.466926 0.206605
0.564418 0.468962 0.208749
0.615618 0.470997 0.210891
0.666547 0.473032 0.213033
0.717229 0.475066 0.215172
0.767683 0.477099 0.217311
0.817926 0.479132 0.219448
0.867972 0.481164 0.221584
0.917835 0.483196 0.223718
0.086854 0.505059 0.193677
0.143711 0.507084 0.195830
0.199128 0.509109 0.197981
0.253563 0.511133 0.200131
0.307257 0.513157 0.202279
0.360355 0.515181 0.204426
0.412956 0.517204 0.206572
0.465131 0.519226 0.208716
0.516935 0.521248 0.210858
0.568409 0.523269 0.213000
0.619587 0.525290 0.215139
0.670496 0.527311 0.217278
0.721159 0.529331 0.219415
0.771596 0.531350 0.221551
0.821823 0.533369 0.223685
0.871855 0.535388 0.225818
0.921704 0.537406 0.227950
0.091345 0.559124 0.197948
0.148063 0.561136 0.200098
0.203391 0.563148 0.202246
0.257762 0.565159 0.204393
0.311405 0.567170 0.206539
0.364461 0.569181 0.208683
0.417027 0.571191 0.210825
0.469172 0.573201 0.212966
0.520949 0.575210 0.215106
0.572398 0.577219 0.217245
0.623554 0.579227 0.219382
0.674444 0.581235 0.221518
0.725089 0.583242 0.223652
0.775509 0.585249 0.225785
0.825720 0.587256 0.227917
0.875737 0.589262 0.230048
0.925573 0.591268 0.232177
0.095822 0.612857 0.202213
0.152407 0.614857 0.204360
0.207649 0.616857 0.206505
0.261956 0.618857 0.208649
0.315549 0.620857 0.210792
0.368564 0.622856 0.212933
0.421095 0.624854 0.215073
0.473210 0.626853 0.217212
0.524960 0.628850 0.219349
0.576386 0.630848 0.221485
0.627520 0.632845 0.223619
0.678389 0.634841 0.225753
0.729016 0.636837 0.227884
0.779420 0.638833 0.230015
0.829615 0.640829 0.232145
0.879618 0.642824 0.234273
0.929440 0.644818 0.236400
0.100285 0.666290 0.206472
0.156743 0.668280 0.208616
0.211901 0.670270 0.210759
0.266146 0.672259 0.212900
0.319690 0.674248 0.215040
0.372664 0.676236 0.217179
0.425161 0.678225 0.219316
0.477246 0.680212 0.221452
0.528969 0.682200 0.223586
0.580371 0.684187 0.225720
0.631484 0.686174 0.227852
0.682334 0.688160 0.229982
0.732943 0.690146 0.232112
0.783329 0.692131 0.234240
0.833510 0.694117 0.236367
0.883498 0.696101 0.238492
0.933306 0.698086 0.240617
0.104736 0.719451 0.210726
0.161071 0.721431 0.212867
0.216148 0.723411 0.215007
0.270332 0.725391 0.217146
0.323828 0.727370 0.219283
0.376762 0.729349 0.221419
0.429224 0.731328 0.223553
0.481279 0.733306 0.225687
0.532976 0.735284 0.227819
0.584355 0.737262 0.229949
0.635447 0.739239 0.232079
0.686277 0.741216 0.234207
0.736868 0.743192 0.236334
0.787238 0.745168 0.238460
0.837403 0.747144 0.240584
0.887377 0.749120 0.242708
0.937171 0.751095 0.244830
0.109175 0.772362 0.214974
0.165392 0.774334 0.217113
0.220389 0.776305 0.219250
0.274514 0.778275 0.221386
0.327962 0.780246 0.223520
0.380857 0.782216 0.225654
0.433285 0.784186 0.227786
0.485311 0.786155 0.229916
0.536982 0.788124 0.232046
0.588337 0.790093 0.234174
0.639408 0.792062 0.236301
0.690218 0.794030 0.238427
0.740792 0.795998 0.240551
0.791145 0.797966 0.242675
0.841295 0.799933 0.244797
0.891254 0.801900 0.246918
0.941035 0.803866 0.249038
0.113603 0.825043 0.219217
0.169705 0.827006 0.221353
0.224625 0.828969 0.223487
0.278692 0.830931 0.225621
0.332093 0.832893 0.227753
0.384949 0.834855 0.229883
0.437344 0.836817 0.232013
0.489340 0.838778 0.234141
0.540985 0.840739 0.236268
0.592318 0.842700 0.238394
0.643367 0.844661 0.240519
0.694159 0.846621 0.242642
0.744714 0.848581 0.244764
0.795051 0.850540 0.246885
0.845186 0.852500 0.249005
0.895131 0.854459 0.251124
0.944898 0.856417 0.253241
0.118019 0.877509 0.223454
0.174012 0.879465 0.225588
0.228856 0.881420 0.227720
0.282865 0.883375 0.229851
0.336220 0.885329 0.231980
0.389038 0.887284 0.234108
0.441400 0.889238 0.236235
0.493367 0.891192 0.238361
0.544987 0.893145 0.240486
0.596296 0.895098 0.242609
0.647325 0.897051 0.244731
0.698097 0.899004 0.246852
0.748635 0.900956 0.248972
0.798956 0.902908 0.251091
0.849075 0.904860 0.253209
0.899006 0.906812 0.255325
0.948761 0.908763 0.257440
0.122425 0.929776 0.227687
0.178311 0.931725 0.229818
0.233082 0.933673 0.231947
0.287035 0.935620 0.234075
0.340345 0.937568 0.236203
0.393124 0.939515 0.238328
0.445453 0.941462 0.240453
0.497392 0.943409 0.242576
0.548987 0.945355 0.244699
0.600273 0.947301 0.246820
0.651281 0.949247 0.248940
0.702035 0.951193 0.251058
0.752555 0.953138 0.253176
0.802860 0.955083 0.255292
0.852964 0.957028 0.257408
0.902880 0.958973 0.259522
0.952622 0.960917 0.261635
0.051179 0.051179 0.212486
0.109408 0.053520 0.214627
0.165618 0.055854 0.216765
0.220611 0.058183 0.218903
0.274733 0.060505 0.221039
0.328179 0.062822 0.223174
0.381072 0.065133 0.225307
0.433498 0.067439 0.227439
0.485522 0.069740 0.229570
0.537192 0.072037 0.231700
0.588546 0.074328 0.233829
0.639615 0.076615 0.235956
0.690425 0.078898 0.238082
0.740998 0.081177 0.240206
0.791350 0.083451 0.242330
0.841499 0.085722 0.244452
0.891458 0.087988 0.246574
0.055818 0.112200 0.216732
