assets/luts/clean_bright.cube
TITLE "Clean Bright SaaS"
LUT_3D_SIZE 9
DOMAIN_MIN 0.0 0.0 0.0
DOMAIN_MAX 1.0 1.0 1.0
0.048522 0.048522 0.048522
0.163156 0.053213 0.053213
0.272350 0.057877 0.057877
0.378738 0.062518 0.062518
0.483224 0.067137 0.067137
0.586276 0.071735 0.071735
0.688179 0.076315 0.076315
0.789123 0.080877 0.080877
0.889247 0.085423 0.085423
0.057805 0.168598 0.057805
0.171783 0.172940 0.062446
0.280706 0.177275 0.067066
0.386921 0.181603 0.071664
0.491283 0.185925 0.076245
0.594237 0.190240 0.080807
0.696059 0.194549 0.085353
0.796935 0.198852 0.089884
0.897000 0.203149 0.094400
0.066994 0.282883 0.066994
0.180383 0.287085 0.071594
0.289045 0.291283 0.076174
0.395094 0.295478 0.080737
0.499333 0.299668 0.085283
0.602191 0.303855 0.089814
0.703933 0.308038 0.094331
0.804742 0.312218 0.098833
0.904749 0.316394 0.103323
0.076103 0.394207 0.076103
0.188957 0.398321 0.080666
0.297370 0.402433 0.085213
0.403256 0.406543 0.089744
0.507376 0.410649 0.094261
0.610138 0.414753 0.098764
0.711802 0.418855 0.103254
0.812545 0.422954 0.107731
0.912494 0.427050 0.112197
0.085143 0.503530 0.085143
0.197506 0.507582 0.089674
0.305679 0.511631 0.094191
0.411408 0.515678 0.098695
0.515409 0.519723 0.103185
0.618079 0.523766 0.107662
0.719666 0.527807 0.112128
0.820342 0.531846 0.116582
0.920234 0.535884 0.121026
0.094122 0.611347 0.094122
0.206031 0.615349 0.098625
0.313974 0.619349 0.103115
0.419549 0.623347 0.107593
0.523435 0.627344 0.112059
0.626013 0.631339 0.116514
0.727524 0.635332 0.120957
0.828135 0.639324 0.125391
0.927970 0.643314 0.129814
0.103046 0.717957 0.103046
0.214534 0.721918 0.107524
0.322256 0.725877 0.111990
0.427680 0.729835 0.116445
0.531454 0.733792 0.120889
0.633941 0.737747 0.125322
0.735376 0.741701 0.129746
0.835923 0.745654 0.134160
0.935702 0.749605 0.138564
0.111921 0.823562 0.111921
0.223016 0.827488 0.116376
0.330523 0.831413 0.120820
0.435801 0.835337 0.125254
0.539464 0.839260 0.129678
0.641862 0.843182 0.134092
0.743223 0.847102 0.138496
0.843707 0.851022 0.142892
0.943430 0.854940 0.147279
0.120752 0.928307 0.120752
0.231477 0.932203 0.125185
0.338778 0.936099 0.129609
0.443913 0.939993 0.134023
0.547467 0.943887 0.138428
0.649777 0.947779 0.142824
0.751065 0.951671 0.147212
0.851486 0.955561 0.151591
0.951154 0.959451 0.155962
0.050294 0.050294 0.159280
0.164798 0.054975 0.163637
0.273939 0.059630 0.167987
0.380294 0.064262 0.172330
0.484756 0.068873 0.176666
0.587790 0.073465 0.180995
0.689676 0.078038 0.185318
0.790608 0.082594 0.189634
0.890721 0.087134 0.193943
0.059558 0.170237 0.167920
0.173420 0.174576 0.172263
0.282292 0.178908 0.176599
0.388475 0.183234 0.180928
0.492814 0.187553 0.185251
0.595749 0.191866 0.189567
0.697556 0.196172 0.193877
0.798419 0.200473 0.198181
0.898473 0.204768 0.202479
0.068731 0.284468 0.176532
0.182015 0.288669 0.180861
0.290628 0.292866 0.185184
0.396646 0.297059 0.189500
0.500862 0.301248 0.193810
0.603702 0.305433 0.198114
0.705429 0.309615 0.202412
0.806225 0.313793 0.206704
0.906221 0.317968 0.210991
0.077826 0.395759 0.185117
0.190583 0.399872 0.189434
0.298950 0.403983 0.193744
0.404806 0.408092 0.198048
0.508903 0.412197 0.202346
0.611648 0.416300 0.206638
0.713297 0.420401 0.210924
0.814027 0.424499 0.215205
0.913965 0.428594 0.219481
0.086854 0.505059 0.193677
0.199128 0.509109 0.197981
0.307257 0.513157 0.202279
0.412956 0.517204 0.206572
0.516935 0.521248 0.210858
0.619587 0.525290 0.215139
0.721159 0.529331 0.219415
0.821823 0.533369 0.223685
0.921704 0.537406 0.227950
0.095822 0.612857 0.202213
0.207649 0.616857 0.206505
0.315549 0.620857 0.210792
0.421095 0.624854 0.215073
0.524960 0.628850 0.219349
0.627520 0.632845 0.223619
0.729016 0.636837 0.227884
0.829615 0.640829 0.232145
0.929440 0.644818 0.236400
0.104736 0.719451 0.210726
0.216148 0.723411 0.215007
0.323828 0.727370 0.219283
0.429224 0.731328 0.223553
0.532976 0.735284 0.227819
0.635447 0.739239 0.232079
0.736868 0.743192 0.236334
0.837403 0.747144 0.240584
0.937171 0.751095 0.244830
0.113603 0.825043 0.219217
0.224625 0.828969 0.223487
0.332093 0.832893 0.227753
0.437344 0.836817 0.232013
0.540985 0.840739 0.236268
0.643367 0.844661 0.240519
0.744714 0.848581 0.244764
0.845186 0.852500 0.249005
0.944898 0.856417 0.253241
0.122425 0.929776 0.227687
0.233082 0.933673 0.231947
0.340345 0.937568 0.236203
0.445453 0.941462 0.240453
0.548987 0.945355 0.244699
0.651281 0.949247 0.248940
0.752555 0.953138 0.253176
0.852964 0.957028 0.257408
0.952622 0.960917 0.261635
0.052062 0.052062 0.264846
0.166438 0.056733 0.269066
0.275528 0.061380 0.273282
0.381849 0.066004 0.277493
0.486288 0.070607 0.281700
0.589303 0.075191 0.285904
0.691174 0.079758 0.290103
0.792093 0.084308 0.294299
0.892194 0.088842 0.298490
0.061308 0.171874 0.273217
0.175055 0.176211 0.277428
0.283877 0.180540 0.281635
0.390029 0.184863 0.285839
0.494344 0.189180 0.290038
0.597261 0.193491 0.294234
0.699052 0.197795 0.298426
0.799903 0.202093 0.302614
0.899946 0.206386 0.306798
0.070465 0.286053 0.281570
0.183645 0.290252 0.285774
0.292211 0.294447 0.289973
0.398198 0.298639 0.294169
0.502391 0.302827 0.298361
0.605212 0.307011 0.302549
0.706925 0.311191 0.306733
0.807708 0.315368 0.310914
0.907693 0.319541 0.315091
0.079547 0.397310 0.289909
0.192209 0.401423 0.294104
0.300530 0.405533 0.298296
0.406356 0.409640 0.302484
0.510430 0.413745 0.306669
0.613157 0.417847 0.310849
0.714792 0.421947 0.315027
0.815509 0.426044 0.319200
0.915436 0.430138 0.323370
0.088562 0.506586 0.298231
0.200749 0.510636 0.302420
0.308834 0.514684 0.306604
0.414503 0.518729 0.310785
0.518461 0.522773 0.314962
0.621095 0.526814 0.319136
0.722653 0.530854 0.323306
0.823305 0.534892 0.327473
0.923175 0.538927 0.331636
0.097520 0.614366 0.306539
0.209265 0.618366 0.310720
0.317123 0.622365 0.314898
0.422641 0.626362 0.319071
0.526484 0.630357 0.323242
0.629027 0.634351 0.327408
0.730509 0.638343 0.331572
0.831096 0.642333 0.335732
0.930909 0.646322 0.339889
0.106425 0.720945 0.314833
0.217760 0.724904 0.319007
0.325399 0.728863 0.323177
0.430768 0.732820 0.327344
0.534499 0.736776 0.331508
0.636952 0.740730 0.335668
0.738359 0.744683 0.339825
0.838882 0.748634 0.343978
0.938640 0.752585 0.348129
0.115282 0.826523 0.323113
0.226234 0.830449 0.327280
0.333662 0.834373 0.331443
0.438885 0.838296 0.335603
0.542507 0.842218 0.339760
0.644871 0.846139 0.343914
0.746204 0.850059 0.348065
0.846664 0.853977 0.352212
0.946366 0.857895 0.356356
0.124097 0.931246 0.331379
0.234687 0.935142 0.335539
0.341911 0.939036 0.339696
0.446993 0.942930 0.343850
0.550507 0.946823 0.348001
0.652784 0.950715 0.352148
0.754044 0.954605 0.356292
0.854441 0.958495 0.360433
0.954089 0.962383 0.364572
0.053827 0.053827 0.367716
0.168078 0.058488 0.371849
0.277116 0.063126 0.375979
0.383405 0.067742 0.380106
0.487820 0.072338 0.384230
0.590815 0.076916 0.388352
0.692672 0.081476 0.392470
0.793577 0.086020 0.396586
0.893668 0.090548 0.400699
0.063054 0.173510 0.375915
0.176689 0.177844 0.380042
0.285462 0.182171 0.384166
0.391582 0.186492 0.388288
0.495874 0.190806 0.392407
0.598772 0.195115 0.396522
0.700549 0.199417 0.400636
0.801386 0.203713 0.404746
0.901418 0.208003 0.408854
0.072196 0.287637 0.384103
0.185274 0.291835 0.388224
0.293793 0.296029 0.392343
0.399749 0.300219 0.396459
0.503919 0.304405 0.400572
0.606722 0.308588 0.404683
0.708420 0.312767 0.408790
0.809191 0.316942 0.412896
0.909165 0.321114 0.416998
0.081265 0.398862 0.392279
0.193834 0.402973 0.396395
0.302109 0.407082 0.400509
0.407905 0.411189 0.404619
0.511957 0.415292 0.408727
0.614666 0.419393 0.412832
0.716286 0.423492 0.416935
0.816991 0.427588 0.421035
0.916907 0.431682 0.425133
0.090269 0.508114 0.400445
0.202369 0.512163 0.404556
0.310410 0.516210 0.408664
0.416050 0.520254 0.412769
0.519986 0.524297 0.416872
0.622603 0.528338 0.420972
0.724146 0.532377 0.425069
0.824785 0.536414 0.429164
0.924645 0.540449 0.433257
0.099216 0.615874 0.408600
0.210881 0.619874 0.412705
0.318697 0.623872 0.416808
0.424186 0.627868 0.420908
0.528008 0.631863 0.425006
0.630533 0.635856 0.429101
0.732001 0.639848 0.433194
0.832576 0.643838 0.437284
0.932379 0.647826 0.441372
0.108111 0.722438 0.416745
0.219372 0.726397 0.420845
0.326970 0.730355 0.424943
0.432311 0.734312 0.429038
0.536021 0.738267 0.433131
0.638458 0.742221 0.437221
0.739851 0.746173 0.441308
0.840361 0.750124 0.445394
0.940109 0.754074 0.449477
0.116961 0.828004 0.424879
0.227842 0.831929 0.428975
0.335230 0.835853 0.433067
0.440427 0.839776 0.437158
0.544027 0.843697 0.441245
0.646375 0.847617 0.445331
0.747695 0.851537 0.449414
0.848142 0.855455 0.453494
0.947834 0.859372 0.457572
0.125767 0.932715 0.433004
0.236291 0.936611 0.437094
0.343478 0.940505 0.441182
0.448533 0.944398 0.445268
0.552026 0.948291 0.449351
0.654287 0.952182 0.453431
0.755534 0.956072 0.457509
0.855919 0.959961 0.461585
0.955556 0.963850 0.465659
0.055588 0.055588 0.468755
0.169717 0.060240 0.472825
0.278703 0.064869 0.476892
0.384959 0.069478 0.480957
0.489351 0.074066 0.485020
0.592328 0.078637 0.489081
0.694169 0.083191 0.493140
0.795062 0.087729 0.497197
0.895141 0.092252 0.501251
0.064798 0.175145 0.476829
0.178323 0.179477 0.480895
0.287046 0.183802 0.484958
0.393135 0.188120 0.489019
0.497403 0.192432 0.493077
0.600284 0.196738 0.497134
0.702045 0.201038 0.501189
0.802870 0.205331 0.505241
0.902891 0.209620 0.509291
0.073925 0.289220 0.484895
0.186903 0.293417 0.488956
0.295374 0.297609 0.493015
0.401299 0.301798 0.497071
0.505447 0.305983 0.501126
0.608233 0.310164 0.505178
0.709915 0.314342 0.509229
0.810673 0.318516 0.513277
0.910636 0.322687 0.517323
0.082980 0.400413 0.492952
0.195457 0.404523 0.497009
0.303687 0.408631 0.501063
0.409453 0.412737 0.505116
0.513483 0.416839 0.509166
0.616175 0.420939 0.513215
0.717780 0.425037 0.517261
0.818472 0.429132 0.521305
0.918378 0.433225 0.525347
0.091973 0.509641 0.501001
0.203988 0.513689 0.505053
0.311986 0.517735 0.509104
0.417597 0.521779 0.513152
0.521511 0.525821 0.517198
0.624110 0.529861 0.521243
0.725639 0.533900 0.525285
0.826266 0.537936 0.529325
0.926115 0.541970 0.533364
0.100910 0.617383 0.509041
0.212497 0.621382 0.513089
0.320270 0.625379 0.517136
0.425731 0.629375 0.521180
0.529531 0.633369 0.525223
0.632040 0.637362 0.529263
0.733493 0.641353 0.533301
0.834056 0.645342 0.537338
0.933848 0.649330 0.541372
0.109796 0.723931 0.517073
0.220983 0.727890 0.521118
0.328541 0.731848 0.525160
0.433854 0.735804 0.529201
0.537543 0.739758 0.533239
0.639963 0.743712 0.537275
0.741342 0.747664 0.541310
0.841840 0.751614 0.545343
0.941577 0.755563 0.549373
0.118637 0.829484 0.525098
0.229449 0.833409 0.529138
0.336799 0.837332 0.533177
0.441968 0.841255 0.537213
0.545548 0.845176 0.541248
0.647879 0.849096 0.545280
0.749185 0.853014 0.549311
0.849620 0.856932 0.553340
0.949302 0.860849 0.557367
0.127436 0.934184 0.533114
0.237895 0.938079 0.537151
0.345043 0.941973 0.541185
0.450073 0.945866 0.545218
0.553545 0.949758 0.549249
0.655790 0.953649 0.553278
0.757023 0.957539 0.557305
0.857396 0.961428 0.561330
0.957023 0.965316 0.565353
0.057345 0.057345 0.568411
0.171354 0.061988 0.572431
0.280290 0.066610 0.576450
0.386514 0.071210 0.580466
0.490882 0.075792 0.584481
0.593840 0.080357 0.588494
0.695666 0.084904 0.592505
0.796546 0.089437 0.596515
0.896614 0.093954 0.600523
0.066538 0.176780 0.576388
0.179955 0.181109 0.580404
0.288630 0.185431 0.584419
0.394687 0.189747 0.588432
0.498932 0.194056 0.592443
0.601795 0.198360 0.596453
0.703541 0.202658 0.600461
0.804353 0.206949 0.604467
0.904363 0.211235 0.608471
0.075651 0.290803 0.584357
0.188530 0.294998 0.588370
0.296955 0.299189 0.592381
0.402850 0.303377 0.596391
0.506975 0.307560 0.600399
0.609742 0.311740 0.604405
0.711410 0.315917 0.608409
0.812156 0.320090 0.612412
0.912108 0.324259 0.616413
0.084694 0.401963 0.592319
0.197080 0.406073 0.596329
0.305265 0.410180 0.600337
0.411002 0.414284 0.604343
0.515009 0.418386 0.608348
0.617683 0.422485 0.612350
0.719274 0.426582 0.616351
0.819954 0.430676 0.620351
0.919848 0.434767 0.624349
0.093676 0.511168 0.600275
0.205607 0.515215 0.604281
0.313561 0.519261 0.608286
0.419143 0.523304 0.612289
0.523036 0.527345 0.616290
0.625618 0.531385 0.620289
0.727132 0.535422 0.624287
0.827747 0.539457 0.628283
0.927585 0.543491 0.632278
0.102602 0.618891 0.608224
0.214111 0.622890 0.612227
0.321843 0.626887 0.616228
0.427275 0.630882 0.620227
0.531054 0.634875 0.624225
0.633546 0.638867 0.628222
0.734985 0.642858 0.632216
0.835535 0.646846 0.636209
0.935317 0.650834 0.640201
0.111480 0.725425 0.616166
0.222593 0.729383 0.620166
0.330111 0.733340 0.624164
0.435397 0.737295 0.628160
0.539065 0.741249 0.632154
0.641468 0.745202 0.636148
0.742832 0.749154 0.640139
0.843319 0.753104 0.644129
0.943045 0.757052 0.648117
0.120312 0.830965 0.624102
0.231055 0.834889 0.628098
0.338366 0.838812 0.632093
0.443509 0.842734 0.636086
0.547068 0.846654 0.640077
0.649383 0.850574 0.644067
0.750675 0.854492 0.648055
0.851098 0.858409 0.652042
0.950769 0.862325 0.656027
0.129104 0.935653 0.632031
0.239497 0.939548 0.636024
0.346609 0.943442 0.640016
0.451612 0.947334 0.644006
0.555064 0.951226 0.647994
0.657292 0.955116 0.651981
0.758511 0.959006 0.655966
0.858873 0.962894 0.659950
0.958490 0.966782 0.663932
0.059099 0.059099 0.666958
0.172991 0.063734 0.670938
0.281876 0.068347 0.674916
0.388068 0.072940 0.678892
0.492412 0.077516 0.682867
0.595352 0.082074 0.686841
0.697163 0.086615 0.690813
0.798030 0.091142 0.694783
0.898087 0.095654 0.698752
0.068276 0.178413 0.674854
0.181587 0.182739 0.678831
0.290213 0.187059 0.682806
0.396239 0.191373 0.686779
0.500461 0.195680 0.690751
0.603306 0.199981 0.694722
0.705037 0.204277 0.698691
0.805836 0.208566 0.702659
0.905835 0.212850 0.706625
0.077374 0.292386 0.682744
0.190157 0.296579 0.686718
0.298535 0.300769 0.690690
0.404400 0.304955 0.694661
0.508502 0.309137 0.698630
0.611252 0.313316 0.702597
0.712905 0.317491 0.706564
0.813638 0.321662 0.710529
0.913579 0.325830 0.714492
0.086405 0.403513 0.690629
0.198702 0.407622 0.694599
0.306843 0.411728 0.698568
0.412550 0.415831 0.702536
0.516535 0.419932 0.706503
0.619192 0.424030 0.710467
0.720768 0.428126 0.714431
0.821435 0.432219 0.718393
0.921319 0.436310 0.722354
0.095376 0.512694 0.698507
0.207225 0.516741 0.702475
0.315136 0.520786 0.706441
0.420690 0.524828 0.710406
0.524560 0.528869 0.714370
0.627125 0.532907 0.718332
0.728625 0.536944 0.722292
0.829227 0.540979 0.726252
0.929054 0.545012 0.730210
0.104293 0.620399 0.706380
0.215724 0.624397 0.710345
0.323415 0.628393 0.714308
0.428819 0.632388 0.718271
0.532577 0.636381 0.722231
0.635052 0.640372 0.726191
0.736477 0.644362 0.730149
0.837015 0.648350 0.734105
0.936786 0.652337 0.738060
0.113162 0.726917 0.714247
0.224203 0.730875 0.718209
0.331681 0.734832 0.722170
0.436939 0.738787 0.726129
0.540586 0.742740 0.730087
0.642972 0.746692 0.734044
0.744323 0.750643 0.737999
0.844798 0.754593 0.741953
0.944513 0.758541 0.745906
0.121986 0.832445 0.722109
0.232661 0.836368 0.726068
0.339934 0.840291 0.730026
0.445049 0.844212 0.733983
0.548588 0.848132 0.737938
0.650887 0.852051 0.741892
0.752164 0.855969 0.745845
0.852576 0.859886 0.749796
0.952237 0.863802 0.753746
0.130770 0.937122 0.729965
0.241100 0.941017 0.733922
0.348173 0.944910 0.737877
0.453150 0.948802 0.741831
0.556583 0.952693 0.745784
0.658795 0.956583 0.749735
0.760000 0.960472 0.753685
0.860350 0.964360 0.757633
0.959956 0.968248 0.761581
0.060849 0.060849 0.764581
0.174626 0.065476 0.768526
0.283461 0.070082 0.772470
0.389622 0.074668 0.776412
0.493942 0.079236 0.780353
0.596864 0.083788 0.784293
0.698660 0.088324 0.788232
0.799514 0.092845 0.792169
0.899560 0.097353 0.796105
0.070011 0.180045 0.772409
0.183217 0.184369 0.776351
0.291796 0.188687 0.780293
0.397791 0.192998 0.784232
0.501990 0.197303 0.788171
0.604816 0.201602 0.792109
0.706532 0.205895 0.796045
0.807319 0.210183 0.799980
0.907307 0.214465 0.803913
0.079096 0.293968 0.780232
0.191783 0.298160 0.784172
0.300115 0.302348 0.788110
0.405949 0.306532 0.792048
0.510029 0.310713 0.795984
0.612761 0.314891 0.799919
0.714400 0.319064 0.803852
0.815120 0.323235 0.807785
0.915050 0.327401 0.811716
0.088114 0.405063 0.788049
0.200324 0.409171 0.791987
0.308420 0.413276 0.795923
0.414097 0.417378 0.799858
0.518061 0.421478 0.803792
0.620700 0.425575 0.807724
0.722261 0.429670 0.811655
0.822916 0.433762 0.815585
0.922789 0.437852 0.819514
0.097074 0.514221 0.795862
0.208842 0.518267 0.799797
0.316710 0.522310 0.803731
0.422235 0.526352 0.807663
0.526084 0.530392 0.811595
0.628632 0.534430 0.815525
0.730117 0.538466 0.819454
0.830707 0.542500 0.823381
0.930524 0.546532 0.827308
0.105982 0.621907 0.803670
0.217337 0.625904 0.807603
0.324987 0.629900 0.811534
0.430363 0.633894 0.815464
0.534100 0.637886 0.819393
0.636557 0.641877 0.823321
0.737968 0.645866 0.827247
0.838494 0.649854 0.831172
0.938255 0.653840 0.835096
0.114842 0.728410 0.811473
0.225812 0.732367 0.815403
0.333250 0.736323 0.819332
0.438481 0.740278 0.823260
0.542108 0.744231 0.827186
0.644477 0.748183 0.831112
0.745814 0.752133 0.835036
0.846276 0.756082 0.838959
0.945981 0.760030 0.842880
0.123658 0.833925 0.819271
0.234266 0.837848 0.823199
0.341500 0.841770 0.827126
0.446590 0.845691 0.831051
0.550108 0.849611 0.834975
0.652390 0.853529 0.838898
0.753654 0.857447 0.842820
0.854054 0.861363 0.846740
0.953704 0.865278 0.850660
0.132435 0.938591 0.827065
0.242701 0.942485 0.830990
0.349738 0.946378 0.834914
0.454689 0.950269 0.838837
0.558101 0.954160 0.842759
0.660297 0.958050 0.846680
0.761489 0.961939 0.850599
0.861827 0.965827 0.854518
0.961423 0.969713 0.858435
0.062597 0.062597 0.861412
0.176261 0.067215 0.865328
0.285046 0.071813 0.869242
0.391175 0.076393 0.873155
0.495472 0.080955 0.877066
0.598376 0.085501 0.880977
0.700156 0.090031 0.884887
0.800997 0.094547 0.888795
0.901032 0.099049 0.892702
0.071742 0.181677 0.869181
0.184847 0.185998 0.873094
0.293378 0.190313 0.877006
0.399342 0.194622 0.880917
0.503518 0.198925 0.884826
0.606326 0.203222 0.888735
0.708028 0.207513 0.892642
0.808802 0.211798 0.896548
0.908779 0.216078 0.900454
0.080814 0.295549 0.876946
0.193408 0.299740 0.880856
0.301695 0.303926 0.884766
0.407498 0.308110 0.888674
0.511556 0.312289 0.892582
0.614270 0.316465 0.896488
0.715894 0.320638 0.900393
0.816602 0.324806 0.904297
0.916521 0.328972 0.908201
0.089821 0.406612 0.884705
0.201944 0.410719 0.888614
0.309997 0.414823 0.892521
0.415645 0.418925 0.896428
0.519586 0.423023 0.900333
0.622207 0.427120 0.904237
0.723755 0.431213 0.908140
0.824397 0.435305 0.912042
0.924259 0.439394 0.915943
0.098771 0.515747 0.892461
0.210458 0.519792 0.896367
0.318284 0.523835 0.900273
0.423780 0.527876 0.904177
0.527608 0.531915 0.908080
0.630138 0.535952 0.911982
0.731610 0.539987 0.915883
0.832188 0.544021 0.919783
0.931993 0.548052 0.923682
0.107669 0.623415 0.900212
0.218949 0.627412 0.904117
0.326558 0.631406 0.908020
0.431906 0.635400 0.911922
0.535622 0.639392 0.915823
0.638063 0.643382 0.919723
0.739459 0.647370 0.923622
0.839973 0.651357 0.927519
0.939723 0.655343 0.931416
0.116521 0.729903 0.907959
0.227420 0.733859 0.911861
0.334819 0.737815 0.915762
0.440023 0.741769 0.919662
0.543628 0.745721 0.923561
0.645981 0.749673 0.927459
0.747304 0.753623 0.931356
0.847755 0.757571 0.935252
0.947449 0.761519 0.939146
0.125329 0.835404 0.915702
0.235870 0.839327 0.919602
0.343067 0.843249 0.923501
0.448129 0.847169 0.927399
0.551627 0.851089 0.931296
0.653893 0.855007 0.935191
0.755143 0.858924 0.939086
0.855531 0.862840 0.942980
0.955171 0.866754 0.946873
0.134098 0.940060 0.923441
0.244302 0.943953 0.927339
0.351302 0.947846 0.931236
0.456227 0.951737 0.935131
0.559619 0.955627 0.939026
0.661799 0.959517 0.942920
0.762977 0.963405 0.946812
0.863303 0.967292 0.950704
0.962889 0.971179 0.954595
