assets/luts/clean_bright.cube
TITLE "Clean Bright SaaS"
LUT_3D_SIZE 5
DOMAIN_MIN 0.0 0.0 0.0
DOMAIN_MAX 1.0 1.0 1.0
0.048522 0.048522 0.048522
0.272350 0.057877 0.057877
0.483224 0.067137 0.067137
0.688179 0.076315 0.076315
0.889247 0.085423 0.085423
0.066994 0.282883 0.066994
0.289045 0.291283 0.076174
0.499333 0.299668 0.085283
0.703933 0.308038 0.094331
0.904749 0.316394 0.103323
0.085143 0.503530 0.085143
0.305679 0.511631 0.094191
0.515409 0.519723 0.103185
0.719666 0.527807 0.112128
0.920234 0.535884 0.121026
0.103046 0.717957 0.103046
0.322256 0.725877 0.111990
0.531454 0.733792 0.120889
0.735376 0.741701 0.129746
0.935702 0.749605 0.138564
0.120752 0.928307 0.120752
0.338778 0.936099 0.129609
0.547467 0.943887 0.138428
0.751065 0.951671 0.147212
0.951154 0.959451 0.155962
0.052062 0.052062 0.264846
0.275528 0.061380 0.273282
0.486288 0.070607 0.281700
0.691174 0.079758 0.290103
0.892194 0.088842 0.298490
0.070465 0.286053 0.281570
0.292211 0.294447 0.289973
0.502391 0.302827 0.298361
0.706925 0.311191 0.306733
0.907693 0.319541 0.315091
0.088562 0.506586 0.298231
0.308834 0.514684 0.306604
0.518461 0.522773 0.314962
0.722653 0.530854 0.323306
0.923175 0.538927 0.331636
0.106425 0.720945 0.314833
0.325399 0.728863 0.323177
0.534499 0.736776 0.331508
0.738359 0.744683 0.339825
0.938640 0.752585 0.348129
0.124097 0.931246 0.331379
0.341911 0.939036 0.339696
0.550507 0.946823 0.348001
0.754044 0.954605 0.356292
0.954089 0.962383 0.364572
0.055588 0.055588 0.468755
0.278703 0.064869 0.476892
0.489351 0.074066 0.485020
0.694169 0.083191 0.493140
0.895141 0.092252 0.501251
0.073925 0.289220 0.484895
0.295374 0.297609 0.493015
0.505447 0.305983 0.501126
0.709915 0.314342 0.509229
0.910636 0.322687 0.517323
0.091973 0.509641 0.501001
0.311986 0.517735 0.509104
0.521511 0.525821 0.517198
0.725639 0.533900 0.525285
0.926115 0.541970 0.533364
0.109796 0.723931 0.517073
0.328541 0.731848 0.525160
0.537543 0.739758 0.533239
0.741342 0.747664 0.541310
0.941577 0.755563 0.549373
0.127436 0.934184 0.533114
0.345043 0.941973 0.541185
0.553545 0.949758 0.549249
0.757023 0.957539 0.557305
0.957023 0.965316 0.565353
0.059099 0.059099 0.666958
0.281876 0.068347 0.674916
0.492412 0.077516 0.682867
0.697163 0.086615 0.690813
0.898087 0.095654 0.698752
0.077374 0.292386 0.682744
0.298535 0.300769 0.690690
0.508502 0.309137 0.698630
0.712905 0.317491 0.706564
0.913579 0.325830 0.714492
0.095376 0.512694 0.698507
0.315136 0.520786 0.706441
0.524560 0.528869 0.714370
0.728625 0.536944 0.722292
0.929054 0.545012 0.730210
0.113162 0.726917 0.714247
0.331681 0.734832 0.722170
0.540586 0.742740 0.730087
0.744323 0.750643 0.737999
0.944513 0.758541 0.745906
0.130770 0.937122 0.729965
0.348173 0.944910 0.737877
0.556583 0.952693 0.745784
0.760000 0.960472 0.753685
0.959956 0.968248 0.761581
0.062597 0.062597 0.861412
0.285046 0.071813 0.869242
0.495472 0.080955 0.877066
0.700156 0.090031 0.884887
0.901032 0.099049 0.892702
0.080814 0.295549 0.876946
0.301695 0.303926 0.884766
0.511556 0.312289 0.892582
0.715894 0.320638 0.900393
0.916521 0.328972 0.908201
0.098771 0.515747 0.892461
0.318284 0.523835 0.900273
0.527608 0.531915 0.908080
0.731610 0.539987 0.915883
0.931993 0.548052 0.923682
0.116521 0.729903 0.907959
0.334819 0.737815 0.915762
0.543628 0.745721 0.923561
0.747304 0.753623 0.931356
0.947449 0.761519 0.939146
0.134098 0.940060 0.923441
0.351302 0.947846 0.931236
0.559619 0.955627 0.939026
0.762977 0.963405 0.946812
0.962889 0.971179 0.954595
