assets/luts/cool_modern.cube
TITLE "Cool Modern Tech"
LUT_3D_SIZE 9
DOMAIN_MIN 0.0 0.0 0.0
DOMAIN_MAX 1.0 1.0 1.0
0.000000 0.000000 0.025544
0.047444 0.000000 0.020555
0.185681 0.000000 0.015566
0.323917 0.000000 0.010577
0.462153 0.000000 0.005588
0.600389 0.000000 0.000598
0.738626 0.000000 0.000000
0.876862 0.000000 0.000000
1.000000 0.000000 0.000000
0.000000 0.077333 0.015749
0.052227 0.078147 0.010760
0.190463 0.078961 0.005771
0.328700 0.079775 0.000782
0.466936 0.080589 0.000000
0.605172 0.081403 0.000000
0.743408 0.082217 0.000000
0.881645 0.083031 0.000000
1.000000 0.083845 0.000000
0.000000 0.215056 0.005955
0.057010 0.215870 0.000966
0.195246 0.216684 0.000000
0.333483 0.217498 0.000000
0.471719 0.218312 0.000000
0.609955 0.219126 0.000000
0.748191 0.219940 0.000000
0.886428 0.220754 0.000000
1.000000 0.221568 0.000000
0.000000 0.352779 0.000000
0.061793 0.353593 0.000000
0.200029 0.354407 0.000000
0.338265 0.355221 0.000000
0.476502 0.356035 0.000000
0.614738 0.356849 0.000000
0.752974 0.357663 0.000000
0.891210 0.358478 0.000000
1.000000 0.358875 0.000000
0.000000 0.490502 0.000000
0.066576 0.491316 0.000000
0.204812 0.492130 0.000000
0.343048 0.492945 0.000000
0.481285 0.493759 0.000000
0.619521 0.494573 0.000000
0.756600 0.495000 0.000000
0.892400 0.495000 0.000000
1.000000 0.495000 0.000000
0.000000 0.628226 0.000000
0.071359 0.629040 0.000000
0.209595 0.629854 0.000000
0.347831 0.630668 0.000000
0.485000 0.631125 0.000000
0.620800 0.631125 0.000000
0.756600 0.631125 0.000000
0.892400 0.631125 0.000000
1.000000 0.631125 0.000000
0.000000 0.765949 0.000000
0.076142 0.766763 0.000000
0.213400 0.767250 0.000000
0.349200 0.767250 0.000000
0.485000 0.767250 0.000000
0.620800 0.767250 0.000000
0.756600 0.767250 0.000000
0.892400 0.767250 0.000000
1.000000 0.767250 0.000000
0.000000 0.903375 0.000000
0.077600 0.903375 0.000000
0.213400 0.903375 0.000000
0.349200 0.903375 0.000000
0.485000 0.903375 0.000000
0.620800 0.903375 0.000000
0.756600 0.903375 0.000000
0.892400 0.903375 0.000000
1.000000 0.903375 0.000000
0.000000 1.000000 0.000000
0.077600 1.000000 0.000000
0.213400 1.000000 0.000000
0.349200 1.000000 0.000000
0.485000 1.000000 0.000000
0.620800 1.000000 0.000000
0.756600 1.000000 0.000000
0.892400 1.000000 0.000000
1.000000 1.000000 0.000000
0.000000 0.000000 0.162692
0.048373 0.000000 0.157703
0.186609 0.000000 0.152714
0.324846 0.000000 0.147724
0.463082 0.000000 0.142735
0.601318 0.000000 0.137746
0.739554 0.000000 0.132757
0.877791 0.000000 0.127768
1.000000 0.000000 0.122779
0.000000 0.077643 0.152897
0.053156 0.078457 0.147908
0.191392 0.079272 0.142919
0.329629 0.080086 0.137930
0.467865 0.080900 0.132941
0.606101 0.081714 0.127952
0.744337 0.082528 0.122962
0.882574 0.083342 0.117973
1.000000 0.084156 0.112984
0.000000 0.215367 0.143102
0.057939 0.216181 0.138113
0.196175 0.216995 0.133124
0.334411 0.217809 0.128135
0.472648 0.218623 0.123146
0.610884 0.219437 0.118157
0.749120 0.220251 0.113168
0.887356 0.221065 0.108179
1.000000 0.221879 0.103190
0.000000 0.353090 0.133308
0.062722 0.353904 0.128319
0.200958 0.354718 0.123330
0.339194 0.355532 0.118340
0.477431 0.356346 0.113351
0.615667 0.357160 0.108362
0.753903 0.357974 0.103373
0.892139 0.358788 0.098384
1.000000 0.358875 0.097850
0.000000 0.490813 0.123513
0.067505 0.491627 0.118524
0.205741 0.492441 0.113535
0.343977 0.493255 0.108546
0.482213 0.494069 0.103557
0.620450 0.494883 0.098567
0.756600 0.495000 0.097850
0.892400 0.495000 0.097850
1.000000 0.495000 0.097850
0.000000 0.628536 0.113718
0.072288 0.629350 0.108729
0.210524 0.630164 0.103740
0.348760 0.630978 0.098751
0.485000 0.631125 0.097850
0.620800 0.631125 0.097850
0.756600 0.631125 0.097850
0.892400 0.631125 0.097850
1.000000 0.631125 0.097850
0.000000 0.766259 0.103924
0.077070 0.767073 0.098935
0.213400 0.767250 0.097850
0.349200 0.767250 0.097850
0.485000 0.767250 0.097850
0.620800 0.767250 0.097850
0.756600 0.767250 0.097850
0.892400 0.767250 0.097850
1.000000 0.767250 0.097850
0.000000 0.903375 0.097850
0.077600 0.903375 0.097850
0.213400 0.903375 0.097850
0.349200 0.903375 0.097850
0.485000 0.903375 0.097850
0.620800 0.903375 0.097850
0.756600 0.903375 0.097850
0.892400 0.903375 0.097850
1.000000 0.903375 0.097850
0.000000 1.000000 0.097850
0.077600 1.000000 0.097850
0.213400 1.000000 0.097850
0.349200 1.000000 0.097850
0.485000 1.000000 0.097850
0.620800 1.000000 0.097850
0.756600 1.000000 0.097850
0.892400 1.000000 0.097850
1.000000 1.000000 0.097850
0.000000 0.000000 0.299840
0.049302 0.000000 0.294850
0.187538 0.000000 0.289861
0.325774 0.000000 0.284872
0.464011 0.000000 0.279883
0.602247 0.000000 0.274894
0.740483 0.000000 0.269905
0.878720 0.000000 0.264916
1.000000 0.000000 0.259927
0.000000 0.077954 0.290045
0.054085 0.078768 0.285056
0.192321 0.079582 0.280067
0.330557 0.080396 0.275078
0.468794 0.081210 0.270088
0.607030 0.082024 0.265099
0.745266 0.082838 0.260110
0.883502 0.083652 0.255121
1.000000 0.084466 0.250132
0.000000 0.215677 0.280250
0.058868 0.216491 0.275261
0.197104 0.217305 0.270272
0.335340 0.218119 0.265283
0.473577 0.218933 0.260294
0.611813 0.219747 0.255305
0.750049 0.220561 0.250316
0.888285 0.221375 0.245326
1.000000 0.222189 0.240337
0.000000 0.353400 0.270456
0.063651 0.354214 0.265466
0.201887 0.355028 0.260477
0.340123 0.355842 0.255488
0.478359 0.356656 0.250499
0.616596 0.357470 0.245510
0.754832 0.358284 0.240521
0.892400 0.358875 0.236900
1.000000 0.358875 0.236900
0.000000 0.491123 0.260661
0.068433 0.491937 0.255672
0.206670 0.492751 0.250683
0.344906 0.493565 0.245694
0.483142 0.494379 0.240704
0.620800 0.495000 0.236900
0.756600 0.495000 0.236900
0.892400 0.495000 0.236900
1.000000 0.495000 0.236900
0.000000 0.628846 0.250866
0.073216 0.629660 0.245877
0.211453 0.630474 0.240888
0.349200 0.631125 0.236900
0.485000 0.631125 0.236900
0.620800 0.631125 0.236900
0.756600 0.631125 0.236900
0.892400 0.631125 0.236900
1.000000 0.631125 0.236900
0.000000 0.766569 0.241071
0.077600 0.767250 0.236900
0.213400 0.767250 0.236900
0.349200 0.767250 0.236900
0.485000 0.767250 0.236900
0.620800 0.767250 0.236900
0.756600 0.767250 0.236900
0.892400 0.767250 0.236900
1.000000 0.767250 0.236900
0.000000 0.903375 0.236900
0.077600 0.903375 0.236900
0.213400 0.903375 0.236900
0.349200 0.903375 0.236900
0.485000 0.903375 0.236900
0.620800 0.903375 0.236900
0.756600 0.903375 0.236900
0.892400 0.903375 0.236900
1.000000 0.903375 0.236900
0.000000 1.000000 0.236900
0.077600 1.000000 0.236900
0.213400 1.000000 0.236900
0.349200 1.000000 0.236900
0.485000 1.000000 0.236900
0.620800 1.000000 0.236900
0.756600 1.000000 0.236900
0.892400 1.000000 0.236900
1.000000 1.000000 0.236900
0.000000 0.000000 0.436987
0.050231 0.000000 0.431998
0.188467 0.000000 0.427009
0.326703 0.000000 0.422020
0.464940 0.000000 0.417031
0.603176 0.000000 0.412042
0.741412 0.000000 0.407053
0.879648 0.000000 0.402064
1.000000 0.000000 0.397074
0.000000 0.078264 0.427193
0.055014 0.079078 0.422204
0.193250 0.079892 0.417214
0.331486 0.080706 0.412225
0.469722 0.081520 0.407236
0.607959 0.082334 0.402247
0.746195 0.083148 0.397258
0.884431 0.083962 0.392269
1.000000 0.084776 0.387280
0.000000 0.215987 0.417398
0.059797 0.216801 0.412409
0.198033 0.217615 0.407420
0.336269 0.218429 0.402431
0.474505 0.219243 0.397442
0.612742 0.220057 0.392452
0.750978 0.220871 0.387463
0.889214 0.221686 0.382474
1.000000 0.222500 0.377485
0.000000 0.353710 0.407603
0.064579 0.354524 0.402614
0.202816 0.355338 0.397625
0.341052 0.356153 0.392636
0.479288 0.356967 0.387647
0.617525 0.357781 0.382658
0.755761 0.358595 0.377669
0.892400 0.358875 0.375950
1.000000 0.358875 0.375950
0.000000 0.491434 0.397809
0.069362 0.492248 0.392820
0.207599 0.493062 0.387830
0.345835 0.493876 0.382841
0.484071 0.494690 0.377852
0.620800 0.495000 0.375950
0.756600 0.495000 0.375950
0.892400 0.495000 0.375950
1.000000 0.495000 0.375950
0.000000 0.629157 0.388014
0.074145 0.629971 0.383025
0.212381 0.630785 0.378036
0.349200 0.631125 0.375950
0.485000 0.631125 0.375950
0.620800 0.631125 0.375950
0.756600 0.631125 0.375950
0.892400 0.631125 0.375950
1.000000 0.631125 0.375950
0.000000 0.766880 0.378219
0.077600 0.767250 0.375950
0.213400 0.767250 0.375950
0.349200 0.767250 0.375950
0.485000 0.767250 0.375950
0.620800 0.767250 0.375950
0.756600 0.767250 0.375950
0.892400 0.767250 0.375950
1.000000 0.767250 0.375950
0.000000 0.903375 0.375950
0.077600 0.903375 0.375950
0.213400 0.903375 0.375950
0.349200 0.903375 0.375950
0.485000 0.903375 0.375950
0.620800 0.903375 0.375950
0.756600 0.903375 0.375950
0.892400 0.903375 0.375950
1.000000 0.903375 0.375950
0.000000 1.000000 0.375950
0.077600 1.000000 0.375950
0.213400 1.000000 0.375950
0.349200 1.000000 0.375950
0.485000 1.000000 0.375950
0.620800 1.000000 0.375950
0.756600 1.000000 0.375950
0.892400 1.000000 0.375950
1.000000 1.000000 0.375950
0.000000 0.000000 0.574135
0.051160 0.000000 0.569146
0.189396 0.000000 0.564157
0.327632 0.000000 0.559168
0.465868 0.000000 0.554179
0.604105 0.000000 0.549190
0.742341 0.000000 0.544200
0.880577 0.000000 0.539211
1.000000 0.000000 0.534222
0.000000 0.078575 0.564341
0.055943 0.079389 0.559351
0.194179 0.080203 0.554362
0.332415 0.081017 0.549373
0.470651 0.081831 0.544384
0.608888 0.082645 0.539395
0.747124 0.083459 0.534406
0.885360 0.084273 0.529417
1.000000 0.085087 0.524428
0.000000 0.216298 0.554546
0.060725 0.217112 0.549557
0.198962 0.217926 0.544568
0.337198 0.218740 0.539578
0.475434 0.219554 0.534589
0.613670 0.220368 0.529600
0.751907 0.221182 0.524611
0.890143 0.221996 0.519622
1.000000 0.222750 0.515000
0.000000 0.354021 0.544751
0.065508 0.354835 0.539762
0.203745 0.355649 0.534773
0.341981 0.356463 0.529784
0.480217 0.357277 0.524795
0.618453 0.358091 0.519806
0.756600 0.358875 0.515000
0.892400 0.358875 0.515000
1.000000 0.358875 0.515000
0.000000 0.491744 0.534956
0.070291 0.492558 0.529967
0.208527 0.493372 0.524978
0.346764 0.494186 0.519989
0.485000 0.495000 0.515000
0.620800 0.495000 0.515000
0.756600 0.495000 0.515000
0.892400 0.495000 0.515000
1.000000 0.495000 0.515000
0.000000 0.629467 0.525162
0.075074 0.630281 0.520173
0.213310 0.631095 0.515184
0.349200 0.631125 0.515000
0.485000 0.631125 0.515000
0.620800 0.631125 0.515000
0.756600 0.631125 0.515000
0.892400 0.631125 0.515000
1.000000 0.631125 0.515000
0.000000 0.767190 0.515367
0.077600 0.767250 0.515000
0.213400 0.767250 0.515000
0.349200 0.767250 0.515000
0.485000 0.767250 0.515000
0.620800 0.767250 0.515000
0.756600 0.767250 0.515000
0.892400 0.767250 0.515000
1.000000 0.767250 0.515000
0.000000 0.903375 0.515000
0.077600 0.903375 0.515000
0.213400 0.903375 0.515000
0.349200 0.903375 0.515000
0.485000 0.903375 0.515000
0.620800 0.903375 0.515000
0.756600 0.903375 0.515000
0.892400 0.903375 0.515000
1.000000 0.903375 0.515000
0.000000 1.000000 0.515000
0.077600 1.000000 0.515000
0.213400 1.000000 0.515000
0.349200 1.000000 0.515000
0.485000 1.000000 0.515000
0.620800 1.000000 0.515000
0.756600 1.000000 0.515000
0.892400 1.000000 0.515000
1.000000 1.000000 0.515000
0.000000 0.000000 0.711283
0.052089 0.000000 0.706294
0.190325 0.000000 0.701305
0.328561 0.000000 0.696316
0.466797 0.000000 0.691327
0.605034 0.000000 0.686337
0.743270 0.000000 0.681348
0.881506 0.000000 0.676359
1.000000 0.000000 0.671370
0.000000 0.078885 0.701488
0.056871 0.079699 0.696499
0.195108 0.080513 0.691510
0.333344 0.081327 0.686521
0.471580 0.082141 0.681532
0.609816 0.082955 0.676543
0.748053 0.083769 0.671554
0.886289 0.084583 0.666565
1.000000 0.085397 0.661575
0.000000 0.216608 0.691694
0.061654 0.217422 0.686705
0.199891 0.218236 0.681715
0.338127 0.219050 0.676726
0.476363 0.219864 0.671737
0.614599 0.220678 0.666748
0.752836 0.221492 0.661759
0.891072 0.222306 0.656770
1.000000 0.222750 0.654050
0.000000 0.354331 0.681899
0.066437 0.355145 0.676910
0.204673 0.355959 0.671921
0.342910 0.356773 0.666932
0.481146 0.357587 0.661942
0.619382 0.358401 0.656953
0.756600 0.358875 0.654050
0.892400 0.358875 0.654050
1.000000 0.358875 0.654050
0.000000 0.492054 0.672104
0.071220 0.492868 0.667115
0.209456 0.493682 0.662126
0.347693 0.494496 0.657137
0.485000 0.495000 0.654050
0.620800 0.495000 0.654050
0.756600 0.495000 0.654050
0.892400 0.495000 0.654050
1.000000 0.495000 0.654050
0.000000 0.629777 0.662310
0.076003 0.630591 0.657320
0.213400 0.631125 0.654050
0.349200 0.631125 0.654050
0.485000 0.631125 0.654050
0.620800 0.631125 0.654050
0.756600 0.631125 0.654050
0.892400 0.631125 0.654050
1.000000 0.631125 0.654050
0.000000 0.767250 0.654050
0.077600 0.767250 0.654050
0.213400 0.767250 0.654050
0.349200 0.767250 0.654050
0.485000 0.767250 0.654050
0.620800 0.767250 0.654050
0.756600 0.767250 0.654050
0.892400 0.767250 0.654050
1.000000 0.767250 0.654050
0.000000 0.903375 0.654050
0.077600 0.903375 0.654050
0.213400 0.903375 0.654050
0.349200 0.903375 0.654050
0.485000 0.903375 0.654050
0.620800 0.903375 0.654050
0.756600 0.903375 0.654050
0.892400 0.903375 0.654050
1.000000 0.903375 0.654050
0.000000 1.000000 0.654050
0.077600 1.000000 0.654050
0.213400 1.000000 0.654050
0.349200 1.000000 0.654050
0.485000 1.000000 0.654050
0.620800 1.000000 0.654050
0.756600 1.000000 0.654050
0.892400 1.000000 0.654050
1.000000 1.000000 0.654050
0.000000 0.000000 0.848431
0.053017 0.000000 0.843442
0.191254 0.000000 0.838453
0.329490 0.000000 0.833463
0.467726 0.000000 0.828474
0.605962 0.000000 0.823485
0.744199 0.000000 0.818496
0.882435 0.000000 0.813507
1.000000 0.000000 0.808518
0.000000 0.079195 0.838636
0.057800 0.080009 0.833647
0.196037 0.080823 0.828658
0.334273 0.081637 0.823669
0.472509 0.082451 0.818680
0.610745 0.083265 0.813691
0.748982 0.084079 0.808701
0.887218 0.084893 0.803712
1.000000 0.085708 0.798723
0.000000 0.216918 0.828841
0.062583 0.217732 0.823852
0.200819 0.218546 0.818863
0.339056 0.219360 0.813874
0.477292 0.220175 0.808885
0.615528 0.220989 0.803896
0.753764 0.221803 0.798907
0.892001 0.222617 0.793918
1.000000 0.222750 0.793100
0.000000 0.354642 0.819047
0.067366 0.355456 0.814058
0.205602 0.356270 0.809069
0.343839 0.357084 0.804079
0.482075 0.357898 0.799090
0.620311 0.358712 0.794101
0.756600 0.358875 0.793100
0.892400 0.358875 0.793100
1.000000 0.358875 0.793100
0.000000 0.492365 0.809252
0.072149 0.493179 0.804263
0.210385 0.493993 0.799274
0.348621 0.494807 0.794285
0.485000 0.495000 0.793100
0.620800 0.495000 0.793100
0.756600 0.495000 0.793100
0.892400 0.495000 0.793100
1.000000 0.495000 0.793100
0.000000 0.630088 0.799457
0.076932 0.630902 0.794468
0.213400 0.631125 0.793100
0.349200 0.631125 0.793100
0.485000 0.631125 0.793100
0.620800 0.631125 0.793100
0.756600 0.631125 0.793100
0.892400 0.631125 0.793100
1.000000 0.631125 0.793100
0.000000 0.767250 0.793100
0.077600 0.767250 0.793100
0.213400 0.767250 0.793100
0.349200 0.767250 0.793100
0.485000 0.767250 0.793100
0.620800 0.767250 0.793100
0.756600 0.767250 0.793100
0.892400 0.767250 0.793100
1.000000 0.767250 0.793100
0.000000 0.903375 0.793100
0.077600 0.903375 0.793100
0.213400 0.903375 0.793100
0.349200 0.903375 0.793100
0.485000 0.903375 0.793100
0.620800 0.903375 0.793100
0.756600 0.903375 0.793100
0.892400 0.903375 0.793100
1.000000 0.903375 0.793100
0.000000 1.000000 0.793100
0.077600 1.000000 0.793100
0.213400 1.000000 0.793100
0.349200 1.000000 0.793100
0.485000 1.000000 0.793100
0.620800 1.000000 0.793100
0.756600 1.000000 0.793100
0.892400 1.000000 0.793100
1.000000 1.000000 0.793100
0.000000 0.000000 0.985579
0.053946 0.000000 0.980589
0.192183 0.000000 0.975600
0.330419 0.000000 0.970611
0.468655 0.000000 0.965622
0.606891 0.000000 0.960633
0.745128 0.000000 0.955644
0.883364 0.000000 0.950655
1.000000 0.000000 0.945666
0.000000 0.079506 0.975784
0.058729 0.080320 0.970795
0.196965 0.081134 0.965806
0.335202 0.081948 0.960817
0.473438 0.082762 0.955827
0.611674 0.083576 0.950838
0.749910 0.084390 0.945849
0.888147 0.085204 0.940860
1.000000 0.086018 0.935871
0.000000 0.217229 0.965989
0.063512 0.218043 0.961000
0.201748 0.218857 0.956011
0.339985 0.219671 0.951022
0.478221 0.220485 0.946033
0.616457 0.221299 0.941044
0.754693 0.222113 0.936055
0.892400 0.222750 0.932150
1.000000 0.222750 0.932150
0.000000 0.354952 0.956195
0.068295 0.355766 0.951205
0.206531 0.356580 0.946216
0.344767 0.357394 0.941227
0.483004 0.358208 0.936238
0.620800 0.358875 0.932150
0.756600 0.358875 0.932150
0.892400 0.358875 0.932150
1.000000 0.358875 0.932150
0.000000 0.492675 0.946400
0.073078 0.493489 0.941411
0.211314 0.494303 0.936422
0.349200 0.495000 0.932150
0.485000 0.495000 0.932150
0.620800 0.495000 0.932150
0.756600 0.495000 0.932150
0.892400 0.495000 0.932150
1.000000 0.495000 0.932150
0.000000 0.630398 0.936605
0.077600 0.631125 0.932150
0.213400 0.631125 0.932150
0.349200 0.631125 0.932150
0.485000 0.631125 0.932150
0.620800 0.631125 0.932150
0.756600 0.631125 0.932150
0.892400 0.631125 0.932150
1.000000 0.631125 0.932150
0.000000 0.767250 0.932150
0.077600 0.767250 0.932150
0.213400 0.767250 0.932150
0.349200 0.767250 0.932150
0.485000 0.767250 0.932150
0.620800 0.767250 0.932150
0.756600 0.767250 0.932150
0.892400 0.767250 0.932150
1.000000 0.767250 0.932150
0.000000 0.903375 0.932150
0.077600 0.903375 0.932150
0.213400 0.903375 0.932150
0.349200 0.903375 0.932150
0.485000 0.903375 0.932150
0.620800 0.903375 0.932150
0.756600 0.903375 0.932150
0.892400 0.903375 0.932150
1.000000 0.903375 0.932150
0.000000 1.000000 0.932150
0.077600 1.000000 0.932150
0.213400 1.000000 0.932150
0.349200 1.000000 0.932150
0.485000 1.000000 0.932150
0.620800 1.000000 0.932150
0.756600 1.000000 0.932150
0.892400 1.000000 0.932150
1.000000 1.000000 0.932150
0.000000 0.000000 1.000000
0.054875 0.000000 1.000000
0.193111 0.000000 1.000000
0.331348 0.000000 1.000000
0.469584 0.000000 1.000000
0.607820 0.000000 1.000000
0.746056 0.000000 1.000000
0.884293 0.000000 1.000000
1.000000 0.000000 1.000000
0.000000 0.079816 1.000000
0.059658 0.080630 1.000000
0.197894 0.081444 1.000000
0.336131 0.082258 1.000000
0.474367 0.083072 1.000000
0.612603 0.083886 1.000000
0.750839 0.084700 1.000000
0.889076 0.085514 1.000000
1.000000 0.086328 1.000000
0.000000 0.217539 1.000000
0.064441 0.218353 1.000000
0.202677 0.219167 1.000000
0.340913 0.219981 1.000000
0.479150 0.220795 1.000000
0.617386 0.221609 1.000000
0.755622 0.222423 1.000000
0.892400 0.222750 1.000000
1.000000 0.222750 1.000000
0.000000 0.355262 1.000000
0.069224 0.356076 1.000000
0.207460 0.356890 1.000000
0.345696 0.357704 1.000000
0.483933 0.358518 1.000000
0.620800 0.358875 1.000000
0.756600 0.358875 1.000000
0.892400 0.358875 1.000000
1.000000 0.358875 1.000000
0.000000 0.492985 1.000000
0.074007 0.493799 1.000000
0.212243 0.494613 1.000000
0.349200 0.495000 1.000000
0.485000 0.495000 1.000000
0.620800 0.495000 1.000000
0.756600 0.495000 1.000000
0.892400 0.495000 1.000000
1.000000 0.495000 1.000000
0.000000 0.630708 1.000000
0.077600 0.631125 1.000000
0.213400 0.631125 1.000000
0.349200 0.631125 1.000000
0.485000 0.631125 1.000000
0.620800 0.631125 1.000000
0.756600 0.631125 1.000000
0.892400 0.631125 1.000000
1.000000 0.631125 1.000000
0.000000 0.767250 1.000000
0.077600 0.767250 1.000000
0.213400 0.767250 1.000000
0.349200 0.767250 1.000000
0.485000 0.767250 1.000000
0.620800 0.767250 1.000000
0.756600 0.767250 1.000000
0.892400 0.767250 1.000000
1.000000 0.767250 1.000000
0.000000 0.903375 1.000000
0.077600 0.903375 1.000000
0.213400 0.903375 1.000000
0.349200 0.903375 1.000000
0.485000 0.903375 1.000000
0.620800 0.903375 1.000000
0.756600 0.903375 1.000000
0.892400 0.903375 1.000000
1.000000 0.903375 1.000000
0.000000 1.000000 1.000000
0.077600 1.000000 1.000000
0.213400 1.000000 1.000000
0.349200 1.000000 1.000000
0.485000 1.000000 1.000000
0.620800 1.000000 1.000000
0.756600 1.000000 1.000000
0.892400 1.000000 1.000000
1.000000 1.000000 1.000000
