assets/luts/cool_modern.cube
TITLE "Cool Modern Tech"
LUT_3D_SIZE 17
DOMAIN_MIN 0.0 0.0 0.0
DOMAIN_MAX 1.0 1.0 1.0
0.000000 0.000000 0.025544
0.000000 0.000000 0.023049
0.047444 0.000000 0.020555
0.116562 0.000000 0.018060
0.185681 0.000000 0.015566
0.254799 0.000000 0.013071
0.323917 0.000000 0.010577
0.393035 0.000000 0.008082
0.462153 0.000000 0.005588
0.531271 0.000000 0.003093
0.600389 0.000000 0.000598
0.669507 0.000000 0.000000
0.738626 0.000000 0.000000
0.807744 0.000000 0.000000
0.876862 0.000000 0.000000
0.945980 0.000000 0.000000
1.000000 0.000000 0.000000
0.000000 0.008472 0.020647
0.000000 0.008879 0.018152
0.049836 0.009286 0.015658
0.118954 0.009693 0.013163
0.188072 0.010100 0.010668
0.257190 0.010507 0.008174
0.326308 0.010914 0.005679
0.395426 0.011321 0.003185
0.464544 0.011728 0.000690
0.533663 0.012135 0.000000
0.602781 0.012542 0.000000
0.671899 0.012949 0.000000
0.741017 0.013356 0.000000
0.810135 0.013763 0.000000
0.879253 0.014170 0.000000
0.948371 0.014577 0.000000
1.000000 0.014984 0.000000
0.000000 0.077333 0.015749
0.000000 0.077740 0.013255
0.052227 0.078147 0.010760
0.121345 0.078554 0.008266
0.190463 0.078961 0.005771
0.259582 0.079368 0.003277
0.328700 0.079775 0.000782
0.397818 0.080182 0.000000
0.466936 0.080589 0.000000
0.536054 0.080996 0.000000
0.605172 0.081403 0.000000
0.674290 0.081810 0.000000
0.743408 0.082217 0.000000
0.812527 0.082624 0.000000
0.881645 0.083031 0.000000
0.950763 0.083438 0.000000
1.000000 0.083845 0.000000
0.000000 0.146195 0.010852
0.000000 0.146602 0.008357
0.054619 0.147009 0.005863
0.123737 0.147416 0.003368
0.192855 0.147823 0.000874
0.261973 0.148230 0.000000
0.331091 0.148637 0.000000
0.400209 0.149044 0.000000
0.469327 0.149451 0.000000
0.538445 0.149858 0.000000
0.607564 0.150265 0.000000
0.676682 0.150672 0.000000
0.745800 0.151079 0.000000
0.814918 0.151486 0.000000
0.884036 0.151893 0.000000
0.953154 0.152300 0.000000
1.000000 0.152707 0.000000
0.000000 0.215056 0.005955
0.000000 0.215463 0.003460
0.057010 0.215870 0.000966
0.126128 0.216277 0.000000
0.195246 0.216684 0.000000
0.264364 0.217091 0.000000
0.333483 0.217498 0.000000
0.402601 0.217905 0.000000
0.471719 0.218312 0.000000
0.540837 0.218719 0.000000
0.609955 0.219126 0.000000
0.679073 0.219533 0.000000
0.748191 0.219940 0.000000
0.817309 0.220347 0.000000
0.886428 0.220754 0.000000
0.955546 0.221161 0.000000
1.000000 0.221568 0.000000
0.000000 0.283918 0.001057
0.000000 0.284325 0.000000
0.059401 0.284732 0.000000
0.128520 0.285139 0.000000
0.197638 0.285546 0.000000
0.266756 0.285953 0.000000
0.335874 0.286360 0.000000
0.404992 0.286767 0.000000
0.474110 0.287174 0.000000
0.543228 0.287581 0.000000
0.612346 0.287988 0.000000
0.681465 0.288395 0.000000
0.750583 0.288802 0.000000
0.819701 0.289209 0.000000
0.888819 0.289616 0.000000
0.957937 0.290023 0.000000
1.000000 0.290430 0.000000
0.000000 0.352779 0.000000
0.000000 0.353186 0.000000
0.061793 0.353593 0.000000
0.130911 0.354000 0.000000
0.200029 0.354407 0.000000
0.269147 0.354814 0.000000
0.338265 0.355221 0.000000
0.407384 0.355628 0.000000
0.476502 0.356035 0.000000
0.545620 0.356442 0.000000
0.614738 0.356849 0.000000
0.683856 0.357256 0.000000
0.752974 0.357663 0.000000
0.822092 0.358071 0.000000
0.891210 0.358478 0.000000
0.960300 0.358875 0.000000
1.000000 0.358875 0.000000
0.000000 0.421641 0.000000
0.000000 0.422048 0.000000
0.064184 0.422455 0.000000
0.133302 0.422862 0.000000
0.202421 0.423269 0.000000
0.271539 0.423676 0.000000
0.340657 0.424083 0.000000
0.409775 0.424490 0.000000
0.478893 0.424897 0.000000
0.548011 0.425304 0.000000
0.617129 0.425711 0.000000
0.686247 0.426118 0.000000
0.755366 0.426525 0.000000
0.824484 0.426932 0.000000
0.892400 0.426938 0.000000
0.960300 0.426938 0.000000
1.000000 0.426938 0.000000
0.000000 0.490502 0.000000
0.000000 0.490909 0.000000
0.066576 0.491316 0.000000
0.135694 0.491723 0.000000
0.204812 0.492130 0.000000
0.273930 0.492537 0.000000
0.343048 0.492945 0.000000
0.412166 0.493352 0.000000
0.481285 0.493759 0.000000
0.550403 0.494166 0.000000
0.619521 0.494573 0.000000
0.688639 0.494980 0.000000
0.756600 0.495000 0.000000
0.824500 0.495000 0.000000
0.892400 0.495000 0.000000
0.960300 0.495000 0.000000
1.000000 0.495000 0.000000
0.000000 0.559364 0.000000
0.000000 0.559771 0.000000
0.068967 0.560178 0.000000
0.138085 0.560585 0.000000
0.207203 0.560992 0.000000
0.276322 0.561399 0.000000
0.345440 0.561806 0.000000
0.414558 0.562213 0.000000
0.483676 0.562620 0.000000
0.552794 0.563027 0.000000
0.620800 0.563063 0.000000
0.688700 0.563063 0.000000
0.756600 0.563063 0.000000
0.824500 0.563063 0.000000
0.892400 0.563063 0.000000
0.960300 0.563063 0.000000
1.000000 0.563063 0.000000
0.000000 0.628226 0.000000
0.002241 0.628633 0.000000
0.071359 0.629040 0.000000
0.140477 0.629447 0.000000
0.209595 0.629854 0.000000
0.278713 0.630261 0.000000
0.347831 0.630668 0.000000
0.416949 0.631075 0.000000
0.485000 0.631125 0.000000
0.552900 0.631125 0.000000
0.620800 0.631125 0.000000
0.688700 0.631125 0.000000
0.756600 0.631125 0.000000
0.824500 0.631125 0.000000
0.892400 0.631125 0.000000
0.960300 0.631125 0.000000
1.000000 0.631125 0.000000
0.000000 0.697087 0.000000
0.004632 0.697494 0.000000
0.073750 0.697901 0.000000
0.142868 0.698308 0.000000
0.211986 0.698715 0.000000
0.281104 0.699122 0.000000
0.349200 0.699188 0.000000
0.417100 0.699188 0.000000
0.485000 0.699188 0.000000
0.552900 0.699188 0.000000
0.620800 0.699188 0.000000
0.688700 0.699188 0.000000
0.756600 0.699188 0.000000
0.824500 0.699188 0.000000
0.892400 0.699188 0.000000
0.960300 0.699188 0.000000
1.000000 0.699188 0.000000
0.000000 0.765949 0.000000
0.007023 0.766356 0.000000
0.076142 0.766763 0.000000
0.145260 0.767170 0.000000
0.213400 0.767250 0.000000
0.281300 0.767250 0.000000
0.349200 0.767250 0.000000
0.417100 0.767250 0.000000
0.485000 0.767250 0.000000
0.552900 0.767250 0.000000
0.620800 0.767250 0.000000
0.688700 0.767250 0.000000
0.756600 0.767250 0.000000
0.824500 0.767250 0.000000
0.892400 0.767250 0.000000
0.960300 0.767250 0.000000
1.000000 0.767250 0.000000
0.000000 0.834810 0.000000
0.009415 0.835217 0.000000
0.077600 0.835313 0.000000
0.145500 0.835313 0.000000
0.213400 0.835313 0.000000
0.281300 0.835313 0.000000
0.349200 0.835313 0.000000
0.417100 0.835313 0.000000
0.485000 0.835313 0.000000
0.552900 0.835313 0.000000
0.620800 0.835313 0.000000
0.688700 0.835313 0.000000
0.756600 0.835313 0.000000
0.824500 0.835313 0.000000
0.892400 0.835313 0.000000
0.960300 0.835313 0.000000
1.000000 0.835313 0.000000
0.000000 0.903375 0.000000
0.009700 0.903375 0.000000
0.077600 0.903375 0.000000
0.145500 0.903375 0.000000
0.213400 0.903375 0.000000
0.281300 0.903375 0.000000
0.349200 0.903375 0.000000
0.417100 0.903375 0.000000
0.485000 0.903375 0.000000
0.552900 0.903375 0.000000
0.620800 0.903375 0.000000
0.688700 0.903375 0.000000
0.756600 0.903375 0.000000
0.824500 0.903375 0.000000
0.892400 0.903375 0.000000
0.960300 0.903375 0.000000
1.000000 0.903375 0.000000
0.000000 0.971438 0.000000
0.009700 0.971438 0.000000
0.077600 0.971438 0.000000
0.145500 0.971438 0.000000
0.213400 0.971438 0.000000
0.281300 0.971438 0.000000
0.349200 0.971438 0.000000
0.417100 0.971438 0.000000
0.485000 0.971438 0.000000
0.552900 0.971438 0.000000
0.620800 0.971438 0.000000
0.688700 0.971438 0.000000
0.756600 0.971438 0.000000
0.824500 0.971438 0.000000
0.892400 0.971438 0.000000
0.960300 0.971438 0.000000
1.000000 0.971438 0.000000
0.000000 1.000000 0.000000
0.009700 1.000000 0.000000
0.077600 1.000000 0.000000
0.145500 1.000000 0.000000
0.213400 1.000000 0.000000
0.281300 1.000000 0.000000
0.349200 1.000000 0.000000
0.417100 1.000000 0.000000
0.485000 1.000000 0.000000
0.552900 1.000000 0.000000
0.620800 1.000000 0.000000
0.688700 1.000000 0.000000
0.756600 1.000000 0.000000
0.824500 1.000000 0.000000
0.892400 1.000000 0.000000
0.960300 1.000000 0.000000
1.000000 1.000000 0.000000
0.000000 0.000000 0.094118
0.000000 0.000000 0.091623
0.047909 0.000000 0.089129
0.117027 0.000000 0.086634
0.186145 0.000000 0.084140
0.255263 0.000000 0.081645
0.324381 0.000000 0.079151
0.393499 0.000000 0.076656
0.462617 0.000000 0.074161
0.531736 0.000000 0.071667
0.600854 0.000000 0.069172
0.669972 0.000000 0.066678
0.739090 0.000000 0.064183
0.808208 0.000000 0.061689
0.877326 0.000000 0.059194
0.946444 0.000000 0.056700
1.000000 0.000000 0.054205
0.000000 0.008627 0.089221
0.000000 0.009034 0.086726
0.050300 0.009441 0.084231
0.119418 0.009848 0.081737
0.188536 0.010255 0.079242
0.257655 0.010662 0.076748
0.326773 0.011069 0.074253
0.395891 0.011476 0.071759
0.465009 0.011883 0.069264
0.534127 0.012290 0.066770
0.603245 0.012697 0.064275
0.672363 0.013104 0.061780
0.741481 0.013511 0.059286
0.810600 0.013918 0.056791
0.879718 0.014325 0.054297
0.948836 0.014732 0.051802
1.000000 0.015139 0.049308
0.000000 0.077488 0.084323
0.000000 0.077895 0.081829
0.052692 0.078302 0.079334
0.121810 0.078709 0.076840
0.190928 0.079116 0.074345
0.260046 0.079523 0.071850
0.329164 0.079930 0.069356
0.398282 0.080337 0.066861
0.467400 0.080744 0.064367
0.536518 0.081151 0.061872
0.605637 0.081558 0.059378
0.674755 0.081965 0.056883
0.743873 0.082372 0.054389
0.812991 0.082779 0.051894
0.882109 0.083186 0.049399
0.951227 0.083593 0.046905
1.000000 0.084001 0.044410
0.000000 0.146350 0.079426
0.000000 0.146757 0.076931
0.055083 0.147164 0.074437
0.124201 0.147571 0.071942
0.193319 0.147978 0.069448
0.262437 0.148385 0.066953
0.331556 0.148792 0.064459
0.400674 0.149199 0.061964
0.469792 0.149606 0.059469
0.538910 0.150013 0.056975
0.608028 0.150420 0.054480
0.677146 0.150827 0.051986
0.746264 0.151234 0.049491
0.815382 0.151641 0.046997
0.884501 0.152048 0.044502
0.953619 0.152455 0.042008
1.000000 0.152862 0.039513
0.000000 0.215211 0.074529
0.000000 0.215618 0.072034
0.057474 0.216025 0.069539
0.126593 0.216432 0.067045
0.195711 0.216839 0.064550
0.264829 0.217246 0.062056
0.333947 0.217653 0.059561
0.403065 0.218060 0.057067
0.472183 0.218468 0.054572
0.541301 0.218875 0.052078
0.610419 0.219282 0.049583
0.679538 0.219689 0.047088
0.748656 0.220096 0.044594
0.817774 0.220503 0.042099
0.886892 0.220910 0.039605
0.956010 0.221317 0.037110
1.000000 0.221724 0.034616
0.000000 0.284073 0.069631
0.000000 0.284480 0.067137
0.059866 0.284887 0.064642
0.128984 0.285294 0.062148
0.198102 0.285701 0.059653
0.267220 0.286108 0.057158
0.336338 0.286515 0.054664
0.405457 0.286922 0.052169
0.474575 0.287329 0.049675
0.543693 0.287736 0.047180
0.612811 0.288143 0.044686
0.681929 0.288550 0.042191
0.751047 0.288957 0.039697
0.820165 0.289364 0.037202
0.889283 0.289771 0.034707
0.958402 0.290178 0.032213
1.000000 0.290585 0.029718
0.000000 0.352935 0.064734
0.000000 0.353342 0.062239
0.062257 0.353749 0.059745
0.131375 0.354156 0.057250
0.200494 0.354563 0.054756
0.269612 0.354970 0.052261
0.338730 0.355377 0.049767
0.407848 0.355784 0.047272
0.476966 0.356191 0.044777
0.546084 0.356598 0.042283
0.615202 0.357005 0.039788
0.684320 0.357412 0.037294
0.753439 0.357819 0.034799
0.822557 0.358226 0.032305
0.891675 0.358633 0.029810
0.960300 0.358875 0.028325
1.000000 0.358875 0.028325
0.000000 0.421796 0.059837
0.000000 0.422203 0.057342
0.064649 0.422610 0.054847
0.133767 0.423017 0.052353
0.202885 0.423424 0.049858
0.272003 0.423831 0.047364
0.341121 0.424238 0.044869
0.410239 0.424645 0.042375
0.479358 0.425052 0.039880
0.548476 0.425459 0.037385
0.617594 0.425866 0.034891
0.686712 0.426273 0.032396
0.755830 0.426680 0.029902
0.824500 0.426938 0.028325
0.892400 0.426938 0.028325
0.960300 0.426938 0.028325
1.000000 0.426938 0.028325
0.000000 0.490658 0.054939
0.000000 0.491065 0.052445
0.067040 0.491472 0.049950
0.136158 0.491879 0.047455
0.205276 0.492286 0.044961
0.274395 0.492693 0.042466
0.343513 0.493100 0.039972
0.412631 0.493507 0.037477
0.481749 0.493914 0.034983
0.550867 0.494321 0.032488
0.619985 0.494728 0.029994
0.688700 0.495000 0.028325
0.756600 0.495000 0.028325
0.824500 0.495000 0.028325
0.892400 0.495000 0.028325
0.960300 0.495000 0.028325
1.000000 0.495000 0.028325
0.000000 0.559519 0.050042
0.000314 0.559926 0.047547
0.069432 0.560333 0.045053
0.138550 0.560740 0.042558
0.207668 0.561147 0.040064
0.276786 0.561554 0.037569
0.345904 0.561961 0.035074
0.415022 0.562368 0.032580
0.484140 0.562775 0.030085
0.552900 0.563063 0.028325
0.620800 0.563063 0.028325
0.688700 0.563063 0.028325
0.756600 0.563063 0.028325
0.824500 0.563063 0.028325
0.892400 0.563063 0.028325
0.960300 0.563063 0.028325
1.000000 0.563063 0.028325
0.000000 0.628381 0.045144
0.002705 0.628788 0.042650
0.071823 0.629195 0.040155
0.140941 0.629602 0.037661
0.210059 0.630009 0.035166
0.279177 0.630416 0.032672
0.348296 0.630823 0.030177
0.417100 0.631125 0.028325
0.485000 0.631125 0.028325
0.552900 0.631125 0.028325
0.620800 0.631125 0.028325
0.688700 0.631125 0.028325
0.756600 0.631125 0.028325
0.824500 0.631125 0.028325
0.892400 0.631125 0.028325
0.960300 0.631125 0.028325
1.000000 0.631125 0.028325
0.000000 0.697242 0.040247
0.005096 0.697649 0.037753
0.074215 0.698056 0.035258
0.143333 0.698463 0.032763
0.212451 0.698870 0.030269
0.281300 0.699188 0.028325
0.349200 0.699188 0.028325
0.417100 0.699188 0.028325
0.485000 0.699188 0.028325
0.552900 0.699188 0.028325
0.620800 0.699188 0.028325
0.688700 0.699188 0.028325
0.756600 0.699188 0.028325
0.824500 0.699188 0.028325
0.892400 0.699188 0.028325
0.960300 0.699188 0.028325
1.000000 0.699188 0.028325
0.000000 0.766104 0.035350
0.007488 0.766511 0.032855
0.076606 0.766918 0.030361
0.145500 0.767250 0.028325
0.213400 0.767250 0.028325
0.281300 0.767250 0.028325
0.349200 0.767250 0.028325
0.417100 0.767250 0.028325
0.485000 0.767250 0.028325
0.552900 0.767250 0.028325
0.620800 0.767250 0.028325
0.688700 0.767250 0.028325
0.756600 0.767250 0.028325
0.824500 0.767250 0.028325
0.892400 0.767250 0.028325
0.960300 0.767250 0.028325
1.000000 0.767250 0.028325
0.000000 0.834965 0.030452
0.009700 0.835313 0.028325
0.077600 0.835313 0.028325
0.145500 0.835313 0.028325
0.213400 0.835313 0.028325
0.281300 0.835313 0.028325
0.349200 0.835313 0.028325
0.417100 0.835313 0.028325
0.485000 0.835313 0.028325
0.552900 0.835313 0.028325
0.620800 0.835313 0.028325
0.688700 0.835313 0.028325
0.756600 0.835313 0.028325
0.824500 0.835313 0.028325
0.892400 0.835313 0.028325
0.960300 0.835313 0.028325
1.000000 0.835313 0.028325
0.000000 0.903375 0.028325
0.009700 0.903375 0.028325
0.077600 0.903375 0.028325
0.145500 0.903375 0.028325
0.213400 0.903375 0.028325
0.281300 0.903375 0.028325
0.349200 0.903375 0.028325
0.417100 0.903375 0.028325
0.485000 0.903375 0.028325
0.552900 0.903375 0.028325
0.620800 0.903375 0.028325
0.688700 0.903375 0.028325
0.756600 0.903375 0.028325
0.824500 0.903375 0.028325
0.892400 0.903375 0.028325
0.960300 0.903375 0.028325
1.000000 0.903375 0.028325
0.000000 0.971438 0.028325
0.009700 0.971438 0.028325
0.077600 0.971438 0.028325
0.145500 0.971438 0.028325
0.213400 0.971438 0.028325
0.281300 0.971438 0.028325
0.349200 0.971438 0.028325
0.417100 0.971438 0.028325
0.485000 0.971438 0.028325
0.552900 0.971438 0.028325
0.620800 0.971438 0.028325
0.688700 0.971438 0.028325
0.756600 0.971438 0.028325
0.824500 0.971438 0.028325
0.892400 0.971438 0.028325
0.960300 0.971438 0.028325
1.000000 0.971438 0.028325
0.000000 1.000000 0.028325
0.009700 1.000000 0.028325
0.077600 1.000000 0.028325
0.145500 1.000000 0.028325
0.213400 1.000000 0.028325
0.281300 1.000000 0.028325
0.349200 1.000000 0.028325
0.417100 1.000000 0.028325
0.485000 1.000000 0.028325
0.552900 1.000000 0.028325
0.620800 1.000000 0.028325
0.688700 1.000000 0.028325
0.756600 1.000000 0.028325
0.824500 1.000000 0.028325
0.892400 1.000000 0.028325
0.960300 1.000000 0.028325
1.000000 1.000000 0.028325
0.000000 0.000000 0.162692
0.000000 0.000000 0.160197
0.048373 0.000000 0.157703
0.117491 0.000000 0.155208
0.186609 0.000000 0.152714
0.255728 0.000000 0.150219
0.324846 0.000000 0.147724
0.393964 0.000000 0.145230
0.463082 0.000000 0.142735
0.532200 0.000000 0.140241
0.601318 0.000000 0.137746
0.670436 0.000000 0.135252
0.739554 0.000000 0.132757
0.808673 0.000000 0.130263
0.877791 0.000000 0.127768
0.946909 0.000000 0.125273
1.000000 0.000000 0.122779
0.000000 0.008782 0.157794
0.000000 0.009189 0.155300
0.050765 0.009596 0.152805
0.119883 0.010003 0.150311
0.189001 0.010410 0.147816
0.258119 0.010817 0.145322
0.327237 0.011224 0.142827
0.396355 0.011631 0.140333
0.465473 0.012038 0.137838
0.534591 0.012445 0.135343
0.603710 0.012852 0.132849
0.672828 0.013259 0.130354
0.741946 0.013666 0.127860
0.811064 0.014073 0.125365
0.880182 0.014480 0.122871
0.949300 0.014887 0.120376
1.000000 0.015294 0.117882
0.000000 0.077643 0.152897
0.000000 0.078050 0.150403
0.053156 0.078457 0.147908
0.122274 0.078865 0.145413
0.191392 0.079272 0.142919
0.260510 0.079679 0.140424
0.329629 0.080086 0.137930
0.398747 0.080493 0.135435
0.467865 0.080900 0.132941
0.536983 0.081307 0.130446
0.606101 0.081714 0.127952
0.675219 0.082121 0.125457
0.744337 0.082528 0.122962
0.813455 0.082935 0.120468
0.882574 0.083342 0.117973
0.951692 0.083749 0.115479
1.000000 0.084156 0.112984
0.000000 0.146505 0.148000
0.000000 0.146912 0.145505
0.055547 0.147319 0.143011
0.124666 0.147726 0.140516
0.193784 0.148133 0.138022
0.262902 0.148540 0.135527
0.332020 0.148947 0.133032
0.401138 0.149354 0.130538
0.470256 0.149761 0.128043
0.539374 0.150168 0.125549
0.608492 0.150575 0.123054
0.677611 0.150982 0.120560
0.746729 0.151389 0.118065
0.815847 0.151796 0.115571
0.884965 0.152203 0.113076
0.954083 0.152610 0.110581
1.000000 0.153017 0.108087
0.000000 0.215367 0.143102
0.000000 0.215774 0.140608
0.057939 0.216181 0.138113
0.127057 0.216588 0.135619
0.196175 0.216995 0.133124
0.265293 0.217402 0.130630
0.334411 0.217809 0.128135
0.403530 0.218216 0.125641
0.472648 0.218623 0.123146
0.541766 0.219030 0.120651
0.610884 0.219437 0.118157
0.680002 0.219844 0.115662
0.749120 0.220251 0.113168
0.818238 0.220658 0.110673
0.887356 0.221065 0.108179
0.956475 0.221472 0.105684
1.000000 0.221879 0.103190
0.000000 0.284228 0.138205
0.000000 0.284635 0.135711
0.060330 0.285042 0.133216
0.129448 0.285449 0.130721
0.198567 0.285856 0.128227
0.267685 0.286263 0.125732
0.336803 0.286670 0.123238
0.405921 0.287077 0.120743
0.475039 0.287484 0.118249
0.544157 0.287891 0.115754
0.613275 0.288298 0.113260
0.682393 0.288705 0.110765
0.751512 0.289112 0.108270
0.820630 0.289519 0.105776
0.889748 0.289926 0.103281
0.958866 0.290333 0.100787
1.000000 0.290740 0.098292
0.000000 0.353090 0.133308
0.000000 0.353497 0.130813
0.062722 0.353904 0.128319
0.131840 0.354311 0.125824
0.200958 0.354718 0.123330
0.270076 0.355125 0.120835
0.339194 0.355532 0.118340
0.408312 0.355939 0.115846
0.477431 0.356346 0.113351
0.546549 0.356753 0.110857
0.615667 0.357160 0.108362
0.684785 0.357567 0.105868
0.753903 0.357974 0.103373
0.823021 0.358381 0.100879
0.892139 0.358788 0.098384
0.960300 0.358875 0.097850
1.000000 0.358875 0.097850
0.000000 0.421951 0.128410
0.000000 0.422358 0.125916
0.065113 0.422765 0.123421
0.134231 0.423172 0.120927
0.203349 0.423579 0.118432
0.272468 0.423986 0.115938
0.341586 0.424393 0.113443
0.410704 0.424800 0.110949
0.479822 0.425207 0.108454
0.548940 0.425614 0.105959
0.618058 0.426021 0.103465
0.687176 0.426428 0.100970
0.756294 0.426835 0.098476
0.824500 0.426938 0.097850
0.892400 0.426938 0.097850
0.960300 0.426938 0.097850
1.000000 0.426938 0.097850
0.000000 0.490813 0.123513
0.000000 0.491220 0.121019
0.067505 0.491627 0.118524
0.136623 0.492034 0.116029
0.205741 0.492441 0.113535
0.274859 0.492848 0.111040
0.343977 0.493255 0.108546
0.413095 0.493662 0.106051
0.482213 0.494069 0.103557
0.551332 0.494476 0.101062
0.620450 0.494883 0.098567
0.688700 0.495000 0.097850
0.756600 0.495000 0.097850
0.824500 0.495000 0.097850
0.892400 0.495000 0.097850
0.960300 0.495000 0.097850
1.000000 0.495000 0.097850
0.000000 0.559674 0.118616
0.000778 0.560081 0.116121
0.069896 0.560488 0.113627
0.139014 0.560895 0.111132
0.208132 0.561302 0.108637
0.277250 0.561709 0.106143
0.346369 0.562116 0.103648
0.415487 0.562523 0.101154
0.484605 0.562930 0.098659
0.552900 0.563063 0.097850
0.620800 0.563063 0.097850
0.688700 0.563063 0.097850
0.756600 0.563063 0.097850
0.824500 0.563063 0.097850
0.892400 0.563063 0.097850
0.960300 0.563063 0.097850
1.000000 0.563063 0.097850
0.000000 0.628536 0.113718
0.003169 0.628943 0.111224
0.072288 0.629350 0.108729
0.141406 0.629757 0.106235
0.210524 0.630164 0.103740
0.279642 0.630571 0.101246
0.348760 0.630978 0.098751
0.417100 0.631125 0.097850
0.485000 0.631125 0.097850
0.552900 0.631125 0.097850
0.620800 0.631125 0.097850
0.688700 0.631125 0.097850
0.756600 0.631125 0.097850
0.824500 0.631125 0.097850
0.892400 0.631125 0.097850
0.960300 0.631125 0.097850
1.000000 0.631125 0.097850
0.000000 0.697397 0.108821
0.005561 0.697804 0.106326
0.074679 0.698211 0.103832
0.143797 0.698618 0.101337
0.212915 0.699026 0.098843
0.281300 0.699188 0.097850
0.349200 0.699188 0.097850
0.417100 0.699188 0.097850
0.485000 0.699188 0.097850
0.552900 0.699188 0.097850
0.620800 0.699188 0.097850
0.688700 0.699188 0.097850
0.756600 0.699188 0.097850
0.824500 0.699188 0.097850
0.892400 0.699188 0.097850
0.960300 0.699188 0.097850
1.000000 0.699188 0.097850
0.000000 0.766259 0.103924
0.007952 0.766666 0.101429
0.077070 0.767073 0.098935
0.145500 0.767250 0.097850
0.213400 0.767250 0.097850
0.281300 0.767250 0.097850
0.349200 0.767250 0.097850
0.417100 0.767250 0.097850
0.485000 0.767250 0.097850
0.552900 0.767250 0.097850
0.620800 0.767250 0.097850
0.688700 0.767250 0.097850
0.756600 0.767250 0.097850
0.824500 0.767250 0.097850
0.892400 0.767250 0.097850
0.960300 0.767250 0.097850
1.000000 0.767250 0.097850
0.000000 0.835121 0.099026
0.009700 0.835313 0.097850
0.077600 0.835313 0.097850
0.145500 0.835313 0.097850
0.213400 0.835313 0.097850
0.281300 0.835313 0.097850
0.349200 0.835313 0.097850
0.417100 0.835313 0.097850
0.485000 0.835313 0.097850
0.552900 0.835313 0.097850
0.620800 0.835313 0.097850
0.688700 0.835313 0.097850
0.756600 0.835313 0.097850
0.824500 0.835313 0.097850
0.892400 0.835313 0.097850
0.960300 0.835313 0.097850
1.000000 0.835313 0.097850
0.000000 0.903375 0.097850
0.009700 0.903375 0.097850
0.077600 0.903375 0.097850
0.145500 0.903375 0.097850
0.213400 0.903375 0.097850
0.281300 0.903375 0.097850
0.349200 0.903375 0.097850
0.417100 0.903375 0.097850
0.485000 0.903375 0.097850
0.552900 0.903375 0.097850
0.620800 0.903375 0.097850
0.688700 0.903375 0.097850
0.756600 0.903375 0.097850
0.824500 0.903375 0.097850
0.892400 0.903375 0.097850
0.960300 0.903375 0.097850
1.000000 0.903375 0.097850
0.000000 0.971438 0.097850
0.009700 0.971438 0.097850
0.077600 0.971438 0.097850
0.145500 0.971438 0.097850
0.213400 0.971438 0.097850
0.281300 0.971438 0.097850
0.349200 0.971438 0.097850
0.417100 0.971438 0.097850
0.485000 0.971438 0.097850
0.552900 0.971438 0.097850
0.620800 0.971438 0.097850
0.688700 0.971438 0.097850
0.756600 0.971438 0.097850
0.824500 0.971438 0.097850
0.892400 0.971438 0.097850
0.960300 0.971438 0.097850
1.000000 0.971438 0.097850
0.000000 1.000000 0.097850
0.009700 1.000000 0.097850
0.077600 1.000000 0.097850
0.145500 1.000000 0.097850
0.213400 1.000000 0.097850
0.281300 1.000000 0.097850
0.349200 1.000000 0.097850
0.417100 1.000000 0.097850
0.485000 1.000000 0.097850
0.552900 1.000000 0.097850
0.620800 1.000000 0.097850
0.688700 1.000000 0.097850
0.756600 1.000000 0.097850
0.824500 1.000000 0.097850
0.892400 1.000000 0.097850
0.960300 1.000000 0.097850
1.000000 1.000000 0.097850
0.000000 0.000000 0.231266
0.000000 0.000000 0.228771
0.048838 0.000000 0.226277
0.117956 0.000000 0.223782
0.187074 0.000000 0.221287
0.256192 0.000000 0.218793
0.325310 0.000000 0.216298
0.394428 0.000000 0.213804
0.463546 0.000000 0.211309
0.532664 0.000000 0.208815
0.601783 0.000000 0.206320
0.670901 0.000000 0.203826
0.740019 0.000000 0.201331
0.809137 0.000000 0.198836
0.878255 0.000000 0.196342
0.947373 0.000000 0.193847
1.000000 0.000000 0.191353
0.000000 0.008937 0.226368
