assets/luts/cool_modern.cube
TITLE "Cool Modern Tech"
LUT_3D_SIZE 5
DOMAIN_MIN 0.0 0.0 0.0
DOMAIN_MAX 1.0 1.0 1.0
0.000000 0.000000 0.025544
0.185681 0.000000 0.015566
0.462153 0.000000 0.005588
0.738626 0.000000 0.000000
1.000000 0.000000 0.000000
0.000000 0.215056 0.005955
0.195246 0.216684 0.000000
0.471719 0.218312 0.000000
0.748191 0.219940 0.000000
1.000000 0.221568 0.000000
0.000000 0.490502 0.000000
0.204812 0.492130 0.000000
0.481285 0.493759 0.000000
0.756600 0.495000 0.000000
1.000000 0.495000 0.000000
0.000000 0.765949 0.000000
0.213400 0.767250 0.000000
0.485000 0.767250 0.000000
0.756600 0.767250 0.000000
1.000000 0.767250 0.000000
0.000000 1.000000 0.000000
0.213400 1.000000 0.000000
0.485000 1.000000 0.000000
0.756600 1.000000 0.000000
1.000000 1.000000 0.000000
0.000000 0.000000 0.299840
0.187538 0.000000 0.289861
0.464011 0.000000 0.279883
0.740483 0.000000 0.269905
1.000000 0.000000 0.259927
0.000000 0.215677 0.280250
0.197104 0.217305 0.270272
0.473577 0.218933 0.260294
0.750049 0.220561 0.250316
1.000000 0.222189 0.240337
0.000000 0.491123 0.260661
0.206670 0.492751 0.250683
0.483142 0.494379 0.240704
0.756600 0.495000 0.236900
1.000000 0.495000 0.236900
0.000000 0.766569 0.241071
0.213400 0.767250 0.236900
0.485000 0.767250 0.236900
0.756600 0.767250 0.236900
1.000000 0.767250 0.236900
0.000000 1.000000 0.236900
0.213400 1.000000 0.236900
0.485000 1.000000 0.236900
0.756600 1.000000 0.236900
1.000000 1.000000 0.236900
0.000000 0.000000 0.574135
0.189396 0.000000 0.564157
0.465868 0.000000 0.554179
0.742341 0.000000 0.544200
1.000000 0.000000 0.534222
0.000000 0.216298 0.554546
0.198962 0.217926 0.544568
0.475434 0.219554 0.534589
0.751907 0.221182 0.524611
1.000000 0.222750 0.515000
0.000000 0.491744 0.534956
0.208527 0.493372 0.524978
0.485000 0.495000 0.515000
0.756600 0.495000 0.515000
1.000000 0.495000 0.515000
0.000000 0.767190 0.515367
0.213400 0.767250 0.515000
0.485000 0.767250 0.515000
0.756600 0.767250 0.515000
1.000000 0.767250 0.515000
0.000000 1.000000 0.515000
0.213400 1.000000 0.515000
0.485000 1.000000 0.515000
0.756600 1.000000 0.515000
1.000000 1.000000 0.515000
0.000000 0.000000 0.848431
0.191254 0.000000 0.838453
0.467726 0.000000 0.828474
0.744199 0.000000 0.818496
1.000000 0.000000 0.808518
0.000000 0.216918 0.828841
0.200819 0.218546 0.818863
0.477292 0.220175 0.808885
0.753764 0.221803 0.798907
1.000000 0.222750 0.793100
0.000000 0.492365 0.809252
0.210385 0.493993 0.799274
0.485000 0.495000 0.793100
0.756600 0.495000 0.793100
1.000000 0.495000 0.793100
0.000000 0.767250 0.793100
0.213400 0.767250 0.793100
0.485000 0.767250 0.793100
0.756600 0.767250 0.793100
1.000000 0.767250 0.793100
0.000000 1.000000 0.793100
0.213400 1.000000 0.793100
0.485000 1.000000 0.793100
0.756600 1.000000 0.793100
1.000000 1.000000 0.793100
0.000000 0.000000 1.000000
0.193111 0.000000 1.000000
0.469584 0.000000 1.000000
0.746056 0.000000 1.000000
1.000000 0.000000 1.000000
0.000000 0.217539 1.000000
0.202677 0.219167 1.000000
0.479150 0.220795 1.000000
0.755622 0.222423 1.000000
1.000000 0.222750 1.000000
0.000000 0.492985 1.000000
0.212243 0.494613 1.000000
0.485000 0.495000 1.000000
0.756600 0.495000 1.000000
1.000000 0.495000 1.000000
0.000000 0.767250 1.000000
0.213400 0.767250 1.000000
0.485000 0.767250 1.000000
0.756600 0.767250 1.000000
1.000000 0.767250 1.000000
0.000000 1.000000 1.000000
0.213400 1.000000 1.000000
0.485000 1.000000 1.000000
0.756600 1.000000 1.000000
1.000000 1.000000 1.000000
