assets/luts/moody_dark.cube
TITLE "Moody Dark"
LUT_3D_SIZE 9
DOMAIN_MIN 0.0 0.0 0.0
DOMAIN_MAX 1.0 1.0 1.0
0.030000 0.030000 0.030000
0.030000 0.030000 0.030000
0.088488 0.030000 0.030000
0.195232 0.030000 0.030000
0.301976 0.030000 0.030000
0.408720 0.030000 0.030000
0.515464 0.030000 0.030000
0.622208 0.030000 0.030000
0.728953 0.030000 0.030000
0.030000 0.030000 0.030000
0.030000 0.030000 0.030000
0.109804 0.031451 0.030000
0.216548 0.042126 0.030000
0.323292 0.052800 0.030000
0.430036 0.063474 0.030000
0.536780 0.074149 0.030000
0.643524 0.084823 0.030000
0.750268 0.095497 0.030000
0.030000 0.120206 0.030000
0.030000 0.130880 0.030000
0.131119 0.141554 0.030000
0.237863 0.152229 0.030000
0.344607 0.162903 0.030000
0.451351 0.173577 0.030000
0.558095 0.184251 0.030000
0.664839 0.194926 0.035827
0.771583 0.205600 0.046057
0.030000 0.230308 0.030000
0.045690 0.240983 0.030000
0.152434 0.251657 0.030000
0.259178 0.262331 0.030000
0.365923 0.273006 0.030000
0.472667 0.283680 0.034978
0.579411 0.294354 0.045208
0.686155 0.305029 0.055437
0.792899 0.315703 0.065667
0.030000 0.340411 0.030000
0.067006 0.351086 0.030000
0.173750 0.361760 0.030000
0.280494 0.372434 0.034129
0.387238 0.383108 0.044359
0.493982 0.393783 0.054588
0.600726 0.404457 0.064818
0.707470 0.415131 0.075048
0.814214 0.425806 0.085277
0.030000 0.450514 0.030000
0.088321 0.461188 0.033281
0.195065 0.471863 0.043510
0.301809 0.482537 0.053740
0.408553 0.493211 0.063969
0.515297 0.503886 0.074199
0.622042 0.514560 0.084428
0.728786 0.525234 0.094658
0.835530 0.535908 0.104887
0.030000 0.560617 0.042661
0.109637 0.571291 0.052891
0.216381 0.581966 0.063120
0.323125 0.592640 0.073350
0.429869 0.603314 0.083579
0.536613 0.613988 0.093809
0.643357 0.624663 0.104038
0.750101 0.635337 0.114268
0.856845 0.646011 0.124498
0.030000 0.670720 0.062271
0.130952 0.681394 0.072501
0.237696 0.692068 0.082730
0.344440 0.702743 0.092960
0.451184 0.713417 0.103190
0.557928 0.724091 0.113419
0.664672 0.734766 0.123649
0.771417 0.745440 0.133878
0.878161 0.756114 0.144108
0.045523 0.780823 0.081882
0.152268 0.791497 0.092111
0.259012 0.802171 0.102341
0.365756 0.812845 0.112570
0.472500 0.823520 0.122800
0.579244 0.834194 0.133029
0.685988 0.844868 0.143259
0.792732 0.855543 0.153488
0.899476 0.866217 0.163718
0.030000 0.030000 0.030000
0.030000 0.030000 0.030000
0.092827 0.030000 0.039496
0.199571 0.030000 0.049726
0.306315 0.030000 0.059955
0.413059 0.030000 0.070185
0.519803 0.030000 0.080414
0.626548 0.030000 0.090644
0.733292 0.030000 0.100873
0.030000 0.030000 0.038647
0.030000 0.030000 0.048877
0.114143 0.035617 0.059106
0.220887 0.046291 0.069336
0.327631 0.056966 0.079565
0.434375 0.067640 0.089795
0.541119 0.078314 0.100024
0.647863 0.088988 0.110254
0.754607 0.099663 0.120483
0.030000 0.124371 0.058257
0.030000 0.135045 0.068487
0.135458 0.145720 0.078716
0.242202 0.156394 0.088946
0.348946 0.167068 0.099176
0.455690 0.177743 0.109405
0.562434 0.188417 0.119635
0.669178 0.199091 0.129864
0.775922 0.209766 0.140094
0.030000 0.234474 0.077868
0.050029 0.245148 0.088097
0.156774 0.255823 0.098327
0.263518 0.266497 0.108556
0.370262 0.277171 0.118786
0.477006 0.287846 0.129015
0.583750 0.298520 0.139245
0.690494 0.309194 0.149474
0.797238 0.319868 0.159704
0.030000 0.344577 0.097478
0.071345 0.355251 0.107707
0.178089 0.365925 0.117937
0.284833 0.376600 0.128166
0.391577 0.387274 0.138396
0.498321 0.397948 0.148625
0.605065 0.408623 0.158855
0.711809 0.419297 0.169085
0.818553 0.429971 0.179314
0.030000 0.454680 0.117088
0.092660 0.465354 0.127318
0.199404 0.476028 0.137547
0.306148 0.486703 0.147777
0.412893 0.497377 0.158006
0.519637 0.508051 0.168236
0.626381 0.518725 0.178465
0.733125 0.529400 0.188695
0.839869 0.540074 0.198924
0.030000 0.564782 0.136698
0.113976 0.575457 0.146928
0.220720 0.586131 0.157157
0.327464 0.596805 0.167387
0.434208 0.607480 0.177616
0.540952 0.618154 0.187846
0.647696 0.628828 0.198075
0.754440 0.639503 0.208305
0.861184 0.650177 0.218535
0.030000 0.674885 0.156308
0.135291 0.685560 0.166538
0.242035 0.696234 0.176767
0.348779 0.706908 0.186997
0.455523 0.717583 0.197227
0.562268 0.728257 0.207456
0.669012 0.738931 0.217686
0.775756 0.749605 0.227915
0.882500 0.760280 0.238145
0.049863 0.784988 0.175919
0.156607 0.795662 0.186148
0.263351 0.806337 0.196378
0.370095 0.817011 0.206607
0.476839 0.827685 0.216837
0.583583 0.838360 0.227066
0.690327 0.849034 0.237296
0.797071 0.859708 0.247525
0.903815 0.870383 0.257755
0.030000 0.030000 0.113074
0.030000 0.030000 0.123304
0.097166 0.030000 0.133533
0.203910 0.030000 0.143763
0.310655 0.030000 0.153992
0.417399 0.030000 0.164222
0.524143 0.030000 0.174451
0.630887 0.030000 0.184681
0.737631 0.030000 0.194910
0.030000 0.030000 0.132684
0.030000 0.030000 0.142914
0.118482 0.039783 0.153143
0.225226 0.050457 0.163373
0.331970 0.061131 0.173602
0.438714 0.071805 0.183832
0.545458 0.082480 0.194061
0.652202 0.093154 0.204291
0.758946 0.103828 0.214520
0.030000 0.128537 0.152294
0.033053 0.139211 0.162524
0.139797 0.149885 0.172753
0.246541 0.160560 0.182983
0.353285 0.171234 0.193213
0.460029 0.181908 0.203442
0.566774 0.192583 0.213672
0.673518 0.203257 0.223901
0.780262 0.213931 0.234131
0.030000 0.238640 0.171905
0.054369 0.249314 0.182134
0.161113 0.259988 0.192364
0.267857 0.270662 0.202593
0.374601 0.281337 0.212823
0.481345 0.292011 0.223052
0.588089 0.302685 0.233282
0.694833 0.313360 0.243511
0.801577 0.324034 0.253741
0.030000 0.348742 0.191515
0.075684 0.359417 0.201744
0.182428 0.370091 0.211974
0.289172 0.380765 0.222203
0.395916 0.391440 0.232433
0.502660 0.402114 0.242662
0.609404 0.412788 0.252892
0.716148 0.423462 0.263122
0.822892 0.434137 0.273351
0.030000 0.458845 0.211125
0.096999 0.469520 0.221355
0.203744 0.480194 0.231584
0.310488 0.490868 0.241814
0.417232 0.501542 0.252043
0.523976 0.512217 0.262273
0.630720 0.522891 0.272502
0.737464 0.533565 0.282732
0.844208 0.544240 0.292961
0.030000 0.568948 0.230735
0.118315 0.579622 0.240965
0.225059 0.590297 0.251194
0.331803 0.600971 0.261424
0.438547 0.611645 0.271653
0.545291 0.622320 0.281883
0.652035 0.632994 0.292112
0.758779 0.643668 0.302342
0.865523 0.654342 0.312572
0.032886 0.679051 0.250345
0.139630 0.689725 0.260575
0.246374 0.700399 0.270804
0.353118 0.711074 0.281034
0.459863 0.721748 0.291264
0.566607 0.732422 0.301493
0.673351 0.743097 0.311723
0.780095 0.753771 0.321952
0.886839 0.764445 0.332182
0.054202 0.789154 0.269956
0.160946 0.799828 0.280185
0.267690 0.810502 0.290415
0.374434 0.821177 0.300644
0.481178 0.831851 0.310874
0.587922 0.842525 0.321103
0.694666 0.853199 0.331333
0.801410 0.863874 0.341562
0.908154 0.874548 0.351792
0.030000 0.030000 0.207111
0.030000 0.030000 0.217341
0.101505 0.030000 0.227570
0.208250 0.030000 0.237800
0.314994 0.030000 0.248029
0.421738 0.030000 0.258259
0.528482 0.030000 0.268488
0.635226 0.030000 0.278718
0.741970 0.030000 0.288947
0.030000 0.030000 0.226721
0.030000 0.033274 0.236951
0.122821 0.043948 0.247180
0.229565 0.054622 0.257410
0.336309 0.065297 0.267639
0.443053 0.075971 0.277869
0.549797 0.086645 0.288098
0.656541 0.097320 0.298328
0.763285 0.107994 0.308557
0.030000 0.132702 0.246331
0.037392 0.143377 0.256561
0.144136 0.154051 0.266790
0.250880 0.164725 0.277020
0.357625 0.175400 0.287250
0.464369 0.186074 0.297479
0.571113 0.196748 0.307709
0.677857 0.207422 0.317938
0.784601 0.218097 0.328168
0.030000 0.242805 0.265942
0.058708 0.253479 0.276171
0.165452 0.264154 0.286401
0.272196 0.274828 0.296630
0.378940 0.285502 0.306860
0.485684 0.296177 0.317089
0.592428 0.306851 0.327319
0.699172 0.317525 0.337548
0.805916 0.328200 0.347778
0.030000 0.352908 0.285552
0.080023 0.363582 0.295781
0.186767 0.374257 0.306011
0.293511 0.384931 0.316240
0.400255 0.395605 0.326470
0.506999 0.406279 0.336699
0.613743 0.416954 0.346929
0.720488 0.427628 0.357159
0.827232 0.438302 0.367388
0.030000 0.463011 0.305162
0.101339 0.473685 0.315392
0.208083 0.484359 0.325621
0.314827 0.495034 0.335851
0.421571 0.505708 0.346080
0.528315 0.516382 0.356310
0.635059 0.527057 0.366539
0.741803 0.537731 0.376769
0.848547 0.548405 0.386998
0.030000 0.573114 0.324772
0.122654 0.583788 0.335002
0.229398 0.594462 0.345231
0.336142 0.605136 0.355461
0.442886 0.615811 0.365690
0.549630 0.626485 0.375920
0.656374 0.637159 0.386149
0.763118 0.647834 0.396379
0.869862 0.658508 0.406608
0.037225 0.683216 0.344382
0.143970 0.693891 0.354612
0.250714 0.704565 0.364841
0.357458 0.715239 0.375071
0.464202 0.725914 0.385301
0.570946 0.736588 0.395530
0.677690 0.747262 0.405760
0.784434 0.757937 0.415989
0.891178 0.768611 0.426219
0.058541 0.793319 0.363993
0.165285 0.803994 0.374222
0.272029 0.814668 0.384452
0.378773 0.825342 0.394681
0.485517 0.836016 0.404911
0.592261 0.846691 0.415140
0.699005 0.857365 0.425370
0.805749 0.868039 0.435599
0.912493 0.878714 0.445829
0.030000 0.030000 0.301148
0.030000 0.030000 0.311378
0.105845 0.030000 0.321607
0.212589 0.030000 0.331837
0.319333 0.030000 0.342066
0.426077 0.030000 0.352296
0.532821 0.030000 0.362525
0.639565 0.030000 0.372755
0.746309 0.030000 0.382984
0.030000 0.030000 0.320758
0.030000 0.037439 0.330988
0.127160 0.048114 0.341217
0.233904 0.058788 0.351447
0.340648 0.069462 0.361676
0.447392 0.080137 0.371906
0.554136 0.090811 0.382135
0.660880 0.101485 0.392365
0.767624 0.112159 0.402594
0.030000 0.136868 0.340368
0.041731 0.147542 0.350598
0.148475 0.158216 0.360827
0.255220 0.168891 0.371057
0.361964 0.179565 0.381287
0.468708 0.190239 0.391516
0.575452 0.200914 0.401746
0.682196 0.211588 0.411975
0.788940 0.222262 0.422205
0.030000 0.246971 0.359979
0.063047 0.257645 0.370208
0.169791 0.268319 0.380438
0.276535 0.278994 0.390667
0.383279 0.289668 0.400897
0.490023 0.300342 0.411126
0.596767 0.311016 0.421356
0.703511 0.321691 0.431585
0.810255 0.332365 0.441815
0.030000 0.357074 0.379589
0.084362 0.367748 0.389818
0.191106 0.378422 0.400048
0.297850 0.389096 0.410277
0.404594 0.399771 0.420507
0.511339 0.410445 0.430736
0.618083 0.421119 0.440966
0.724827 0.431794 0.451196
0.831571 0.442468 0.461425
0.030000 0.467176 0.399199
0.105678 0.477851 0.409429
0.212422 0.488525 0.419658
0.319166 0.499199 0.429888
0.425910 0.509874 0.440117
0.532654 0.520548 0.450347
0.639398 0.531222 0.460576
0.746142 0.541896 0.470806
0.852886 0.552571 0.481035
0.030000 0.577279 0.418809
0.126993 0.587953 0.429039
0.233737 0.598628 0.439268
0.340481 0.609302 0.449498
0.447225 0.619976 0.459727
0.553969 0.630651 0.469957
0.660713 0.641325 0.480186
0.767458 0.651999 0.490416
0.874202 0.662674 0.500645
0.041565 0.687382 0.438419
0.148309 0.698056 0.448649
0.255053 0.708731 0.458878
0.361797 0.719405 0.469108
0.468541 0.730079 0.479338
0.575285 0.740753 0.489567
0.682029 0.751428 0.499797
0.788773 0.762102 0.510026
0.895517 0.772776 0.520256
0.062880 0.797485 0.458030
0.169624 0.808159 0.468259
0.276368 0.818833 0.478489
0.383112 0.829508 0.488718
0.489856 0.840182 0.498948
0.596600 0.850856 0.509177
0.703344 0.861531 0.519407
0.810088 0.872205 0.529636
0.916832 0.882879 0.539866
0.030000 0.030000 0.395185
0.030000 0.030000 0.405415
0.110184 0.030000 0.415644
0.216928 0.030000 0.425874
0.323672 0.030000 0.436103
0.430416 0.030000 0.446333
0.537160 0.030000 0.456562
0.643904 0.030000 0.466792
0.750648 0.030000 0.477021
0.030000 0.030931 0.414795
0.030000 0.041605 0.425025
0.131499 0.052279 0.435254
0.238243 0.062954 0.445484
0.344987 0.073628 0.455713
0.451731 0.084302 0.465943
0.558475 0.094976 0.476172
0.665220 0.105651 0.486402
0.771964 0.116325 0.496631
0.030000 0.141033 0.434405
0.046071 0.151708 0.444635
0.152815 0.162382 0.454864
0.259559 0.173056 0.465094
0.366303 0.183731 0.475324
0.473047 0.194405 0.485553
0.579791 0.205079 0.495783
0.686535 0.215754 0.506012
0.793279 0.226428 0.516242
0.030000 0.251136 0.454016
0.067386 0.261811 0.464245
0.174130 0.272485 0.474475
0.280874 0.283159 0.484704
0.387618 0.293833 0.494934
0.494362 0.304508 0.505163
0.601106 0.315182 0.515393
0.707850 0.325856 0.525622
0.814594 0.336531 0.535852
0.030000 0.361239 0.473626
0.088701 0.371913 0.483855
0.195445 0.382588 0.494085
0.302190 0.393262 0.504314
0.408934 0.403936 0.514544
0.515678 0.414611 0.524773
0.622422 0.425285 0.535003
0.729166 0.435959 0.545233
0.835910 0.446633 0.555462
0.030000 0.471342 0.493236
0.110017 0.482016 0.503466
0.216761 0.492690 0.513695
0.323505 0.503365 0.523925
0.430249 0.514039 0.534154
0.536993 0.524713 0.544384
0.643737 0.535388 0.554613
0.750481 0.546062 0.564843
0.857225 0.556736 0.575072
0.030000 0.581445 0.512846
0.131332 0.592119 0.523076
0.238076 0.602793 0.533305
0.344820 0.613468 0.543535
0.451564 0.624142 0.553764
0.558309 0.634816 0.563994
0.665053 0.645491 0.574223
0.771797 0.656165 0.584453
0.878541 0.666839 0.594682
0.045904 0.691548 0.532456
0.152648 0.702222 0.542686
0.259392 0.712896 0.552915
0.366136 0.723570 0.563145
0.472880 0.734245 0.573375
0.579624 0.744919 0.583604
0.686368 0.755593 0.593834
0.793112 0.766268 0.604063
0.899856 0.776942 0.614293
0.067219 0.801650 0.552067
0.173963 0.812325 0.562296
0.280707 0.822999 0.572526
0.387451 0.833673 0.582755
0.494195 0.844348 0.592985
0.600939 0.855022 0.603214
0.707683 0.865696 0.613444
0.814428 0.876370 0.623673
0.921172 0.887045 0.633903
0.030000 0.030000 0.489222
0.030000 0.030000 0.499452
0.114523 0.030000 0.509681
0.221267 0.030000 0.519911
0.328011 0.030000 0.530140
0.434755 0.030000 0.540370
0.541499 0.030000 0.550599
0.648243 0.030000 0.560829
0.754987 0.030000 0.571058
0.030000 0.035096 0.508832
0.030000 0.045770 0.519062
0.135838 0.056445 0.529291
0.242582 0.067119 0.539521
0.349326 0.077793 0.549750
0.456070 0.088468 0.559980
0.562815 0.099142 0.570209
0.669559 0.109816 0.580439
0.776303 0.120491 0.590668
0.030000 0.145199 0.528442
0.050410 0.155873 0.538672
0.157154 0.166548 0.548901
0.263898 0.177222 0.559131
0.370642 0.187896 0.569361
0.477386 0.198570 0.579590
0.584130 0.209245 0.589820
0.690874 0.219919 0.600049
0.797618 0.230593 0.610279
0.030000 0.255302 0.548053
0.071725 0.265976 0.558282
0.178469 0.276650 0.568512
0.285213 0.287325 0.578741
0.391957 0.297999 0.588971
0.498701 0.308673 0.599200
0.605445 0.319348 0.609430
0.712190 0.330022 0.619659
0.818934 0.340696 0.629889
0.030000 0.365405 0.567663
0.093041 0.376079 0.577892
0.199785 0.386753 0.588122
0.306529 0.397428 0.598351
0.413273 0.408102 0.608581
0.520017 0.418776 0.618810
0.626761 0.429450 0.629040
0.733505 0.440125 0.639270
0.840249 0.450799 0.649499
0.030000 0.475507 0.587273
0.114356 0.486182 0.597503
0.221100 0.496856 0.607732
0.327844 0.507530 0.617962
0.434588 0.518205 0.628191
0.541332 0.528879 0.638421
0.648076 0.539553 0.648650
0.754820 0.550228 0.658880
0.861564 0.560902 0.669109
0.030000 0.585610 0.606883
0.135671 0.596285 0.617113
0.242416 0.606959 0.627342
0.349160 0.617633 0.637572
0.455904 0.628307 0.647801
0.562648 0.638982 0.658031
0.669392 0.649656 0.668260
0.776136 0.660330 0.678490
0.882880 0.671005 0.688719
0.050243 0.695713 0.626493
0.156987 0.706387 0.636723
0.263731 0.717062 0.646952
0.370475 0.727736 0.657182
0.477219 0.738410 0.667412
0.583963 0.749085 0.677641
0.690707 0.759759 0.687871
0.797451 0.770433 0.698100
0.904195 0.781107 0.708330
0.071558 0.805816 0.646104
0.178302 0.816490 0.656333
0.285046 0.827165 0.666563
0.391790 0.837839 0.676792
0.498535 0.848513 0.687022
0.605279 0.859187 0.697251
0.712023 0.869862 0.707481
0.818767 0.880536 0.717710
0.925511 0.891210 0.727940
0.030000 0.030000 0.583259
0.030000 0.030000 0.593489
0.118862 0.030000 0.603718
0.225606 0.030000 0.613948
0.332350 0.030000 0.624177
0.439094 0.030000 0.634407
0.545838 0.030000 0.644636
0.652582 0.030000 0.654866
0.759326 0.030000 0.665095
0.030000 0.039262 0.602869
0.033433 0.049936 0.613099
0.140177 0.060610 0.623328
0.246922 0.071285 0.633558
0.353666 0.081959 0.643787
0.460410 0.092633 0.654017
0.567154 0.103308 0.664246
0.673898 0.113982 0.674476
0.780642 0.124656 0.684705
0.030000 0.149365 0.622479
0.054749 0.160039 0.632709
0.161493 0.170713 0.642938
0.268237 0.181387 0.653168
0.374981 0.192062 0.663398
0.481725 0.202736 0.673627
0.588469 0.213410 0.683857
0.695213 0.224085 0.694086
0.801957 0.234759 0.704316
0.030000 0.259467 0.642090
0.076064 0.270142 0.652319
0.182808 0.280816 0.662549
0.289552 0.291490 0.672778
0.396296 0.302165 0.683008
0.503041 0.312839 0.693237
0.609785 0.323513 0.703467
0.716529 0.334187 0.713696
0.823273 0.344862 0.723926
0.030000 0.369570 0.661700
0.097380 0.380244 0.671929
0.204124 0.390919 0.682159
0.310868 0.401593 0.692388
0.417612 0.412267 0.702618
0.524356 0.422942 0.712847
0.631100 0.433616 0.723077
0.737844 0.444290 0.733307
0.844588 0.454965 0.743536
0.030000 0.479673 0.681310
0.118695 0.490347 0.691540
0.225439 0.501022 0.701769
0.332183 0.511696 0.711999
0.438927 0.522370 0.722228
0.545671 0.533045 0.732458
0.652415 0.543719 0.742687
0.759159 0.554393 0.752917
0.865904 0.565067 0.763146
0.033266 0.589776 0.700920
0.140011 0.600450 0.711150
0.246755 0.611124 0.721379
0.353499 0.621799 0.731609
0.460243 0.632473 0.741838
0.566987 0.643147 0.752068
0.673731 0.653822 0.762297
0.780475 0.664496 0.772527
0.887219 0.675170 0.782756
0.054582 0.699879 0.720530
0.161326 0.710553 0.730760
0.268070 0.721227 0.740989
0.374814 0.731902 0.751219
0.481558 0.742576 0.761449
0.588302 0.753250 0.771678
0.695046 0.763924 0.781908
0.801790 0.774599 0.792137
0.908534 0.785273 0.802367
0.075897 0.809981 0.740141
0.182641 0.820656 0.750370
0.289385 0.831330 0.760600
0.396130 0.842004 0.770829
0.502874 0.852679 0.781059
0.609618 0.863353 0.791288
0.716362 0.874027 0.801518
0.823106 0.884702 0.811747
0.929850 0.895376 0.821977
0.030000 0.030000 0.677296
0.030000 0.030000 0.687525
0.123201 0.030000 0.697755
0.229945 0.030000 0.707985
0.336689 0.030000 0.718214
0.443433 0.030000 0.728444
0.550177 0.030000 0.738673
0.656921 0.030000 0.748903
0.763665 0.030000 0.759132
0.030000 0.043427 0.696906
0.037772 0.054102 0.707136
0.144517 0.064776 0.717365
0.251261 0.075450 0.727595
0.358005 0.086124 0.737824
0.464749 0.096799 0.748054
0.571493 0.107473 0.758283
0.678237 0.118147 0.768513
0.784981 0.128822 0.778742
0.030000 0.153530 0.716516
0.059088 0.164204 0.726746
0.165832 0.174879 0.736975
0.272576 0.185553 0.747205
0.379320 0.196227 0.757435
0.486064 0.206902 0.767664
0.592808 0.217576 0.777894
0.699552 0.228250 0.788123
0.806296 0.238925 0.798353
0.030000 0.263633 0.736127
0.080403 0.274307 0.746356
0.187147 0.284982 0.756586
0.293891 0.295656 0.766815
0.400636 0.306330 0.777045
0.507380 0.317004 0.787274
0.614124 0.327679 0.797504
0.720868 0.338353 0.807733
0.827612 0.349027 0.817963
0.030000 0.373736 0.755737
0.101719 0.384410 0.765966
0.208463 0.395084 0.776196
0.315207 0.405759 0.786425
0.421951 0.416433 0.796655
0.528695 0.427107 0.806884
0.635439 0.437782 0.817114
0.742183 0.448456 0.827344
0.848927 0.459130 0.837573
0.030000 0.483839 0.775347
0.123034 0.494513 0.785577
0.229778 0.505187 0.795806
0.336522 0.515861 0.806036
0.443266 0.526536 0.816265
0.550010 0.537210 0.826495
0.656755 0.547884 0.836724
0.763499 0.558559 0.846954
0.870243 0.569233 0.857183
0.037606 0.593941 0.794957
0.144350 0.604616 0.805187
0.251094 0.615290 0.815416
0.357838 0.625964 0.825646
0.464582 0.636639 0.835875
0.571326 0.647313 0.846105
0.678070 0.657987 0.856334
0.784814 0.668662 0.866564
0.891558 0.679336 0.876793
0.058921 0.704044 0.814567
0.165665 0.714719 0.824797
0.272409 0.725393 0.835026
0.379153 0.736067 0.845256
0.485897 0.746741 0.855486
0.592641 0.757416 0.865715
0.699385 0.768090 0.875945
0.806129 0.778764 0.886174
0.912874 0.789439 0.896404
0.080236 0.814147 0.834178
0.186981 0.824821 0.844407
0.293725 0.835496 0.854637
0.400469 0.846170 0.864866
0.507213 0.856844 0.875096
0.613957 0.867519 0.885325
0.720701 0.878193 0.895555
0.827445 0.888867 0.905784
0.934189 0.899541 0.916014
