assets/luts/moody_dark.cube
TITLE "Moody Dark"
LUT_3D_SIZE 5
DOMAIN_MIN 0.0 0.0 0.0
DOMAIN_MAX 1.0 1.0 1.0
0.030000 0.030000 0.030000
0.088488 0.030000 0.030000
0.301976 0.030000 0.030000
0.515464 0.030000 0.030000
0.728953 0.030000 0.030000
0.030000 0.120206 0.030000
0.131119 0.141554 0.030000
0.344607 0.162903 0.030000
0.558095 0.184251 0.030000
0.771583 0.205600 0.046057
0.030000 0.340411 0.030000
0.173750 0.361760 0.030000
0.387238 0.383108 0.044359
0.600726 0.404457 0.064818
0.814214 0.425806 0.085277
0.030000 0.560617 0.042661
0.216381 0.581966 0.063120
0.429869 0.603314 0.083579
0.643357 0.624663 0.104038
0.856845 0.646011 0.124498
0.045523 0.780823 0.081882
0.259012 0.802171 0.102341
0.472500 0.823520 0.122800
0.685988 0.844868 0.143259
0.899476 0.866217 0.163718
0.030000 0.030000 0.113074
0.097166 0.030000 0.133533
0.310655 0.030000 0.153992
0.524143 0.030000 0.174451
0.737631 0.030000 0.194910
0.030000 0.128537 0.152294
0.139797 0.149885 0.172753
0.353285 0.171234 0.193213
0.566774 0.192583 0.213672
0.780262 0.213931 0.234131
0.030000 0.348742 0.191515
0.182428 0.370091 0.211974
0.395916 0.391440 0.232433
0.609404 0.412788 0.252892
0.822892 0.434137 0.273351
0.030000 0.568948 0.230735
0.225059 0.590297 0.251194
0.438547 0.611645 0.271653
0.652035 0.632994 0.292112
0.865523 0.654342 0.312572
0.054202 0.789154 0.269956
0.267690 0.810502 0.290415
0.481178 0.831851 0.310874
0.694666 0.853199 0.331333
0.908154 0.874548 0.351792
0.030000 0.030000 0.301148
0.105845 0.030000 0.321607
0.319333 0.030000 0.342066
0.532821 0.030000 0.362525
0.746309 0.030000 0.382984
0.030000 0.136868 0.340368
0.148475 0.158216 0.360827
0.361964 0.179565 0.381287
0.575452 0.200914 0.401746
0.788940 0.222262 0.422205
0.030000 0.357074 0.379589
0.191106 0.378422 0.400048
0.404594 0.399771 0.420507
0.618083 0.421119 0.440966
0.831571 0.442468 0.461425
0.030000 0.577279 0.418809
0.233737 0.598628 0.439268
0.447225 0.619976 0.459727
0.660713 0.641325 0.480186
0.874202 0.662674 0.500645
0.062880 0.797485 0.458030
0.276368 0.818833 0.478489
0.489856 0.840182 0.498948
0.703344 0.861531 0.519407
0.916832 0.882879 0.539866
0.030000 0.030000 0.489222
0.114523 0.030000 0.509681
0.328011 0.030000 0.530140
0.541499 0.030000 0.550599
0.754987 0.030000 0.571058
0.030000 0.145199 0.528442
0.157154 0.166548 0.548901
0.370642 0.187896 0.569361
0.584130 0.209245 0.589820
0.797618 0.230593 0.610279
0.030000 0.365405 0.567663
0.199785 0.386753 0.588122
0.413273 0.408102 0.608581
0.626761 0.429450 0.629040
0.840249 0.450799 0.649499
0.030000 0.585610 0.606883
0.242416 0.606959 0.627342
0.455904 0.628307 0.647801
0.669392 0.649656 0.668260
0.882880 0.671005 0.688719
0.071558 0.805816 0.646104
0.285046 0.827165 0.666563
0.498535 0.848513 0.687022
0.712023 0.869862 0.707481
0.925511 0.891210 0.727940
0.030000 0.030000 0.677296
0.123201 0.030000 0.697755
0.336689 0.030000 0.718214
0.550177 0.030000 0.738673
0.763665 0.030000 0.759132
0.030000 0.153530 0.716516
0.165832 0.174879 0.736975
0.379320 0.196227 0.757435
0.592808 0.217576 0.777894
0.806296 0.238925 0.798353
0.030000 0.373736 0.755737
0.208463 0.395084 0.776196
0.421951 0.416433 0.796655
0.635439 0.437782 0.817114
0.848927 0.459130 0.837573
0.037606 0.593941 0.794957
0.251094 0.615290 0.815416
0.464582 0.636639 0.835875
0.678070 0.657987 0.856334
0.891558 0.679336 0.876793
0.080236 0.814147 0.834178
0.293725 0.835496 0.854637
0.507213 0.856844 0.875096
0.720701 0.878193 0.895555
0.934189 0.899541 0.916014
