assets/luts/moody_dark.cube
TITLE "Moody Dark"
LUT_3D_SIZE 17
DOMAIN_MIN 0.0 0.0 0.0
DOMAIN_MAX 1.0 1.0 1.0
0.030000 0.030000 0.030000
0.030000 0.030000 0.030000
0.030000 0.030000 0.030000
0.035116 0.030000 0.030000
0.088488 0.030000 0.030000
0.141860 0.030000 0.030000
0.195232 0.030000 0.030000
0.248604 0.030000 0.030000
0.301976 0.030000 0.030000
0.355348 0.030000 0.030000
0.408720 0.030000 0.030000
0.462092 0.030000 0.030000
0.515464 0.030000 0.030000
0.568836 0.030000 0.030000
0.622208 0.030000 0.030000
0.675580 0.030000 0.030000
0.728953 0.030000 0.030000
0.030000 0.030000 0.030000
0.030000 0.030000 0.030000
0.030000 0.030000 0.030000
0.045774 0.030000 0.030000
0.099146 0.030000 0.030000
0.152518 0.030000 0.030000
0.205890 0.030000 0.030000
0.259262 0.030000 0.030000
0.312634 0.030000 0.030000
0.366006 0.030000 0.030000
0.419378 0.030000 0.030000
0.472750 0.030000 0.030000
0.526122 0.030000 0.030000
0.579494 0.030000 0.030000
0.632866 0.030000 0.030000
0.686238 0.035109 0.030000
0.739610 0.040446 0.030000
0.030000 0.030000 0.030000
0.030000 0.030000 0.030000
0.030000 0.030000 0.030000
0.056432 0.030000 0.030000
0.109804 0.031451 0.030000
0.163176 0.036789 0.030000
0.216548 0.042126 0.030000
0.269920 0.047463 0.030000
0.323292 0.052800 0.030000
0.376664 0.058137 0.030000
0.430036 0.063474 0.030000
0.483408 0.068811 0.030000
0.536780 0.074149 0.030000
0.590152 0.079486 0.030000
0.643524 0.084823 0.030000
0.696896 0.090160 0.030000
0.750268 0.095497 0.030000
0.030000 0.065154 0.030000
0.030000 0.070491 0.030000
0.030000 0.075829 0.030000
0.067089 0.081166 0.030000
0.120461 0.086503 0.030000
0.173833 0.091840 0.030000
0.227205 0.097177 0.030000
0.280577 0.102514 0.030000
0.333949 0.107851 0.030000
0.387321 0.113189 0.030000
0.440693 0.118526 0.030000
0.494065 0.123863 0.030000
0.547438 0.129200 0.030000
0.600810 0.134537 0.030000
0.654182 0.139874 0.030000
0.707554 0.145211 0.031137
0.760926 0.150549 0.036252
0.030000 0.120206 0.030000
0.030000 0.125543 0.030000
0.030000 0.130880 0.030000
0.077747 0.136217 0.030000
0.131119 0.141554 0.030000
0.184491 0.146891 0.030000
0.237863 0.152229 0.030000
0.291235 0.157566 0.030000
0.344607 0.162903 0.030000
0.397979 0.168240 0.030000
0.451351 0.173577 0.030000
0.504723 0.178914 0.030000
0.558095 0.184251 0.030000
0.611467 0.189589 0.030712
0.664839 0.194926 0.035827
0.718211 0.200263 0.040942
0.771583 0.205600 0.046057
0.030000 0.175257 0.030000
0.030000 0.180594 0.030000
0.035033 0.185931 0.030000
0.088405 0.191268 0.030000
0.141777 0.196606 0.030000
0.195149 0.201943 0.030000
0.248521 0.207280 0.030000
0.301893 0.212617 0.030000
0.355265 0.217954 0.030000
0.408637 0.223291 0.030000
0.462009 0.228629 0.030000
0.515381 0.233966 0.030288
0.568753 0.239303 0.035403
0.622125 0.244640 0.040518
0.675497 0.249977 0.045632
0.728869 0.255314 0.050747
0.782241 0.260651 0.055862
0.030000 0.230308 0.030000
0.030000 0.235646 0.030000
0.045690 0.240983 0.030000
0.099062 0.246320 0.030000
0.152434 0.251657 0.030000
0.205806 0.256994 0.030000
0.259178 0.262331 0.030000
0.312551 0.267669 0.030000
0.365923 0.273006 0.030000
0.419295 0.278343 0.030000
0.472667 0.283680 0.034978
0.526039 0.289017 0.040093
0.579411 0.294354 0.045208
0.632783 0.299691 0.050323
0.686155 0.305029 0.055437
0.739527 0.310366 0.060552
0.792899 0.315703 0.065667
0.030000 0.285360 0.030000
0.030000 0.290697 0.030000
0.056348 0.296034 0.030000
0.109720 0.301371 0.030000
0.163092 0.306708 0.030000
0.216464 0.312046 0.030000
0.269836 0.317383 0.030000
0.323208 0.322720 0.030000
0.376580 0.328057 0.034554
0.429952 0.333394 0.039669
0.483324 0.338731 0.044783
0.536696 0.344069 0.049898
0.590068 0.349406 0.055013
0.643440 0.354743 0.060128
0.696812 0.360080 0.065242
0.750185 0.365417 0.070357
0.803557 0.370754 0.075472
0.030000 0.340411 0.030000
0.030000 0.345748 0.030000
0.067006 0.351086 0.030000
0.120378 0.356423 0.030000
0.173750 0.361760 0.030000
0.227122 0.367097 0.030000
0.280494 0.372434 0.034129
0.333866 0.377771 0.039244
0.387238 0.383108 0.044359
0.440610 0.388446 0.049474
0.493982 0.393783 0.054588
0.547354 0.399120 0.059703
0.600726 0.404457 0.064818
0.654098 0.409794 0.069933
0.707470 0.415131 0.075048
0.760842 0.420469 0.080162
0.814214 0.425806 0.085277
0.030000 0.395463 0.030000
0.030000 0.400800 0.030000
0.077664 0.406137 0.030000
0.131036 0.411474 0.030000
0.184408 0.416811 0.033705
0.237780 0.422148 0.038820
0.291152 0.427486 0.043935
0.344524 0.432823 0.049049
0.397896 0.438160 0.054164
0.451268 0.443497 0.059279
0.504640 0.448834 0.064394
0.558012 0.454171 0.069508
0.611384 0.459508 0.074623
0.664756 0.464846 0.079738
0.718128 0.470183 0.084853
0.771500 0.475520 0.089967
0.824872 0.480857 0.095082
0.030000 0.450514 0.030000
0.034949 0.455851 0.030000
0.088321 0.461188 0.033281
0.141693 0.466526 0.038395
0.195065 0.471863 0.043510
0.248437 0.477200 0.048625
0.301809 0.482537 0.053740
0.355181 0.487874 0.058854
0.408553 0.493211 0.063969
0.461925 0.498548 0.069084
0.515297 0.503886 0.074199
0.568670 0.509223 0.079313
0.622042 0.514560 0.084428
0.675414 0.519897 0.089543
0.728786 0.525234 0.094658
0.782158 0.530571 0.099773
0.835530 0.535908 0.104887
0.030000 0.505566 0.032856
0.045607 0.510903 0.037971
0.098979 0.516240 0.043086
0.152351 0.521577 0.048200
0.205723 0.526914 0.053315
0.259095 0.532251 0.058430
0.312467 0.537588 0.063545
0.365839 0.542926 0.068659
0.419211 0.548263 0.073774
0.472583 0.553600 0.078889
0.525955 0.558937 0.084004
0.579327 0.564274 0.089119
0.632699 0.569611 0.094233
0.686071 0.574948 0.099348
0.739443 0.580286 0.104463
0.792815 0.585623 0.109578
0.846187 0.590960 0.114692
0.030000 0.560617 0.042661
0.056265 0.565954 0.047776
0.109637 0.571291 0.052891
0.163009 0.576628 0.058006
0.216381 0.581966 0.063120
0.269753 0.587303 0.068235
0.323125 0.592640 0.073350
0.376497 0.597977 0.078465
0.429869 0.603314 0.083579
0.483241 0.608651 0.088694
0.536613 0.613988 0.093809
0.589985 0.619326 0.098924
0.643357 0.624663 0.104038
0.696729 0.630000 0.109153
0.750101 0.635337 0.114268
0.803473 0.640674 0.119383
0.856845 0.646011 0.124498
0.030000 0.615668 0.052466
0.066922 0.621005 0.057581
0.120294 0.626343 0.062696
0.173666 0.631680 0.067811
0.227038 0.637017 0.072925
0.280410 0.642354 0.078040
0.333783 0.647691 0.083155
0.387155 0.653028 0.088270
0.440527 0.658366 0.093384
0.493899 0.663703 0.098499
0.547271 0.669040 0.103614
0.600643 0.674377 0.108729
0.654015 0.679714 0.113844
0.707387 0.685051 0.118958
0.760759 0.690388 0.124073
0.814131 0.695726 0.129188
0.867503 0.701063 0.134303
0.030000 0.670720 0.062271
0.077580 0.676057 0.067386
0.130952 0.681394 0.072501
0.184324 0.686731 0.077616
0.237696 0.692068 0.082730
0.291068 0.697405 0.087845
0.344440 0.702743 0.092960
0.397812 0.708080 0.098075
0.451184 0.713417 0.103190
0.504556 0.718754 0.108304
0.557928 0.724091 0.113419
0.611300 0.729428 0.118534
0.664672 0.734766 0.123649
0.718044 0.740103 0.128763
0.771417 0.745440 0.133878
0.824789 0.750777 0.138993
0.878161 0.756114 0.144108
0.034866 0.725771 0.072077
0.088238 0.731108 0.077191
0.141610 0.736445 0.082306
0.194982 0.741783 0.087421
0.248354 0.747120 0.092536
0.301726 0.752457 0.097650
0.355098 0.757794 0.102765
0.408470 0.763131 0.107880
0.461842 0.768468 0.112995
0.515214 0.773805 0.118109
0.568586 0.779143 0.123224
0.621958 0.784480 0.128339
0.675330 0.789817 0.133454
0.728702 0.795154 0.138569
0.782074 0.800491 0.143683
0.835446 0.805828 0.148798
0.888818 0.811166 0.153913
0.045523 0.780823 0.081882
0.098896 0.786160 0.086996
0.152268 0.791497 0.092111
0.205640 0.796834 0.097226
0.259012 0.802171 0.102341
0.312384 0.807508 0.107455
0.365756 0.812845 0.112570
0.419128 0.818183 0.117685
0.472500 0.823520 0.122800
0.525872 0.828857 0.127915
0.579244 0.834194 0.133029
0.632616 0.839531 0.138144
0.685988 0.844868 0.143259
0.739360 0.850206 0.148374
0.792732 0.855543 0.153488
0.846104 0.860880 0.158603
0.899476 0.866217 0.163718
0.030000 0.030000 0.030000
0.030000 0.030000 0.030000
0.030000 0.030000 0.030000
0.037286 0.030000 0.030000
0.090658 0.030000 0.030000
0.144030 0.030000 0.030000
0.197402 0.030000 0.030000
0.250774 0.030000 0.030000
0.304146 0.030000 0.030000
0.357518 0.030000 0.030000
0.410890 0.030000 0.030000
0.464262 0.030000 0.030000
0.517634 0.030000 0.033396
0.571006 0.030000 0.038510
0.624378 0.030000 0.043625
0.677750 0.030000 0.048740
0.731122 0.030000 0.053855
0.030000 0.030000 0.030000
0.030000 0.030000 0.030000
0.030000 0.030000 0.030000
0.047943 0.030000 0.030000
0.101315 0.030000 0.030000
0.154687 0.030000 0.030000
0.208059 0.030000 0.030000
0.261432 0.030000 0.030000
0.314804 0.030000 0.030000
0.368176 0.030000 0.030000
0.421548 0.030000 0.032971
0.474920 0.030000 0.038086
0.528292 0.030000 0.043201
0.581664 0.030000 0.048316
0.635036 0.031854 0.053430
0.688408 0.037191 0.058545
0.741780 0.042529 0.063660
0.030000 0.030000 0.030000
0.030000 0.030000 0.030000
0.030000 0.030000 0.030000
0.058601 0.030000 0.030000
0.111973 0.033534 0.030000
0.165345 0.038871 0.030000
0.218717 0.044208 0.030000
0.272089 0.049546 0.030000
0.325461 0.054883 0.032547
0.378833 0.060220 0.037662
0.432205 0.065557 0.042776
0.485577 0.070894 0.047891
0.538949 0.076231 0.053006
0.592321 0.081569 0.058121
0.645693 0.086906 0.063235
0.699065 0.092243 0.068350
0.752438 0.097580 0.073465
0.030000 0.067237 0.030000
0.030000 0.072574 0.030000
0.030000 0.077911 0.030000
0.069259 0.083248 0.030000
0.122631 0.088586 0.030000
0.176003 0.093923 0.030000
0.229375 0.099260 0.032122
0.282747 0.104597 0.037237
0.336119 0.109934 0.042352
0.389491 0.115271 0.047467
0.442863 0.120609 0.052581
0.496235 0.125946 0.057696
0.549607 0.131283 0.062811
0.602979 0.136620 0.067926
0.656351 0.141957 0.073041
0.709723 0.147294 0.078155
0.763095 0.152631 0.083270
0.030000 0.122288 0.030000
0.030000 0.127626 0.030000
0.030000 0.132963 0.030000
0.079917 0.138300 0.030000
0.133289 0.143637 0.031698
0.186661 0.148974 0.036813
0.240033 0.154311 0.041928
0.293405 0.159648 0.047042
0.346777 0.164986 0.052157
0.400149 0.170323 0.057272
0.453521 0.175660 0.062387
0.506893 0.180997 0.067501
0.560265 0.186334 0.072616
0.613637 0.191671 0.077731
0.667009 0.197009 0.082846
0.720381 0.202346 0.087960
0.773753 0.207683 0.093075
0.030000 0.177340 0.030000
0.030000 0.182677 0.030000
0.037202 0.188014 0.031274
0.090574 0.193351 0.036388
0.143946 0.198688 0.041503
0.197318 0.204026 0.046618
0.250690 0.209363 0.051733
0.304062 0.214700 0.056847
0.357434 0.220037 0.061962
0.410806 0.225374 0.067077
0.464178 0.230711 0.072192
0.517550 0.236048 0.077306
0.570923 0.241386 0.082421
0.624295 0.246723 0.087536
0.677667 0.252060 0.092651
0.731039 0.257397 0.097766
0.784411 0.262734 0.102880
0.030000 0.232391 0.030849
0.030000 0.237728 0.035964
0.047860 0.243066 0.041079
0.101232 0.248403 0.046193
0.154604 0.253740 0.051308
0.207976 0.259077 0.056423
0.261348 0.264414 0.061538
0.314720 0.269751 0.066652
0.368092 0.275088 0.071767
0.421464 0.280426 0.076882
0.474836 0.285763 0.081997
0.528208 0.291100 0.087112
0.581580 0.296437 0.092226
0.634952 0.301774 0.097341
0.688324 0.307111 0.102456
0.741696 0.312448 0.107571
0.795068 0.317786 0.112685
0.030000 0.287443 0.040654
0.030000 0.292780 0.045769
0.058518 0.298117 0.050884
0.111890 0.303454 0.055999
0.165262 0.308791 0.061113
0.218634 0.314128 0.066228
0.272006 0.319466 0.071343
0.325378 0.324803 0.076458
0.378750 0.330140 0.081572
0.432122 0.335477 0.086687
0.485494 0.340814 0.091802
0.538866 0.346151 0.096917
0.592238 0.351488 0.102031
0.645610 0.356826 0.107146
0.698982 0.362163 0.112261
0.752354 0.367500 0.117376
0.805726 0.372837 0.122491
0.030000 0.342494 0.050459
0.030000 0.347831 0.055574
0.069175 0.353168 0.060689
0.122547 0.358506 0.065804
0.175919 0.363843 0.070918
0.229291 0.369180 0.076033
0.282663 0.374517 0.081148
0.336036 0.379854 0.086263
0.389408 0.385191 0.091377
0.442780 0.390528 0.096492
0.496152 0.395866 0.101607
0.549524 0.401203 0.106722
0.602896 0.406540 0.111837
0.656268 0.411877 0.116951
0.709640 0.417214 0.122066
0.763012 0.422551 0.127181
0.816384 0.427888 0.132296
0.030000 0.397545 0.060264
0.030000 0.402883 0.065379
0.079833 0.408220 0.070494
0.133205 0.413557 0.075609
0.186577 0.418894 0.080723
0.239949 0.424231 0.085838
0.293321 0.429568 0.090953
0.346693 0.434906 0.096068
0.400065 0.440243 0.101183
0.453437 0.445580 0.106297
0.506809 0.450917 0.111412
0.560181 0.456254 0.116527
0.613553 0.461591 0.121642
0.666925 0.466928 0.126756
0.720297 0.472266 0.131871
0.773670 0.477603 0.136986
0.827042 0.482940 0.142101
0.030000 0.452597 0.070070
0.037119 0.457934 0.075184
0.090491 0.463271 0.080299
0.143863 0.468608 0.085414
0.197235 0.473945 0.090529
0.250607 0.479283 0.095643
0.303979 0.484620 0.100758
0.357351 0.489957 0.105873
0.410723 0.495294 0.110988
0.464095 0.500631 0.116102
0.517467 0.505968 0.121217
0.570839 0.511306 0.126332
0.624211 0.516643 0.131447
0.677583 0.521980 0.136562
0.730955 0.527317 0.141676
0.784327 0.532654 0.146791
0.837699 0.537991 0.151906
0.030000 0.507648 0.079875
0.047776 0.512985 0.084989
0.101149 0.518323 0.090104
0.154521 0.523660 0.095219
0.207893 0.528997 0.100334
0.261265 0.534334 0.105448
0.314637 0.539671 0.110563
0.368009 0.545008 0.115678
0.421381 0.550345 0.120793
0.474753 0.555683 0.125908
0.528125 0.561020 0.131022
0.581497 0.566357 0.136137
0.634869 0.571694 0.141252
0.688241 0.577031 0.146367
0.741613 0.582368 0.151481
0.794985 0.587706 0.156596
0.848357 0.593043 0.161711
0.030000 0.562700 0.089680
0.058434 0.568037 0.094794
0.111806 0.573374 0.099909
0.165178 0.578711 0.105024
0.218550 0.584048 0.110139
0.271922 0.589385 0.115254
0.325294 0.594723 0.120368
0.378666 0.600060 0.125483
0.432038 0.605397 0.130598
0.485410 0.610734 0.135713
0.538782 0.616071 0.140827
0.592155 0.621408 0.145942
0.645527 0.626745 0.151057
0.698899 0.632083 0.156172
0.752271 0.637420 0.161286
0.805643 0.642757 0.166401
0.859015 0.648094 0.171516
0.030000 0.617751 0.099485
0.069092 0.623088 0.104600
0.122464 0.628425 0.109714
0.175836 0.633763 0.114829
0.229208 0.639100 0.119944
0.282580 0.644437 0.125059
0.335952 0.649774 0.130173
0.389324 0.655111 0.135288
0.442696 0.660448 0.140403
0.496068 0.665785 0.145518
0.549440 0.671123 0.150633
0.602812 0.676460 0.155747
0.656184 0.681797 0.160862
0.709556 0.687134 0.165977
0.762928 0.692471 0.171092
0.816300 0.697808 0.176206
0.869672 0.703146 0.181321
0.030000 0.672803 0.109290
0.079750 0.678140 0.114405
0.133122 0.683477 0.119519
0.186494 0.688814 0.124634
0.239866 0.694151 0.129749
0.293238 0.699488 0.134864
0.346610 0.704825 0.139979
0.399982 0.710163 0.145093
0.453354 0.715500 0.150208
0.506726 0.720837 0.155323
0.560098 0.726174 0.160438
0.613470 0.731511 0.165552
0.666842 0.736848 0.170667
0.720214 0.742185 0.175782
0.773586 0.747523 0.180897
0.826958 0.752860 0.186011
0.880330 0.758197 0.191126
0.037035 0.727854 0.119095
0.090407 0.733191 0.124210
0.143779 0.738528 0.129325
0.197151 0.743865 0.134439
0.250523 0.749203 0.139554
0.303895 0.754540 0.144669
0.357268 0.759877 0.149784
0.410640 0.765214 0.154898
0.464012 0.770551 0.160013
0.517384 0.775888 0.165128
0.570756 0.781225 0.170243
0.624128 0.786563 0.175357
0.677500 0.791900 0.180472
0.730872 0.797237 0.185587
0.784244 0.802574 0.190702
0.837616 0.807911 0.195817
0.890988 0.813248 0.200931
0.047693 0.782905 0.128900
0.101065 0.788242 0.134015
0.154437 0.793580 0.139130
0.207809 0.798917 0.144244
0.261181 0.804254 0.149359
0.314553 0.809591 0.154474
0.367925 0.814928 0.159589
0.421297 0.820265 0.164703
0.474669 0.825603 0.169818
0.528041 0.830940 0.174933
0.581413 0.836277 0.180048
0.634785 0.841614 0.185163
0.688157 0.846951 0.190277
0.741529 0.852288 0.195392
0.794901 0.857625 0.200507
0.848274 0.862963 0.205622
0.901646 0.868300 0.210736
0.030000 0.030000 0.030000
0.030000 0.030000 0.030000
0.030000 0.030000 0.030000
0.039455 0.030000 0.034381
0.092827 0.030000 0.039496
0.146199 0.030000 0.044611
0.199571 0.030000 0.049726
0.252943 0.030000 0.054840
0.306315 0.030000 0.059955
0.359687 0.030000 0.065070
0.413059 0.030000 0.070185
0.466431 0.030000 0.075299
0.519803 0.030000 0.080414
0.573176 0.030000 0.085529
0.626548 0.030000 0.090644
0.679920 0.030000 0.095759
0.733292 0.030000 0.100873
0.030000 0.030000 0.030000
0.030000 0.030000 0.033957
0.030000 0.030000 0.039072
0.050113 0.030000 0.044186
0.103485 0.030000 0.049301
0.156857 0.030000 0.054416
0.210229 0.030000 0.059531
0.263601 0.030000 0.064645
0.316973 0.030000 0.069760
0.370345 0.030000 0.074875
0.423717 0.030000 0.079990
0.477089 0.030000 0.085105
0.530461 0.030000 0.090219
0.583833 0.030000 0.095334
0.637205 0.033937 0.100449
0.690577 0.039274 0.105564
0.743949 0.044611 0.110678
0.030000 0.030000 0.038647
0.030000 0.030000 0.043762
0.030000 0.030000 0.048877
0.060771 0.030280 0.053992
0.114143 0.035617 0.059106
0.167515 0.040954 0.064221
0.220887 0.046291 0.069336
0.274259 0.051628 0.074451
0.327631 0.056966 0.079565
0.381003 0.062303 0.084680
0.434375 0.067640 0.089795
0.487747 0.072977 0.094910
0.541119 0.078314 0.100024
0.594491 0.083651 0.105139
0.647863 0.088988 0.110254
0.701235 0.094326 0.115369
0.754607 0.099663 0.120483
0.030000 0.069320 0.048452
0.030000 0.074657 0.053567
0.030000 0.079994 0.058682
0.071428 0.085331 0.063797
0.124800 0.090668 0.068911
0.178172 0.096006 0.074026
0.231544 0.101343 0.079141
0.284917 0.106680 0.084256
0.338289 0.112017 0.089370
0.391661 0.117354 0.094485
0.445033 0.122691 0.099600
0.498405 0.128028 0.104715
0.551777 0.133366 0.109830
0.605149 0.138703 0.114944
0.658521 0.144040 0.120059
0.711893 0.149377 0.125174
0.765265 0.154714 0.130289
0.030000 0.124371 0.058257
0.030000 0.129708 0.063372
0.030000 0.135045 0.068487
0.082086 0.140383 0.073602
0.135458 0.145720 0.078716
0.188830 0.151057 0.083831
0.242202 0.156394 0.088946
0.295574 0.161731 0.094061
0.348946 0.167068 0.099176
0.402318 0.172406 0.104290
0.455690 0.177743 0.109405
0.509062 0.183080 0.114520
0.562434 0.188417 0.119635
0.615806 0.193754 0.124749
0.669178 0.199091 0.129864
0.722550 0.204428 0.134979
0.775922 0.209766 0.140094
0.030000 0.179423 0.068063
0.030000 0.184760 0.073177
0.039372 0.190097 0.078292
0.092744 0.195434 0.083407
0.146116 0.200771 0.088522
0.199488 0.206108 0.093636
0.252860 0.211446 0.098751
0.306232 0.216783 0.103866
0.359604 0.222120 0.108981
0.412976 0.227457 0.114095
0.466348 0.232794 0.119210
0.519720 0.238131 0.124325
0.573092 0.243468 0.129440
0.626464 0.248806 0.134554
0.679836 0.254143 0.139669
0.733208 0.259480 0.144784
0.786580 0.264817 0.149899
0.030000 0.234474 0.077868
0.030000 0.239811 0.082982
0.050029 0.245148 0.088097
0.103402 0.250485 0.093212
0.156774 0.255823 0.098327
0.210146 0.261160 0.103441
0.263518 0.266497 0.108556
0.316890 0.271834 0.113671
0.370262 0.277171 0.118786
0.423634 0.282508 0.123901
0.477006 0.287846 0.129015
0.530378 0.293183 0.134130
0.583750 0.298520 0.139245
0.637122 0.303857 0.144360
0.690494 0.309194 0.149474
0.743866 0.314531 0.154589
0.797238 0.319868 0.159704
0.030000 0.289525 0.087673
0.030000 0.294863 0.092787
0.060687 0.300200 0.097902
0.114059 0.305537 0.103017
0.167431 0.310874 0.108132
0.220803 0.316211 0.113247
0.274175 0.321548 0.118361
0.327547 0.326885 0.123476
0.380919 0.332223 0.128591
0.434291 0.337560 0.133706
0.487663 0.342897 0.138820
0.541036 0.348234 0.143935
0.594408 0.353571 0.149050
0.647780 0.358908 0.154165
0.701152 0.364246 0.159279
0.754524 0.369583 0.164394
0.807896 0.374920 0.169509
0.030000 0.344577 0.097478
0.030000 0.349914 0.102593
0.071345 0.355251 0.107707
0.124717 0.360588 0.112822
0.178089 0.365925 0.117937
0.231461 0.371263 0.123052
0.284833 0.376600 0.128166
0.338205 0.381937 0.133281
0.391577 0.387274 0.138396
0.444949 0.392611 0.143511
0.498321 0.397948 0.148625
0.551693 0.403285 0.153740
0.605065 0.408623 0.158855
0.658437 0.413960 0.163970
0.711809 0.419297 0.169085
0.765181 0.424634 0.174199
0.818553 0.429971 0.179314
0.030000 0.399628 0.107283
0.030000 0.404965 0.112398
0.082003 0.410303 0.117512
0.135375 0.415640 0.122627
0.188747 0.420977 0.127742
0.242119 0.426314 0.132857
0.295491 0.431651 0.137972
0.348863 0.436988 0.143086
0.402235 0.442325 0.148201
0.455607 0.447663 0.153316
0.508979 0.453000 0.158431
0.562351 0.458337 0.163545
0.615723 0.463674 0.168660
0.669095 0.469011 0.173775
0.722467 0.474348 0.178890
0.775839 0.479685 0.184004
0.829211 0.485023 0.189119
0.030000 0.454680 0.117088
0.039288 0.460017 0.122203
0.092660 0.465354 0.127318
0.146032 0.470691 0.132432
0.199404 0.476028 0.137547
0.252776 0.481365 0.142662
0.306148 0.486703 0.147777
0.359521 0.492040 0.152891
0.412893 0.497377 0.158006
0.466265 0.502714 0.163121
0.519637 0.508051 0.168236
0.573009 0.513388 0.173350
0.626381 0.518725 0.178465
0.679753 0.524063 0.183580
0.733125 0.529400 0.188695
0.786497 0.534737 0.193810
0.839869 0.540074 0.198924
0.030000 0.509731 0.126893
0.049946 0.515068 0.132008
0.103318 0.520405 0.137123
0.156690 0.525743 0.142237
0.210062 0.531080 0.147352
0.263434 0.536417 0.152467
0.316806 0.541754 0.157582
0.370178 0.547091 0.162696
0.423550 0.552428 0.167811
0.476922 0.557765 0.172926
0.530294 0.563103 0.178041
0.583666 0.568440 0.183156
0.637038 0.573777 0.188270
0.690410 0.579114 0.193385
0.743782 0.584451 0.198500
0.797154 0.589788 0.203615
0.850527 0.595125 0.208729
0.030000 0.564782 0.136698
0.060604 0.570120 0.141813
0.113976 0.575457 0.146928
0.167348 0.580794 0.152043
0.220720 0.586131 0.157157
0.274092 0.591468 0.162272
0.327464 0.596805 0.167387
0.380836 0.602143 0.172502
0.434208 0.607480 0.177616
0.487580 0.612817 0.182731
0.540952 0.618154 0.187846
0.594324 0.623491 0.192961
0.647696 0.628828 0.198075
0.701068 0.634165 0.203190
0.754440 0.639503 0.208305
0.807812 0.644840 0.213420
0.861184 0.650177 0.218535
0.030000 0.619834 0.146503
0.071261 0.625171 0.151618
0.124634 0.630508 0.156733
0.178006 0.635845 0.161848
0.231378 0.641182 0.166962
0.284750 0.646520 0.172077
0.338122 0.651857 0.177192
0.391494 0.657194 0.182307
0.444866 0.662531 0.187421
0.498238 0.667868 0.192536
0.551610 0.673205 0.197651
0.604982 0.678543 0.202766
0.658354 0.683880 0.207881
0.711726 0.689217 0.212995
0.765098 0.694554 0.218110
0.818470 0.699891 0.223225
0.871842 0.705228 0.228340
0.030000 0.674885 0.156308
0.081919 0.680222 0.161423
0.135291 0.685560 0.166538
0.188663 0.690897 0.171653
0.242035 0.696234 0.176767
0.295407 0.701571 0.181882
0.348779 0.706908 0.186997
0.402151 0.712245 0.192112
0.455523 0.717583 0.197227
0.508895 0.722920 0.202341
0.562268 0.728257 0.207456
0.615640 0.733594 0.212571
0.669012 0.738931 0.217686
0.722384 0.744268 0.222800
0.775756 0.749605 0.227915
0.829128 0.754943 0.233030
0.882500 0.760280 0.238145
0.039205 0.729937 0.166114
0.092577 0.735274 0.171228
0.145949 0.740611 0.176343
0.199321 0.745948 0.181458
0.252693 0.751285 0.186573
0.306065 0.756622 0.191687
0.359437 0.761960 0.196802
0.412809 0.767297 0.201917
0.466181 0.772634 0.207032
0.519553 0.777971 0.212146
0.572925 0.783308 0.217261
0.626297 0.788645 0.222376
0.679669 0.793983 0.227491
0.733041 0.799320 0.232606
0.786413 0.804657 0.237720
0.839785 0.809994 0.242835
0.893157 0.815331 0.247950
0.049863 0.784988 0.175919
0.103235 0.790325 0.181033
0.156607 0.795662 0.186148
0.209979 0.801000 0.191263
0.263351 0.806337 0.196378
0.316723 0.811674 0.201492
0.370095 0.817011 0.206607
0.423467 0.822348 0.211722
0.476839 0.827685 0.216837
0.530211 0.833022 0.221952
0.583583 0.838360 0.227066
0.636955 0.843697 0.232181
0.690327 0.849034 0.237296
0.743699 0.854371 0.242411
0.797071 0.859708 0.247525
0.850443 0.865045 0.252640
0.903815 0.870383 0.257755
0.030000 0.030000 0.066055
0.030000 0.030000 0.071170
0.030000 0.030000 0.076285
0.041625 0.030000 0.081400
0.094997 0.030000 0.086515
0.148369 0.030000 0.091629
0.201741 0.030000 0.096744
0.255113 0.030000 0.101859
0.308485 0.030000 0.106974
0.361857 0.030000 0.112088
0.415229 0.030000 0.117203
0.468601 0.030000 0.122318
0.521973 0.030000 0.127433
0.575345 0.030000 0.132547
0.628717 0.030000 0.137662
0.682089 0.030000 0.142777
0.735461 0.030000 0.147892
0.030000 0.030000 0.075861
