assets/luts/teal_orange.cube
TITLE "Teal & Orange Cinema"
LUT_3D_SIZE 17
DOMAIN_MIN 0.0 0.0 0.0
DOMAIN_MAX 1.0 1.0 1.0
0.000000 0.000000 0.084322
0.040955 0.000000 0.080652
0.112056 0.000000 0.076970
0.180670 0.000000 0.073274
0.247904 0.000000 0.069564
0.314179 0.000000 0.065840
0.379721 0.000000 0.062099
0.444669 0.000000 0.058341
0.509120 0.000000 0.054565
0.573143 0.000000 0.050769
0.636791 0.000000 0.046952
0.700106 0.000000 0.043111
0.763120 0.000000 0.039244
0.825861 0.000000 0.035349
0.888352 0.000000 0.031420
0.950612 0.000000 0.027454
1.000000 0.000000 0.023445
0.000000 0.048679 0.077106
0.044107 0.049673 0.073410
0.115049 0.050668 0.069701
0.183590 0.051661 0.065977
0.250776 0.052654 0.062237
0.317015 0.053647 0.058480
0.382529 0.054639 0.054705
0.447454 0.055630 0.050909
0.511885 0.056621 0.047093
0.575891 0.057611 0.043253
0.639524 0.058601 0.039387
0.702825 0.059590 0.035493
0.765827 0.060579 0.031565
0.828557 0.061567 0.027601
0.891038 0.062555 0.023593
0.953288 0.063542 0.019533
1.000000 0.064529 0.015408
0.000000 0.116151 0.069838
0.047247 0.117119 0.066114
0.118038 0.118088 0.062375
0.186506 0.119056 0.058618
0.253645 0.120024 0.054844
0.319850 0.120991 0.051049
0.385336 0.121959 0.047234
0.450238 0.122926 0.043395
0.514650 0.123893 0.039530
0.578639 0.124859 0.035636
0.642257 0.125826 0.031710
0.705544 0.126792 0.027748
0.768534 0.127758 0.023741
0.831252 0.128724 0.019683
0.893723 0.129690 0.015561
0.955964 0.130655 0.011353
1.000000 0.131620 0.007022
0.000000 0.182353 0.062513
0.050375 0.183308 0.058757
0.121022 0.184263 0.054983
0.189421 0.185218 0.051189
0.256513 0.186173 0.047375
0.322683 0.187127 0.043536
0.388142 0.188082 0.039673
0.453021 0.189036 0.035780
0.517413 0.189990 0.031856
0.581385 0.190945 0.027894
0.644988 0.191898 0.023890
0.708262 0.192852 0.019834
0.771240 0.193806 0.015714
0.833947 0.194759 0.011510
0.896407 0.195713 0.007184
0.958639 0.196666 0.002634
1.000000 0.197157 0.000000
0.000000 0.247802 0.055122
0.053494 0.248749 0.051329
0.124003 0.249695 0.047515
0.192333 0.250641 0.043678
0.259380 0.251587 0.039815
0.325516 0.252532 0.035924
0.390946 0.253478 0.032001
0.455803 0.254424 0.028041
0.520176 0.255369 0.024038
0.584131 0.256315 0.019984
0.647719 0.257260 0.015867
0.710980 0.258205 0.011667
0.773945 0.259150 0.007346
0.836642 0.260095 0.002808
0.898479 0.260616 0.000000
0.959341 0.260616 0.000000
1.000000 0.260616 0.000000
0.000000 0.312715 0.047656
0.056603 0.313655 0.043820
0.126980 0.314594 0.039958
0.195243 0.315533 0.036068
0.262244 0.316472 0.032145
0.328346 0.317412 0.028187
0.393750 0.318351 0.024186
0.458585 0.319290 0.020134
0.522938 0.320228 0.016020
0.586877 0.321167 0.011823
0.650450 0.322106 0.007508
0.713697 0.323045 0.002982
0.776083 0.323597 0.000000
0.837399 0.323597 0.000000
0.898479 0.323597 0.000000
0.959341 0.323597 0.000000
1.000000 0.323597 0.000000
0.000000 0.377211 0.040100
0.059703 0.378145 0.036211
0.129954 0.379079 0.032290
0.198150 0.380013 0.028333
0.265107 0.380946 0.024334
0.331176 0.381880 0.020284
0.396553 0.382814 0.016172
0.461365 0.383747 0.011979
0.525699 0.384681 0.007669
0.589621 0.385614 0.003155
0.652659 0.386198 0.000000
0.714512 0.386198 0.000000
0.776083 0.386198 0.000000
0.837399 0.386198 0.000000
0.898479 0.386198 0.000000
0.959392 0.386216 0.000000
1.000000 0.386962 0.000000
0.000000 0.441365 0.032435
0.062795 0.442295 0.028480
0.132924 0.443224 0.024482
0.201056 0.444154 0.020434
0.267969 0.445083 0.016325
0.334004 0.446012 0.012135
0.399355 0.446941 0.007831
0.464144 0.447871 0.003327
0.527985 0.448486 0.000000
0.590495 0.448486 0.000000
0.652659 0.448486 0.000000
0.714512 0.448486 0.000000
0.776083 0.448486 0.000000
0.837399 0.448486 0.000000
0.900637 0.449219 0.000000
0.963671 0.449962 0.000000
1.000000 0.450706 0.000000
0.000000 0.505231 0.024630
0.065879 0.506157 0.020584
0.135890 0.507083 0.016477
0.203959 0.508008 0.012291
0.270829 0.508934 0.007992
0.336831 0.509859 0.003499
0.401726 0.510506 0.000000
0.465082 0.510506 0.000000
0.527985 0.510506 0.000000
0.590495 0.510506 0.000000
0.652659 0.510506 0.000000
0.714512 0.510506 0.000000
0.778177 0.511209 0.000000
0.841679 0.511949 0.000000
0.904930 0.512690 0.000000
0.967949 0.513430 0.000000
1.000000 0.514170 0.000000
0.000000 0.568848 0.016630
0.068955 0.569771 0.012447
0.138853 0.570693 0.008153
0.206860 0.571615 0.003670
0.273302 0.572294 0.000000
0.337837 0.572294 0.000000
0.401726 0.572294 0.000000
0.465082 0.572294 0.000000
0.527985 0.572294 0.000000
0.590495 0.572294 0.000000
0.654690 0.572967 0.000000
0.718746 0.573705 0.000000
0.782504 0.574442 0.000000
0.845988 0.575180 0.000000
0.909223 0.575918 0.000000
0.972227 0.576655 0.000000
1.000000 0.577393 0.000000
0.000000 0.632246 0.008313
0.072024 0.633165 0.003840
0.141470 0.633875 0.000000
0.207946 0.633875 0.000000
0.273302 0.633875 0.000000
0.337837 0.633875 0.000000
0.401726 0.633875 0.000000
0.465082 0.633875 0.000000
0.529956 0.634519 0.000000
0.594691 0.635255 0.000000
0.659056 0.635990 0.000000
0.723091 0.636725 0.000000
0.786829 0.637461 0.000000
0.850296 0.638196 0.000000
0.913514 0.638931 0.000000
0.976503 0.639666 0.000000
1.000000 0.640401 0.000000
0.000000 0.695272 0.000000
0.073230 0.695272 0.000000
0.141470 0.695272 0.000000
0.207946 0.695272 0.000000
0.273302 0.695272 0.000000
0.337837 0.695272 0.000000
0.403642 0.695887 0.000000
0.469247 0.696620 0.000000
0.534371 0.697354 0.000000
0.599079 0.698087 0.000000
0.663420 0.698820 0.000000
0.727434 0.699553 0.000000
0.791153 0.700286 0.000000
0.854602 0.701019 0.000000
0.917805 0.701752 0.000000
0.980778 0.702485 0.000000
1.000000 0.703219 0.000000
0.000000 0.756501 0.000000
0.073230 0.756501 0.000000
0.141470 0.756501 0.000000
0.207946 0.756501 0.000000
0.275171 0.757088 0.000000
0.341988 0.757819 0.000000
0.408120 0.758551 0.000000
0.473689 0.759282 0.000000
0.538783 0.760013 0.000000
0.603465 0.760744 0.000000
0.667783 0.761476 0.000000
0.731776 0.762207 0.000000
0.795476 0.762938 0.000000
0.858908 0.763669 0.000000
0.922094 0.764400 0.000000
0.985053 0.765131 0.000000
1.000000 0.765862 0.000000
0.000000 0.817577 0.000000
0.073230 0.817577 0.000000
0.143316 0.818136 0.000000
0.212116 0.818865 0.000000
0.279740 0.819595 0.000000
0.346505 0.820324 0.000000
0.412595 0.821054 0.000000
0.478130 0.821783 0.000000
0.543194 0.822513 0.000000
0.607850 0.823242 0.000000
0.672145 0.823972 0.000000
0.736117 0.824701 0.000000
0.799797 0.825431 0.000000
0.863212 0.826160 0.000000
0.926382 0.826889 0.000000
0.989326 0.827619 0.000000
1.000000 0.828348 0.000000
0.002298 0.879043 0.000000
0.077539 0.879771 0.000000
0.148042 0.880499 0.000000
0.216747 0.881227 0.000000
0.284305 0.881955 0.000000
0.351019 0.882683 0.000000
0.417068 0.883410 0.000000
0.482569 0.884138 0.000000
0.547603 0.884866 0.000000
0.612233 0.885594 0.000000
0.676505 0.886322 0.000000
0.740456 0.887050 0.000000
0.804118 0.887777 0.000000
0.867515 0.888505 0.000000
0.930669 0.889233 0.000000
0.993598 0.889960 0.000000
1.000000 0.890688 0.000000
0.007951 0.941273 0.000000
0.082417 0.941999 0.000000
0.152760 0.942726 0.000000
0.221373 0.943452 0.000000
0.288865 0.944178 0.000000
0.355530 0.944905 0.000000
0.421538 0.945631 0.000000
0.487005 0.946357 0.000000
0.552010 0.947084 0.000000
0.616614 0.947810 0.000000
0.680863 0.948536 0.000000
0.744794 0.949262 0.000000
0.808437 0.949989 0.000000
0.871817 0.950715 0.000000
0.934955 0.951441 0.000000
0.997870 0.952167 0.000000
1.000000 0.952893 0.000000
0.013377 1.000000 0.000000
0.087279 1.000000 0.000000
0.157471 1.000000 0.000000
0.225994 1.000000 0.000000
0.293422 1.000000 0.000000
0.360037 1.000000 0.000000
0.426006 1.000000 0.000000
0.491439 1.000000 0.000000
0.556416 1.000000 0.000000
0.620994 1.000000 0.000000
0.685220 1.000000 0.000000
0.749131 1.000000 0.000000
0.812755 1.000000 0.000000
0.876118 1.000000 0.000000
0.939240 1.000000 0.000000
1.000000 1.000000 0.000000
1.000000 1.000000 0.000000
0.000000 0.000000 0.151301
0.041568 0.000000 0.147792
0.112638 0.000000 0.144277
0.181237 0.000000 0.140755
0.248462 0.000000 0.137227
0.314730 0.000000 0.133691
0.380266 0.000000 0.130149
0.445210 0.000000 0.126599
0.509657 0.000000 0.123042
0.573677 0.000000 0.119477
0.637322 0.000000 0.115905
0.700634 0.000000 0.112323
0.763646 0.000000 0.108734
0.826385 0.000000 0.105135
0.888874 0.000000 0.101527
0.951132 0.000000 0.097909
1.000000 0.000000 0.094281
0.000000 0.049058 0.144406
0.044717 0.050053 0.140885
0.115630 0.051047 0.137356
0.184156 0.052040 0.133821
0.251333 0.053033 0.130279
0.317566 0.054025 0.126730
0.383074 0.055017 0.123173
0.447995 0.056008 0.119609
0.512422 0.056998 0.116036
0.576425 0.057988 0.112455
0.640055 0.058978 0.108866
0.703353 0.059967 0.105267
0.766353 0.060956 0.101660
0.829080 0.061944 0.098042
0.891559 0.062931 0.094415
0.953808 0.063918 0.090777
1.000000 0.064905 0.087128
0.000000 0.116520 0.137486
0.047855 0.117488 0.133952
0.118618 0.118457 0.130410
0.187073 0.119425 0.126861
0.254202 0.120393 0.123304
0.320400 0.121360 0.119740
0.385881 0.122327 0.116168
0.450779 0.123295 0.112587
0.515186 0.124261 0.108998
0.579172 0.125228 0.105400
0.642787 0.126194 0.101793
0.706072 0.127161 0.098176
0.769059 0.128126 0.094549
0.831776 0.129092 0.090911
0.894244 0.130058 0.087262
0.956483 0.131023 0.083602
1.000000 0.131988 0.079930
0.000000 0.182717 0.130540
0.050982 0.183672 0.126992
0.121602 0.184627 0.123435
0.189987 0.185582 0.119871
0.257070 0.186537 0.116299
0.323234 0.187491 0.112719
0.388686 0.188446 0.109130
0.453561 0.189400 0.105533
0.517950 0.190354 0.101926
0.581919 0.191308 0.098309
0.645519 0.192262 0.094682
0.708790 0.193216 0.091045
0.771765 0.194169 0.087397
0.834470 0.195123 0.083737
0.896929 0.196076 0.080066
0.959158 0.197029 0.076381
1.000000 0.197157 0.075887
0.000000 0.248163 0.123566
0.054099 0.249109 0.120003
0.124582 0.250055 0.116431
0.192898 0.251001 0.112851
0.259936 0.251947 0.109262
0.326065 0.252893 0.105665
0.391491 0.253839 0.102058
0.456343 0.254784 0.098442
0.520713 0.255730 0.094816
0.584665 0.256675 0.091179
0.648250 0.257620 0.087531
0.711508 0.258565 0.083872
0.774470 0.259510 0.080201
0.837165 0.260455 0.076517
0.898479 0.260616 0.075887
0.959341 0.260616 0.075887
1.000000 0.260616 0.075887
0.000000 0.313073 0.116562
0.057206 0.314013 0.112983
0.127558 0.314952 0.109395
0.195808 0.315891 0.105798
0.262801 0.316831 0.102191
0.328896 0.317770 0.098575
0.394295 0.318709 0.094949
0.459125 0.319648 0.091313
0.523475 0.320586 0.087666
0.587410 0.321525 0.084007
0.650980 0.322464 0.080336
0.714225 0.323402 0.076653
0.776083 0.323597 0.075887
0.837399 0.323597 0.075887
0.898479 0.323597 0.075887
0.959341 0.323597 0.075887
1.000000 0.323597 0.075887
0.000000 0.377567 0.109527
0.060304 0.378501 0.105930
0.130531 0.379435 0.102324
0.198715 0.380369 0.098709
0.265663 0.381302 0.095083
0.331725 0.382236 0.091447
0.397097 0.383170 0.087800
0.461905 0.384103 0.084142
0.526236 0.385037 0.080471
0.590154 0.385970 0.076788
0.652659 0.386198 0.075887
0.714512 0.386198 0.075887
0.776083 0.386198 0.075887
0.837399 0.386198 0.075887
0.898479 0.386198 0.075887
0.960223 0.386500 0.075033
1.000000 0.387247 0.072919
0.000000 0.441719 0.102457
0.063395 0.442649 0.098842
0.133500 0.443578 0.095217
0.201620 0.444508 0.091581
0.268524 0.445437 0.087934
0.334553 0.446366 0.084277
0.399899 0.447296 0.080607
0.464684 0.448225 0.076924
0.527985 0.448486 0.075887
0.590495 0.448486 0.075887
0.652659 0.448486 0.075887
0.714512 0.448486 0.075887
0.776083 0.448486 0.075887
0.838207 0.448759 0.075111
0.901471 0.449503 0.072996
0.964502 0.450246 0.070878
1.000000 0.450989 0.068754
0.000000 0.505584 0.095350
0.066477 0.506510 0.091715
0.136466 0.507436 0.088069
0.204522 0.508361 0.084411
0.271384 0.509287 0.080742
0.337380 0.510212 0.077060
0.401726 0.510506 0.075887
0.465082 0.510506 0.075887
0.527985 0.510506 0.075887
0.590495 0.510506 0.075887
0.652659 0.510506 0.075887
0.715245 0.510751 0.075188
0.779017 0.511491 0.073074
0.842516 0.512232 0.070956
0.905764 0.512972 0.068832
0.968780 0.513712 0.066704
1.000000 0.514452 0.064571
0.000000 0.569200 0.088203
0.069551 0.570122 0.084546
0.139428 0.571044 0.080877
0.207423 0.571967 0.077196
0.273302 0.572294 0.075887
0.337837 0.572294 0.075887
0.401726 0.572294 0.075887
0.465082 0.572294 0.075887
0.527985 0.572294 0.075887
0.591154 0.572511 0.075266
0.655538 0.573248 0.073152
0.719590 0.573986 0.071034
0.783344 0.574724 0.068911
0.846825 0.575461 0.066783
0.910056 0.576199 0.064649
0.973057 0.576936 0.062511
1.000000 0.577674 0.060367
0.000000 0.632596 0.081012
0.072619 0.633515 0.077331
0.141470 0.633875 0.075887
0.207946 0.633875 0.075887
0.273302 0.633875 0.075887
0.337837 0.633875 0.075887
0.401726 0.633875 0.075887
0.465665 0.634064 0.075344
0.530814 0.634800 0.073230
0.595543 0.635535 0.071112
0.659904 0.636270 0.068989
0.723935 0.637006 0.066861
0.787669 0.637741 0.064728
0.851132 0.638476 0.062590
0.914348 0.639211 0.060446
0.977333 0.639946 0.058296
1.000000 0.640682 0.056141
0.000000 0.695272 0.075887
0.073230 0.695272 0.075887
0.141470 0.695272 0.075887
0.207946 0.695272 0.075887
0.273302 0.695272 0.075887
0.338346 0.695434 0.075421
0.404511 0.696167 0.073308
0.470110 0.696900 0.071190
0.535228 0.697633 0.069067
0.599931 0.698366 0.066939
0.664268 0.699100 0.064807
0.728278 0.699833 0.062668
0.791993 0.700566 0.060525
0.855439 0.701299 0.058376
0.918638 0.702032 0.056220
0.981608 0.702765 0.054059
1.000000 0.703498 0.051891
0.000000 0.756501 0.075887
0.073230 0.756501 0.075887
0.141470 0.756501 0.075887
0.208381 0.756635 0.075499
0.276059 0.757367 0.073386
0.342865 0.758098 0.071268
0.408989 0.758829 0.069145
0.474552 0.759561 0.067018
0.539640 0.760292 0.064885
0.604317 0.761023 0.062747
0.668630 0.761754 0.060604
0.732619 0.762486 0.058455
0.796315 0.763217 0.056300
0.859744 0.763948 0.054138
0.922927 0.764679 0.051970
0.985883 0.765410 0.049796
1.000000 0.766141 0.047614
0.000000 0.817577 0.075887
0.073597 0.817684 0.075577
0.144235 0.818414 0.073464
0.213016 0.819144 0.071346
0.280627 0.819873 0.069223
0.347382 0.820603 0.067096
0.413464 0.821332 0.064964
0.478992 0.822062 0.062826
0.544051 0.822791 0.060683
0.608701 0.823521 0.058534
0.672992 0.824250 0.056379
0.736960 0.824979 0.054218
0.800637 0.825709 0.052050
0.864048 0.826438 0.049876
0.927215 0.827168 0.047694
0.990156 0.827897 0.045505
1.000000 0.828626 0.043308
0.003428 0.879321 0.073541
0.078487 0.880049 0.071424
0.148959 0.880776 0.069302
0.217646 0.881504 0.067174
0.285191 0.882232 0.065042
0.351895 0.882960 0.062905
0.417936 0.883688 0.060762
0.483430 0.884416 0.058613
0.548459 0.885144 0.056458
0.613084 0.885871 0.054298
0.677351 0.886599 0.052130
0.741299 0.887327 0.049956
0.804957 0.888055 0.047775
0.868351 0.888783 0.045586
0.931502 0.889510 0.043389
0.994428 0.890238 0.041184
1.000000 0.890966 0.038970
0.009017 0.941550 0.069380
0.083362 0.942276 0.067253
0.153676 0.943003 0.065121
0.222271 0.943729 0.062983
0.289751 0.944455 0.060841
0.356405 0.945182 0.058692
0.422406 0.945908 0.056538
0.487866 0.946634 0.054377
0.552866 0.947361 0.052210
0.617465 0.948087 0.050036
0.681709 0.948813 0.047855
0.745636 0.949539 0.045667
0.809276 0.950266 0.043470
0.872652 0.950992 0.041265
0.935788 0.951718 0.039052
0.998699 0.952444 0.036828
1.000000 0.953170 0.034595
0.014416 1.000000 0.065199
0.088222 1.000000 0.063062
0.158385 1.000000 0.060920
0.226891 1.000000 0.058771
0.294307 1.000000 0.056617
0.360913 1.000000 0.054457
0.426874 1.000000 0.052290
0.492300 1.000000 0.050116
0.557271 1.000000 0.047936
0.621844 1.000000 0.045747
0.686066 1.000000 0.043551
0.749973 1.000000 0.041347
0.813593 1.000000 0.039133
0.876953 1.000000 0.036910
0.940073 1.000000 0.034677
1.000000 1.000000 0.032433
1.000000 1.000000 0.030178
0.000000 0.000000 0.216040
0.042181 0.000000 0.212625
0.113219 0.000000 0.209205
0.181804 0.000000 0.205782
0.249020 0.000000 0.202354
0.315281 0.000000 0.198921
0.380812 0.000000 0.195485
0.445751 0.000000 0.192043
0.510194 0.000000 0.188598
0.574211 0.000000 0.185147
0.637853 0.000000 0.181691
0.701162 0.000000 0.178231
0.764171 0.000000 0.174765
0.826908 0.000000 0.171295
0.889395 0.000000 0.167819
0.951652 0.000000 0.164337
1.000000 0.000000 0.160850
0.000000 0.049437 0.209331
0.045328 0.050432 0.205908
0.116210 0.051425 0.202480
0.184723 0.052419 0.199048
0.251890 0.053411 0.195611
0.318116 0.054403 0.192170
0.383619 0.055395 0.188724
0.448535 0.056386 0.185274
0.512959 0.057376 0.181819
0.576959 0.058366 0.178358
0.640586 0.059355 0.174893
0.703881 0.060344 0.171422
0.766878 0.061332 0.167947
0.829604 0.062320 0.164465
0.892080 0.063307 0.160979
0.954327 0.064294 0.157486
1.000000 0.065281 0.153988
0.000000 0.116889 0.202606
0.048463 0.117858 0.199174
0.119197 0.118826 0.195738
0.187639 0.119794 0.192297
0.254760 0.120762 0.188851
0.320951 0.121729 0.185401
0.386426 0.122696 0.181946
0.451319 0.123663 0.178486
0.515723 0.124630 0.175021
0.579706 0.125596 0.171550
0.643318 0.126563 0.168075
0.706600 0.127529 0.164594
0.769585 0.128495 0.161107
0.832299 0.129460 0.157615
0.894765 0.130426 0.154117
0.957003 0.131391 0.150612
1.000000 0.132356 0.147102
0.000000 0.183081 0.195864
0.051588 0.184036 0.192423
0.122181 0.184991 0.188978
0.190552 0.185946 0.185528
0.257627 0.186901 0.182073
0.323784 0.187855 0.178613
0.389231 0.188810 0.175148
0.454102 0.189764 0.171678
0.518487 0.190718 0.168203
0.582452 0.191672 0.164722
0.646049 0.192626 0.161235
0.709318 0.193579 0.157743
0.772290 0.194533 0.154245
0.834994 0.195486 0.150742
0.897450 0.196439 0.147231
0.959341 0.197157 0.144586
1.000000 0.197157 0.144586
0.000000 0.248524 0.189105
0.054703 0.249470 0.185655
0.125160 0.250416 0.182200
0.193464 0.251362 0.178740
0.260493 0.252308 0.175276
0.326615 0.253254 0.171806
0.392036 0.254199 0.168331
0.456884 0.255145 0.164850
0.521249 0.256090 0.161364
0.585198 0.257035 0.157872
0.648780 0.257981 0.154374
0.712035 0.258926 0.150871
0.774996 0.259871 0.147361
0.837399 0.260616 0.144586
0.898479 0.260616 0.144586
0.959341 0.260616 0.144586
1.000000 0.260616 0.144586
0.000000 0.313431 0.182327
0.057808 0.314371 0.178868
0.128136 0.315310 0.175403
0.196373 0.316249 0.171933
0.263357 0.317189 0.168458
0.329446 0.318128 0.164978
0.394839 0.319067 0.161492
0.459665 0.320006 0.158000
0.524011 0.320944 0.154503
0.587943 0.321883 0.151000
0.651510 0.322822 0.147490
0.714512 0.323597 0.144586
0.776083 0.323597 0.144586
0.837399 0.323597 0.144586
0.898479 0.323597 0.144586
0.959341 0.323597 0.144586
1.000000 0.323597 0.144586
0.000000 0.377923 0.175531
0.060905 0.378857 0.172061
0.131108 0.379791 0.168586
0.199279 0.380725 0.165106
0.266219 0.381658 0.161620
0.332275 0.382592 0.158129
0.397641 0.383526 0.154632
0.462445 0.384459 0.151129
0.526772 0.385393 0.147619
0.590495 0.386198 0.144586
0.652659 0.386198 0.144586
0.714512 0.386198 0.144586
0.776083 0.386198 0.144586
0.837399 0.386198 0.144586
0.898479 0.386198 0.144586
0.961054 0.386785 0.143005
1.000000 0.387532 0.140992
0.000000 0.442074 0.168714
0.063994 0.443003 0.165234
0.134076 0.443933 0.161749
0.202184 0.444862 0.158258
0.269080 0.445791 0.154760
0.335102 0.446721 0.151258
0.400443 0.447650 0.147748
0.465082 0.448486 0.144586
0.527985 0.448486 0.144586
0.590495 0.448486 0.144586
0.652659 0.448486 0.144586
0.714512 0.448486 0.144586
0.776083 0.448486 0.144586
0.839044 0.449043 0.143079
0.902305 0.449786 0.141067
0.965333 0.450529 0.139051
1.000000 0.451272 0.137034
0.000000 0.505937 0.161877
0.067074 0.506863 0.158386
0.137041 0.507788 0.154889
0.205086 0.508714 0.151386
0.271939 0.509639 0.147878
0.337837 0.510506 0.144586
0.401726 0.510506 0.144586
0.465082 0.510506 0.144586
0.527985 0.510506 0.144586
0.590495 0.510506 0.144586
0.652659 0.510506 0.144586
0.716089 0.511033 0.143153
0.779858 0.511774 0.141141
0.843353 0.512514 0.139126
0.906598 0.513254 0.137108
0.969611 0.513994 0.135089
1.000000 0.514734 0.133067
0.000000 0.569552 0.155018
0.070148 0.570474 0.151515
0.140003 0.571396 0.148007
0.207946 0.572294 0.144586
0.273302 0.572294 0.144586
0.337837 0.572294 0.144586
0.401726 0.572294 0.144586
0.465082 0.572294 0.144586
0.527985 0.572294 0.144586
0.592006 0.572792 0.143227
0.656386 0.573530 0.141215
0.720434 0.574267 0.139200
0.784184 0.575005 0.137183
0.847662 0.575742 0.135163
0.910890 0.576480 0.133142
0.973888 0.577217 0.131118
1.000000 0.577955 0.129091
0.000000 0.632947 0.148136
0.073214 0.633866 0.144621
0.141470 0.633875 0.144586
0.207946 0.633875 0.144586
0.273302 0.633875 0.144586
0.337837 0.633875 0.144586
0.401726 0.633875 0.144586
0.466528 0.634345 0.143301
0.531671 0.635080 0.141289
0.596395 0.635815 0.139274
0.660751 0.636551 0.137257
0.724778 0.637286 0.135238
0.788509 0.638021 0.133216
0.851969 0.638756 0.131192
0.915181 0.639492 0.129166
0.978164 0.640227 0.127137
1.000000 0.640962 0.125106
0.000000 0.695272 0.144586
0.073230 0.695272 0.144586
0.141470 0.695272 0.144586
0.207946 0.695272 0.144586
0.273302 0.695272 0.144586
0.339224 0.695713 0.143375
0.405381 0.696446 0.141363
0.470973 0.697180 0.139348
0.536085 0.697913 0.137331
0.600783 0.698646 0.135312
0.665115 0.699379 0.133291
0.729121 0.700112 0.131267
0.792832 0.700845 0.129241
0.856275 0.701578 0.127212
0.919471 0.702311 0.125181
0.982439 0.703044 0.123148
1.000000 0.703777 0.121112
0.000000 0.756501 0.144586
0.073230 0.756501 0.144586
0.141470 0.756501 0.144586
0.209282 0.756914 0.143449
0.276946 0.757646 0.141437
0.343743 0.758377 0.139422
0.409858 0.759108 0.137405
0.475415 0.759839 0.135386
0.540497 0.760571 0.133365
0.605168 0.761302 0.131341
0.669477 0.762033 0.129315
0.733462 0.762764 0.127287
0.797155 0.763495 0.125256
0.860580 0.764227 0.123223
0.923760 0.764958 0.121187
0.986713 0.765689 0.119148
1.000000 0.766420 0.117107
0.000000 0.817577 0.144586
0.074548 0.817963 0.143523
0.145153 0.818692 0.141511
0.213916 0.819422 0.139496
0.281513 0.820151 0.137480
0.348258 0.820881 0.135461
0.414333 0.821610 0.133439
0.479854 0.822340 0.131416
0.544907 0.823069 0.129390
0.609552 0.823799 0.127362
0.673838 0.824528 0.125331
0.737802 0.825257 0.123297
0.801476 0.825987 0.121262
0.864884 0.826716 0.119223
0.928047 0.827446 0.117182
0.990986 0.828175 0.115139
1.000000 0.828904 0.113092
0.004537 0.879598 0.141585
0.079435 0.880326 0.139571
0.149876 0.881054 0.137554
0.218545 0.881782 0.135535
0.286076 0.882510 0.133514
0.352771 0.883238 0.131490
0.418805 0.883966 0.129464
0.484292 0.884693 0.127436
0.549315 0.885421 0.125405
0.613935 0.886149 0.123372
0.678198 0.886877 0.121337
0.742141 0.887605 0.119298
0.805796 0.888332 0.117258
0.869186 0.889060 0.115214
0.932334 0.889788 0.113168
0.995258 0.890515 0.111119
1.000000 0.891243 0.109067
0.010076 0.941827 0.137628
0.084307 0.942553 0.135609
0.154591 0.943279 0.133588
0.223169 0.944006 0.131565
0.290636 0.944732 0.129539
0.357281 0.945459 0.127511
0.423274 0.946185 0.125480
0.488728 0.946911 0.123447
0.553722 0.947637 0.121412
0.618316 0.948364 0.119373
0.682556 0.949090 0.117333
0.746479 0.949816 0.115289
0.810114 0.950542 0.113243
0.873488 0.951269 0.111194
0.936620 0.951995 0.109142
0.999529 0.952721 0.107088
1.000000 0.953447 0.105030
0.015451 1.000000 0.133663
0.089164 1.000000 0.131639
0.159299 1.000000 0.129614
0.227787 1.000000 0.127585
0.295191 1.000000 0.125555
0.361788 1.000000 0.123522
0.427741 1.000000 0.121487
0.493161 1.000000 0.119448
0.558126 1.000000 0.117408
0.622695 1.000000 0.115364
0.686912 1.000000 0.113318
0.750815 1.000000 0.111270
0.814432 1.000000 0.109218
0.877788 1.000000 0.107163
0.940905 1.000000 0.105106
1.000000 1.000000 0.103045
1.000000 1.000000 0.100981
0.000000 0.000000 0.279327
0.042793 0.000000 0.275977
0.113800 0.000000 0.272625
0.182371 0.000000 0.269270
0.249577 0.000000 0.265911
0.315832 0.000000 0.262549
0.381357 0.000000 0.259184
0.446292 0.000000 0.255816
0.510731 0.000000 0.252444
0.574744 0.000000 0.249069
0.638384 0.000000 0.245690
0.701690 0.000000 0.242308
0.764697 0.000000 0.238922
0.827432 0.000000 0.235533
0.889917 0.000000 0.232140
0.952171 0.000000 0.228744
1.000000 0.000000 0.225343
0.000000 0.049816 0.272748
