assets/luts/teal_orange.cube
TITLE "Teal & Orange Cinema"
LUT_3D_SIZE 9
DOMAIN_MIN 0.0 0.0 0.0
DOMAIN_MAX 1.0 1.0 1.0
0.000000 0.000000 0.084322
0.112056 0.000000 0.076970
0.247904 0.000000 0.069564
0.379721 0.000000 0.062099
0.509120 0.000000 0.054565
0.636791 0.000000 0.046952
0.763120 0.000000 0.039244
0.888352 0.000000 0.031420
1.000000 0.000000 0.023445
0.000000 0.116151 0.069838
0.118038 0.118088 0.062375
0.253645 0.120024 0.054844
0.385336 0.121959 0.047234
0.514650 0.123893 0.039530
0.642257 0.125826 0.031710
0.768534 0.127758 0.023741
0.893723 0.129690 0.015561
1.000000 0.131620 0.007022
0.000000 0.247802 0.055122
0.124003 0.249695 0.047515
0.259380 0.251587 0.039815
0.390946 0.253478 0.032001
0.520176 0.255369 0.024038
0.647719 0.257260 0.015867
0.773945 0.259150 0.007346
0.898479 0.260616 0.000000
1.000000 0.260616 0.000000
0.000000 0.377211 0.040100
0.129954 0.379079 0.032290
0.265107 0.380946 0.024334
0.396553 0.382814 0.016172
0.525699 0.384681 0.007669
0.652659 0.386198 0.000000
0.776083 0.386198 0.000000
0.898479 0.386198 0.000000
1.000000 0.386962 0.000000
0.000000 0.505231 0.024630
0.135890 0.507083 0.016477
0.270829 0.508934 0.007992
0.401726 0.510506 0.000000
0.527985 0.510506 0.000000
0.652659 0.510506 0.000000
0.778177 0.511209 0.000000
0.904930 0.512690 0.000000
1.000000 0.514170 0.000000
0.000000 0.632246 0.008313
0.141470 0.633875 0.000000
0.273302 0.633875 0.000000
0.401726 0.633875 0.000000
0.529956 0.634519 0.000000
0.659056 0.635990 0.000000
0.786829 0.637461 0.000000
0.913514 0.638931 0.000000
1.000000 0.640401 0.000000
0.000000 0.756501 0.000000
0.141470 0.756501 0.000000
0.275171 0.757088 0.000000
0.408120 0.758551 0.000000
0.538783 0.760013 0.000000
0.667783 0.761476 0.000000
0.795476 0.762938 0.000000
0.922094 0.764400 0.000000
1.000000 0.765862 0.000000
0.002298 0.879043 0.000000
0.148042 0.880499 0.000000
0.284305 0.881955 0.000000
0.417068 0.883410 0.000000
0.547603 0.884866 0.000000
0.676505 0.886322 0.000000
0.804118 0.887777 0.000000
0.930669 0.889233 0.000000
1.000000 0.890688 0.000000
0.013377 1.000000 0.000000
0.157471 1.000000 0.000000
0.293422 1.000000 0.000000
0.426006 1.000000 0.000000
0.556416 1.000000 0.000000
0.685220 1.000000 0.000000
0.812755 1.000000 0.000000
0.939240 1.000000 0.000000
1.000000 1.000000 0.000000
0.000000 0.000000 0.216040
0.113219 0.000000 0.209205
0.249020 0.000000 0.202354
0.380812 0.000000 0.195485
0.510194 0.000000 0.188598
0.637853 0.000000 0.181691
0.764171 0.000000 0.174765
0.889395 0.000000 0.167819
1.000000 0.000000 0.160850
0.000000 0.116889 0.202606
0.119197 0.118826 0.195738
0.254760 0.120762 0.188851
0.386426 0.122696 0.181946
0.515723 0.124630 0.175021
0.643318 0.126563 0.168075
0.769585 0.128495 0.161107
0.894765 0.130426 0.154117
1.000000 0.132356 0.147102
0.000000 0.248524 0.189105
0.125160 0.250416 0.182200
0.260493 0.252308 0.175276
0.392036 0.254199 0.168331
0.521249 0.256090 0.161364
0.648780 0.257981 0.154374
0.774996 0.259871 0.147361
0.898479 0.260616 0.144586
1.000000 0.260616 0.144586
0.000000 0.377923 0.175531
0.131108 0.379791 0.168586
0.266219 0.381658 0.161620
0.397641 0.383526 0.154632
0.526772 0.385393 0.147619
0.652659 0.386198 0.144586
0.776083 0.386198 0.144586
0.898479 0.386198 0.144586
1.000000 0.387532 0.140992
0.000000 0.505937 0.161877
0.137041 0.507788 0.154889
0.271939 0.509639 0.147878
0.401726 0.510506 0.144586
0.527985 0.510506 0.144586
0.652659 0.510506 0.144586
0.779858 0.511774 0.141141
0.906598 0.513254 0.137108
1.000000 0.514734 0.133067
0.000000 0.632947 0.148136
0.141470 0.633875 0.144586
0.273302 0.633875 0.144586
0.401726 0.633875 0.144586
0.531671 0.635080 0.141289
0.660751 0.636551 0.137257
0.788509 0.638021 0.133216
0.915181 0.639492 0.129166
1.000000 0.640962 0.125106
0.000000 0.756501 0.144586
0.141470 0.756501 0.144586
0.276946 0.757646 0.141437
0.409858 0.759108 0.137405
0.540497 0.760571 0.133365
0.669477 0.762033 0.129315
0.797155 0.763495 0.125256
0.923760 0.764958 0.121187
1.000000 0.766420 0.117107
0.004537 0.879598 0.141585
0.149876 0.881054 0.137554
0.286076 0.882510 0.133514
0.418805 0.883966 0.129464
0.549315 0.885421 0.125405
0.678198 0.886877 0.121337
0.805796 0.888332 0.117258
0.932334 0.889788 0.113168
1.000000 0.891243 0.109067
0.015451 1.000000 0.133663
0.159299 1.000000 0.129614
0.295191 1.000000 0.125555
0.427741 1.000000 0.121487
0.558126 1.000000 0.117408
0.686912 1.000000 0.113318
0.814432 1.000000 0.109218
0.940905 1.000000 0.105106
1.000000 1.000000 0.100981
0.000000 0.000000 0.341543
0.114381 0.000000 0.334943
0.250135 0.000000 0.328333
0.381902 0.000000 0.321713
0.511268 0.000000 0.315083
0.638914 0.000000 0.308443
0.765223 0.000000 0.301791
0.890438 0.000000 0.295129
1.000000 0.000000 0.288455
0.000000 0.117628 0.328576
0.120357 0.119564 0.321957
0.255873 0.121499 0.315327
0.387516 0.123434 0.308687
0.516797 0.125367 0.302036
0.644379 0.127299 0.295374
0.770636 0.129231 0.288701
0.895808 0.131162 0.282016
1.000000 0.133046 0.275476
0.000000 0.249245 0.315571
0.126316 0.251137 0.308932
0.261605 0.253029 0.302281
0.393125 0.254920 0.295620
0.522322 0.256811 0.288947
0.649840 0.258701 0.282262
0.776046 0.260591 0.275566
0.898479 0.260616 0.275476
1.000000 0.260616 0.275476
0.000000 0.378635 0.302526
0.132261 0.380503 0.295865
0.267330 0.382370 0.289193
0.398729 0.384238 0.282508
0.527844 0.386105 0.275813
0.652659 0.386198 0.275476
0.776083 0.386198 0.275476
0.899679 0.386608 0.274426
1.000000 0.388101 0.270593
0.000000 0.506643 0.289438
0.138192 0.508494 0.282755
0.273049 0.510345 0.276059
0.401726 0.510506 0.275476
0.527985 0.510506 0.275476
0.653715 0.510858 0.274567
0.781538 0.512338 0.270734
0.908265 0.513819 0.266896
1.000000 0.515299 0.263055
0.000000 0.633647 0.276306
0.141470 0.633875 0.275476
0.273302 0.633875 0.275476
0.402642 0.634170 0.274708
0.533386 0.635641 0.270875
0.662446 0.637111 0.267038
0.790188 0.638582 0.263197
0.916847 0.640052 0.259351
1.000000 0.641522 0.255502
0.000000 0.756501 0.275476
0.142260 0.756741 0.274849
0.278721 0.758203 0.271016
0.411596 0.759666 0.267179
0.542210 0.761128 0.263338
0.671171 0.762591 0.259493
0.798833 0.764053 0.255643
0.925425 0.765515 0.251789
1.000000 0.766977 0.247931
0.006716 0.880153 0.271157
0.151708 0.881609 0.267320
0.287848 0.883065 0.263479
0.420541 0.884521 0.259634
0.551027 0.885976 0.255785
0.679891 0.887432 0.251931
0.807473 0.888887 0.248073
0.933999 0.890343 0.244210
1.000000 0.891798 0.240343
0.017510 1.000000 0.263621
0.161125 1.000000 0.259776
0.296960 1.000000 0.255927
0.429475 1.000000 0.252073
0.559836 1.000000 0.248215
0.688604 1.000000 0.244353
0.816108 1.000000 0.240485
0.942569 1.000000 0.236614
1.000000 1.000000 0.232737
0.000000 0.000000 0.463582
0.115543 0.000000 0.457134
0.251250 0.000000 0.450678
0.382993 0.000000 0.444216
0.512342 0.000000 0.437747
0.639976 0.000000 0.431270
0.766274 0.000000 0.424786
0.891481 0.000000 0.418295
1.000000 0.000000 0.411796
0.000000 0.118366 0.450916
0.121515 0.120302 0.444454
0.256987 0.122237 0.437985
0.388605 0.124171 0.431508
0.517870 0.126104 0.425025
0.645440 0.128036 0.418534
0.771687 0.129967 0.412035
0.896851 0.131898 0.405528
1.000000 0.133046 0.401651
0.000000 0.249967 0.438223
0.127472 0.251859 0.431747
0.262718 0.253750 0.425263
0.394213 0.255641 0.418772
0.523395 0.257532 0.412274
0.650901 0.259422 0.405768
0.776083 0.260616 0.401651
0.898479 0.260616 0.401651
1.000000 0.260616 0.401651
0.000000 0.379347 0.425502
0.133414 0.381215 0.419011
0.268441 0.383082 0.412513
0.399818 0.384950 0.406007
0.527985 0.386198 0.401651
0.652659 0.386198 0.401651
0.776083 0.386198 0.401651
0.901346 0.387177 0.399210
1.000000 0.388670 0.395484
0.000000 0.507349 0.412752
0.139342 0.509200 0.406247
0.273302 0.510506 0.401651
0.401726 0.510506 0.401651
0.527985 0.510506 0.401651
0.655411 0.511422 0.399347
0.783219 0.512903 0.395621
0.909932 0.514383 0.391893
1.000000 0.515863 0.388162
0.000000 0.633875 0.401651
0.141470 0.633875 0.401651
0.273302 0.633875 0.401651
0.404382 0.634731 0.399484
0.535100 0.636201 0.395759
0.664141 0.637672 0.392030
0.791867 0.639142 0.388299
0.918513 0.640613 0.384565
1.000000 0.642083 0.380829
0.000000 0.756501 0.401651
0.144098 0.757298 0.399621
0.280494 0.758761 0.395896
0.413334 0.760223 0.392167
0.543923 0.761686 0.388436
0.672865 0.763148 0.384703
0.800512 0.764611 0.380966
0.927091 0.766073 0.377227
1.000000 0.767535 0.373485
0.008858 0.880708 0.396033
0.153539 0.882164 0.392305
0.289619 0.883620 0.388574
0.422277 0.885076 0.384840
0.552738 0.886531 0.381104
0.681583 0.887987 0.377365
0.809151 0.889442 0.373623
0.935664 0.890897 0.369878
1.000000 0.892353 0.366131
0.019556 1.000000 0.388711
0.162951 1.000000 0.384978
0.298728 1.000000 0.381241
0.431209 1.000000 0.377502
0.561546 1.000000 0.373761
0.690295 1.000000 0.370016
0.817785 1.000000 0.366269
0.944232 1.000000 0.362519
1.000000 1.000000 0.358765
0.000000 0.000000 0.583221
0.116704 0.000000 0.576883
0.252365 0.000000 0.570541
0.384083 0.000000 0.564193
0.513416 0.000000 0.557840
0.641037 0.000000 0.551481
0.767326 0.000000 0.545117
0.892524 0.000000 0.538747
1.000000 0.000000 0.532371
0.000000 0.119104 0.570774
0.122673 0.121040 0.564427
0.258101 0.122974 0.558073
0.389695 0.124908 0.551715
0.518943 0.126841 0.545351
0.646500 0.128772 0.538981
0.772738 0.130703 0.532606
0.897893 0.132633 0.526225
1.000000 0.133046 0.524858
0.000000 0.250688 0.558307
0.128627 0.252580 0.551949
0.263830 0.254471 0.545585
0.395302 0.256362 0.539216
0.524467 0.258252 0.532841
0.651961 0.260142 0.526460
0.776083 0.260616 0.524858
0.898479 0.260616 0.524858
1.000000 0.260728 0.524590
0.000000 0.380059 0.545819
0.134567 0.381927 0.539450
0.269552 0.383794 0.533075
0.400905 0.385661 0.526695
0.527985 0.386198 0.524858
0.652659 0.386198 0.524858
0.776246 0.386253 0.524724
0.903014 0.387747 0.521074
1.000000 0.389240 0.517423
0.000000 0.508055 0.533310
0.140492 0.509906 0.526929
0.273302 0.510506 0.524858
0.401726 0.510506 0.524858
0.527985 0.510506 0.524858
0.657107 0.511987 0.521209
0.784899 0.513467 0.517557
0.911599 0.514947 0.513904
1.000000 0.516427 0.510248
0.000000 0.633875 0.524858
0.141470 0.633875 0.524858
0.273302 0.633875 0.524858
0.406121 0.635292 0.521343
0.536814 0.636762 0.517692
0.665836 0.638233 0.514038
0.793547 0.639703 0.510383
0.920180 0.641173 0.506725
1.000000 0.642643 0.503066
0.000000 0.756501 0.524858
0.145934 0.757856 0.521477
0.282268 0.759319 0.517826
0.415072 0.760781 0.514173
0.545636 0.762243 0.510517
0.674559 0.763706 0.506860
0.802190 0.765168 0.503201
0.928756 0.766630 0.499539
1.000000 0.768092 0.495876
0.010973 0.881263 0.517960
0.155369 0.882719 0.514307
0.291389 0.884175 0.510652
0.424012 0.885631 0.506994
0.554450 0.887086 0.503335
0.683276 0.888542 0.499674
0.810828 0.889997 0.496011
0.937328 0.891452 0.492346
1.000000 0.892908 0.488678
0.021591 1.000000 0.510786
0.164775 1.000000 0.507129
0.300495 1.000000 0.503470
0.432943 1.000000 0.499809
0.563256 1.000000 0.496146
0.691987 1.000000 0.492480
0.819461 1.000000 0.488813
0.945896 1.000000 0.485144
1.000000 1.000000 0.481473
0.000000 0.000000 0.701026
0.117865 0.000000 0.694776
0.253479 0.000000 0.688522
0.385173 0.000000 0.682264
0.514490 0.000000 0.676001
0.642098 0.000000 0.669734
0.768377 0.000000 0.663463
0.893567 0.000000 0.657187
1.000000 0.000000 0.650907
0.000000 0.119842 0.688752
0.123831 0.121778 0.682494
0.259214 0.123712 0.676232
0.390784 0.125645 0.669965
0.520016 0.127577 0.663694
0.647561 0.129509 0.657418
0.773788 0.131439 0.651138
0.898479 0.133046 0.645905
1.000000 0.133046 0.645905
0.000000 0.251410 0.676462
0.129782 0.253301 0.670196
0.264942 0.255192 0.663925
0.396391 0.257083 0.657649
0.525540 0.258973 0.651369
0.652659 0.260616 0.645905
0.776083 0.260616 0.645905
0.898479 0.260616 0.645905
1.000000 0.261304 0.644271
0.000000 0.380771 0.664155
0.135718 0.382639 0.657880
0.270663 0.384506 0.651600
0.401726 0.386198 0.645905
0.527985 0.386198 0.645905
0.652659 0.386198 0.645905
0.777926 0.386823 0.644403
0.904682 0.388316 0.640809
1.000000 0.389809 0.637214
0.000000 0.508760 0.651831
0.141470 0.510506 0.645905
0.273302 0.510506 0.645905
0.401726 0.510506 0.645905
0.529700 0.511071 0.644535
0.658803 0.512551 0.640942
0.786578 0.514031 0.637347
0.913266 0.515512 0.633750
1.000000 0.516992 0.630152
0.000000 0.633875 0.645905
0.141470 0.633875 0.645905
0.274907 0.634382 0.644667
0.407860 0.635852 0.641074
0.538528 0.637323 0.637479
0.667531 0.638793 0.633882
0.795226 0.640264 0.630284
0.921845 0.641734 0.626685
1.000000 0.643204 0.623084
0.001957 0.756951 0.644799
0.147769 0.758414 0.641206
0.284040 0.759876 0.637611
0.416809 0.761339 0.634015
0.547348 0.762801 0.630417
0.676252 0.764263 0.626817
0.803868 0.765726 0.623216
0.930421 0.767188 0.619614
1.000000 0.768650 0.616009
0.013067 0.881818 0.637743
0.157198 0.883274 0.634147
0.293159 0.884730 0.630549
0.425747 0.886185 0.626950
0.556160 0.887641 0.623349
0.684968 0.889096 0.619746
0.812505 0.890552 0.616142
0.938992 0.892007 0.612536
1.000000 0.893462 0.608929
0.023616 1.000000 0.630682
0.166598 1.000000 0.627082
0.302262 1.000000 0.623481
0.434676 1.000000 0.619879
0.564966 1.000000 0.616275
0.693678 1.000000 0.612669
0.821137 1.000000 0.609062
0.947560 1.000000 0.605453
1.000000 1.000000 0.601842
0.000000 0.000000 0.817352
0.119025 0.000000 0.811174
0.254593 0.000000 0.804993
0.386263 0.000000 0.798808
0.515563 0.000000 0.792620
0.643159 0.000000 0.786428
0.769428 0.000000 0.780232
0.894610 0.000000 0.774033
1.000000 0.000000 0.767830
0.000000 0.120580 0.805220
0.124988 0.122515 0.799036
0.260327 0.124449 0.792848
0.391873 0.126382 0.786656
0.521089 0.128314 0.780460
0.648622 0.130245 0.774261
0.774839 0.132175 0.768058
0.898479 0.133046 0.765256
1.000000 0.133046 0.765256
0.000000 0.252131 0.793075
0.130936 0.254022 0.786884
0.266053 0.255913 0.780688
0.397479 0.257804 0.774489
0.526612 0.259694 0.768287
0.652659 0.260616 0.765256
0.776083 0.260616 0.765256
0.898479 0.260616 0.765256
1.000000 0.261880 0.762291
0.000000 0.381484 0.780916
0.136870 0.383351 0.774717
0.271773 0.385218 0.768515
0.401726 0.386198 0.765256
0.527985 0.386198 0.765256
0.652659 0.386198 0.765256
0.779607 0.387392 0.762421
0.906349 0.388885 0.758873
1.000000 0.390378 0.755323
0.000000 0.509466 0.768743
0.141470 0.510506 0.765256
0.273302 0.510506 0.765256
0.401726 0.510506 0.765256
0.531415 0.511635 0.762552
0.660498 0.513116 0.759003
0.788258 0.514596 0.755454
0.914932 0.516076 0.751903
1.000000 0.517556 0.748352
0.000000 0.633875 0.765256
0.141470 0.633875 0.765256
0.276682 0.634942 0.762682
0.409599 0.636413 0.759134
0.540241 0.637883 0.755585
0.669225 0.639354 0.752034
0.796904 0.640824 0.748482
0.923511 0.642294 0.744929
1.000000 0.643764 0.741375
0.004208 0.757509 0.762813
0.149602 0.758971 0.759265
0.285812 0.760434 0.755715
0.418546 0.761896 0.752165
0.549060 0.763359 0.748613
0.677945 0.764821 0.745060
0.805545 0.766283 0.741505
0.932086 0.767745 0.737950
1.000000 0.769207 0.734393
0.015142 0.882373 0.755846
0.159026 0.883829 0.752295
0.294928 0.885285 0.748744
0.427482 0.886740 0.745191
0.557871 0.888196 0.741636
0.686660 0.889651 0.738081
0.814182 0.891107 0.734524
0.940656 0.892562 0.730966
1.000000 0.894017 0.727406
0.025631 1.000000 0.748874
0.168421 1.000000 0.745321
0.304028 1.000000 0.741767
0.436409 1.000000 0.738211
0.566675 1.000000 0.734655
0.695368 1.000000 0.731096
0.822813 1.000000 0.727537
0.949223 1.000000 0.723976
1.000000 1.000000 0.720414
0.000000 0.000000 0.932440
0.120184 0.000000 0.926324
0.255707 0.000000 0.920204
0.387353 0.000000 0.914082
0.516637 0.000000 0.907956
0.644220 0.000000 0.901828
0.770479 0.000000 0.895696
0.895653 0.000000 0.889561
1.000000 0.000000 0.883422
0.000000 0.121318 0.920430
0.126144 0.123252 0.914307
0.261439 0.125186 0.908182
0.392962 0.127119 0.902053
0.522162 0.129050 0.895921
0.649682 0.130981 0.889786
0.775890 0.132911 0.883648
0.898479 0.133046 0.883217
1.000000 0.133046 0.883217
0.000000 0.252852 0.908407
0.132089 0.254743 0.902279
0.267165 0.256634 0.896147
0.398567 0.258524 0.890012
0.527684 0.260414 0.883874
0.652659 0.260616 0.883217
0.776083 0.260616 0.883217
0.899430 0.260945 0.882454
1.000000 0.262457 0.878945
0.000000 0.382196 0.896373
0.138021 0.384063 0.890238
0.272884 0.385930 0.884100
0.401726 0.386198 0.883217
0.527985 0.386198 0.883217
0.653462 0.386468 0.882583
0.781288 0.387961 0.879074
0.908016 0.389454 0.875564
1.000000 0.390947 0.872053
0.000000 0.510172 0.884326
0.141470 0.510506 0.883217
0.273302 0.510506 0.883217
0.402382 0.510719 0.882713
0.533130 0.512200 0.879203
0.662194 0.513680 0.875693
0.789938 0.515160 0.872182
0.916599 0.516640 0.868669
1.000000 0.518120 0.865156
0.000000 0.633875 0.883217
0.141986 0.634032 0.882842
0.278456 0.635503 0.879332
0.411337 0.636974 0.875822
0.541955 0.638444 0.872311
0.670919 0.639914 0.868799
0.798583 0.641385 0.865285
0.925177 0.642855 0.861771
1.000000 0.644325 0.858255
0.006394 0.758066 0.879462
0.151435 0.759529 0.875951
0.287584 0.760991 0.872440
0.420282 0.762454 0.868928
0.550772 0.763916 0.865415
0.679638 0.765378 0.861900
0.807223 0.766840 0.858385
0.933751 0.768303 0.854868
1.000000 0.769764 0.851350
0.017203 0.882928 0.872569
0.160853 0.884384 0.869057
0.296696 0.885840 0.865544
0.429217 0.887295 0.862029
0.559581 0.888751 0.858514
0.688352 0.890206 0.854997
0.815858 0.891662 0.851480
0.942320 0.893117 0.847961
1.000000 0.894572 0.844441
0.027639 1.000000 0.865673
0.170242 1.000000 0.862159
0.305794 1.000000 0.858643
0.438141 1.000000 0.855127
0.568384 1.000000 0.851609
0.697059 1.000000 0.848090
0.824489 1.000000 0.844571
0.950886 1.000000 0.841050
1.000000 1.000000 0.837528
0.000000 0.000000 1.000000
0.121342 0.000000 1.000000
0.256821 0.000000 1.000000
0.388443 0.000000 1.000000
0.517710 0.000000 1.000000
0.645281 0.000000 1.000000
0.771530 0.000000 1.000000
0.896695 0.000000 1.000000
1.000000 0.000000 1.000000
0.000000 0.122056 1.000000
0.127300 0.123990 1.000000
0.262552 0.125923 1.000000
0.394051 0.127855 1.000000
0.523235 0.129786 1.000000
0.650743 0.131717 1.000000
0.776083 0.133046 1.000000
0.898479 0.133046 1.000000
1.000000 0.133046 1.000000
0.000000 0.253573 1.000000
0.133242 0.255464 1.000000
0.268276 0.257355 1.000000
0.399655 0.259245 1.000000
0.527985 0.260616 1.000000
0.652659 0.260616 1.000000
0.776083 0.260616 1.000000
0.901098 0.261521 0.997919
1.000000 0.263033 0.994442
0.000000 0.382907 1.000000
0.139171 0.384775 1.000000
0.273302 0.386198 1.000000
0.401726 0.386198 1.000000
0.527985 0.386198 1.000000
0.655158 0.387037 0.998047
0.782968 0.388531 0.994570
0.909684 0.390024 0.991092
1.000000 0.391517 0.987614
0.000000 0.510506 1.000000
0.141470 0.510506 1.000000
0.273302 0.510506 1.000000
0.404122 0.511283 0.998175
0.534844 0.512764 0.994698
0.663889 0.514244 0.991220
0.791617 0.515725 0.987742
0.918265 0.517205 0.984262
1.000000 0.518685 0.980782
0.000000 0.633875 1.000000
0.143824 0.634593 0.998303
0.280230 0.636064 0.994826
0.413075 0.637534 0.991348
0.543668 0.639005 0.987870
0.672613 0.640475 0.984390
0.800261 0.641945 0.980910
0.926842 0.643415 0.977428
1.000000 0.644885 0.973946
0.008541 0.758624 0.994954
0.153266 0.760086 0.991476
0.289355 0.761549 0.987998
0.422018 0.763011 0.984518
0.552483 0.764474 0.981038
0.681331 0.765936 0.977556
0.808900 0.767398 0.974074
0.935415 0.768860 0.970591
1.000000 0.770322 0.967107
0.019251 0.883484 0.988126
0.162679 0.884939 0.984646
0.298464 0.886395 0.981166
0.430951 0.887850 0.977684
0.561291 0.889306 0.974202
0.690043 0.890761 0.970719
0.817535 0.892216 0.967235
0.943984 0.893672 0.963750
1.000000 0.895127 0.960264
0.029639 1.000000 0.981294
0.172062 1.000000 0.977812
0.307559 1.000000 0.974330
0.439874 1.000000 0.970847
0.570092 1.000000 0.967363
0.698750 1.000000 0.963878
0.826164 1.000000 0.960392
0.952549 1.000000 0.956905
1.000000 1.000000 0.953417
