assets/luts/teal_orange.cube
TITLE "Teal & Orange Cinema"
LUT_3D_SIZE 5
DOMAIN_MIN 0.0 0.0 0.0
DOMAIN_MAX 1.0 1.0 1.0
0.000000 0.000000 0.084322
0.247904 0.000000 0.069564
0.509120 0.000000 0.054565
0.763120 0.000000 0.039244
1.000000 0.000000 0.023445
0.000000 0.247802 0.055122
0.259380 0.251587 0.039815
0.520176 0.255369 0.024038
0.773945 0.259150 0.007346
1.000000 0.260616 0.000000
0.000000 0.505231 0.024630
0.270829 0.508934 0.007992
0.527985 0.510506 0.000000
0.778177 0.511209 0.000000
1.000000 0.514170 0.000000
0.000000 0.756501 0.000000
0.275171 0.757088 0.000000
0.538783 0.760013 0.000000
0.795476 0.762938 0.000000
1.000000 0.765862 0.000000
0.013377 1.000000 0.000000
0.293422 1.000000 0.000000
0.556416 1.000000 0.000000
0.812755 1.000000 0.000000
1.000000 1.000000 0.000000
0.000000 0.000000 0.341543
0.250135 0.000000 0.328333
0.511268 0.000000 0.315083
0.765223 0.000000 0.301791
1.000000 0.000000 0.288455
0.000000 0.249245 0.315571
0.261605 0.253029 0.302281
0.522322 0.256811 0.288947
0.776046 0.260591 0.275566
1.000000 0.260616 0.275476
0.000000 0.506643 0.289438
0.273049 0.510345 0.276059
0.527985 0.510506 0.275476
0.781538 0.512338 0.270734
1.000000 0.515299 0.263055
0.000000 0.756501 0.275476
0.278721 0.758203 0.271016
0.542210 0.761128 0.263338
0.798833 0.764053 0.255643
1.000000 0.766977 0.247931
0.017510 1.000000 0.263621
0.296960 1.000000 0.255927
0.559836 1.000000 0.248215
0.816108 1.000000 0.240485
1.000000 1.000000 0.232737
0.000000 0.000000 0.583221
0.252365 0.000000 0.570541
0.513416 0.000000 0.557840
0.767326 0.000000 0.545117
1.000000 0.000000 0.532371
0.000000 0.250688 0.558307
0.263830 0.254471 0.545585
0.524467 0.258252 0.532841
0.776083 0.260616 0.524858
1.000000 0.260728 0.524590
0.000000 0.508055 0.533310
0.273302 0.510506 0.524858
0.527985 0.510506 0.524858
0.784899 0.513467 0.517557
1.000000 0.516427 0.510248
0.000000 0.756501 0.524858
0.282268 0.759319 0.517826
0.545636 0.762243 0.510517
0.802190 0.765168 0.503201
1.000000 0.768092 0.495876
0.021591 1.000000 0.510786
0.300495 1.000000 0.503470
0.563256 1.000000 0.496146
0.819461 1.000000 0.488813
1.000000 1.000000 0.481473
0.000000 0.000000 0.817352
0.254593 0.000000 0.804993
0.515563 0.000000 0.792620
0.769428 0.000000 0.780232
1.000000 0.000000 0.767830
0.000000 0.252131 0.793075
0.266053 0.255913 0.780688
0.526612 0.259694 0.768287
0.776083 0.260616 0.765256
1.000000 0.261880 0.762291
0.000000 0.509466 0.768743
0.273302 0.510506 0.765256
0.531415 0.511635 0.762552
0.788258 0.514596 0.755454
1.000000 0.517556 0.748352
0.004208 0.757509 0.762813
0.285812 0.760434 0.755715
0.549060 0.763359 0.748613
0.805545 0.766283 0.741505
1.000000 0.769207 0.734393
0.025631 1.000000 0.748874
0.304028 1.000000 0.741767
0.566675 1.000000 0.734655
0.822813 1.000000 0.727537
1.000000 1.000000 0.720414
0.000000 0.000000 1.000000
0.256821 0.000000 1.000000
0.517710 0.000000 1.000000
0.771530 0.000000 1.000000
1.000000 0.000000 1.000000
0.000000 0.253573 1.000000
0.268276 0.257355 1.000000
0.527985 0.260616 1.000000
0.776083 0.260616 1.000000
1.000000 0.263033 0.994442
0.000000 0.510506 1.000000
0.273302 0.510506 1.000000
0.534844 0.512764 0.994698
0.791617 0.515725 0.987742
1.000000 0.518685 0.980782
0.008541 0.758624 0.994954
0.289355 0.761549 0.987998
0.552483 0.764474 0.981038
0.808900 0.767398 0.974074
1.000000 0.770322 0.967107
0.029639 1.000000 0.981294
0.307559 1.000000 0.974330
0.570092 1.000000 0.967363
0.826164 1.000000 0.960392
1.000000 1.000000 0.953417
