assets/luts/warm_vintage.cube
TITLE "Warm Vintage"
LUT_3D_SIZE 17
DOMAIN_MIN 0.0 0.0 0.0
DOMAIN_MAX 1.0 1.0 1.0
0.024800 0.038000 0.051200
0.092057 0.038000 0.051200
0.159314 0.038000 0.051200
0.226571 0.038000 0.051200
0.293828 0.038000 0.051200
0.361085 0.038000 0.051200
0.428342 0.038000 0.051200
0.495599 0.038000 0.051200
0.562856 0.038000 0.051200
0.630113 0.038000 0.051200
0.697370 0.038000 0.051200
0.764627 0.038000 0.051200
0.831884 0.038000 0.051200
0.899141 0.038000 0.051200
0.966398 0.038000 0.051200
0.996800 0.038000 0.051200
0.996800 0.038000 0.051200
0.024800 0.100304 0.051200
0.092057 0.100304 0.051200
0.159314 0.100304 0.051200
0.226571 0.100304 0.051200
0.293828 0.100304 0.051200
0.361085 0.100304 0.051200
0.428342 0.100304 0.051200
0.495599 0.100304 0.051200
0.562856 0.100304 0.051200
0.630113 0.100304 0.051200
0.697370 0.100304 0.051200
0.764627 0.100304 0.051200
0.831884 0.100304 0.051200
0.899141 0.100304 0.051200
0.966398 0.100304 0.051200
0.996800 0.100304 0.051200
0.996800 0.100304 0.051200
0.024800 0.162609 0.051200
0.092057 0.162609 0.051200
0.159314 0.162609 0.051200
0.226571 0.162609 0.051200
0.293828 0.162609 0.051200
0.361085 0.162609 0.051200
0.428342 0.162609 0.051200
0.495599 0.162609 0.051200
0.562856 0.162609 0.051200
0.630113 0.162609 0.051200
0.697370 0.162609 0.051200
0.764627 0.162609 0.051200
0.831884 0.162609 0.051200
0.899141 0.162609 0.051200
0.966398 0.162609 0.051200
0.996800 0.162609 0.051200
0.996800 0.162609 0.051200
0.024800 0.224913 0.051200
0.092057 0.224913 0.051200
0.159314 0.224913 0.051200
0.226571 0.224913 0.051200
0.293828 0.224913 0.051200
0.361085 0.224913 0.051200
0.428342 0.224913 0.051200
0.495599 0.224913 0.051200
0.562856 0.224913 0.051200
0.630113 0.224913 0.051200
0.697370 0.224913 0.051200
0.764627 0.224913 0.051200
0.831884 0.224913 0.051200
0.899141 0.224913 0.051200
0.966398 0.224913 0.051200
0.996800 0.224913 0.051200
0.996800 0.224913 0.051200
0.024800 0.287218 0.051200
0.092057 0.287218 0.051200
0.159314 0.287218 0.051200
0.226571 0.287218 0.051200
0.293828 0.287218 0.051200
0.361085 0.287218 0.051200
0.428342 0.287218 0.051200
0.495599 0.287218 0.051200
0.562856 0.287218 0.051200
0.630113 0.287218 0.051200
0.697370 0.287218 0.051200
0.764627 0.287218 0.051200
0.831884 0.287218 0.051200
0.899141 0.287218 0.051200
0.966398 0.287218 0.051200
0.996800 0.287218 0.051200
0.996800 0.287218 0.051200
0.024800 0.349522 0.051200
0.092057 0.349522 0.051200
0.159314 0.349522 0.051200
0.226571 0.349522 0.051200
0.293828 0.349522 0.051200
0.361085 0.349522 0.051200
0.428342 0.349522 0.051200
0.495599 0.349522 0.051200
0.562856 0.349522 0.051200
0.630113 0.349522 0.051200
0.697370 0.349522 0.051200
0.764627 0.349522 0.051200
0.831884 0.349522 0.051200
0.899141 0.349522 0.051200
0.966398 0.349522 0.051200
0.996800 0.349522 0.051200
0.996800 0.349522 0.051200
0.024800 0.411826 0.051200
0.092057 0.411826 0.051200
0.159314 0.411826 0.051200
0.226571 0.411826 0.051200
0.293828 0.411826 0.051200
0.361085 0.411826 0.051200
0.428342 0.411826 0.051200
0.495599 0.411826 0.051200
0.562856 0.411826 0.051200
0.630113 0.411826 0.051200
0.697370 0.411826 0.051200
0.764627 0.411826 0.051200
0.831884 0.411826 0.051200
0.899141 0.411826 0.051200
0.966398 0.411826 0.051200
0.996800 0.411826 0.051200
0.996800 0.411826 0.051200
0.024800 0.474131 0.051200
0.092057 0.474131 0.051200
0.159314 0.474131 0.051200
0.226571 0.474131 0.051200
0.293828 0.474131 0.051200
0.361085 0.474131 0.051200
0.428342 0.474131 0.051200
0.495599 0.474131 0.051200
0.562856 0.474131 0.051200
0.630113 0.474131 0.051200
0.697370 0.474131 0.051200
0.764627 0.474131 0.051200
0.831884 0.474131 0.051200
0.899141 0.474131 0.051200
0.966398 0.474131 0.051200
0.996800 0.474131 0.051200
0.996800 0.474131 0.051200
0.024800 0.536435 0.051200
0.092057 0.536435 0.051200
0.159314 0.536435 0.051200
0.226571 0.536435 0.051200
0.293828 0.536435 0.051200
0.361085 0.536435 0.051200
0.428342 0.536435 0.051200
0.495599 0.536435 0.051200
0.562856 0.536435 0.051200
0.630113 0.536435 0.051200
0.697370 0.536435 0.051200
0.764627 0.536435 0.051200
0.831884 0.536435 0.051200
0.899141 0.536435 0.051200
0.966398 0.536435 0.051200
0.996800 0.536435 0.051200
0.996800 0.536435 0.051200
0.024800 0.598739 0.051200
0.092057 0.598739 0.051200
0.159314 0.598739 0.051200
0.226571 0.598739 0.051200
0.293828 0.598739 0.051200
0.361085 0.598739 0.051200
0.428342 0.598739 0.051200
0.495599 0.598739 0.051200
0.562856 0.598739 0.051200
0.630113 0.598739 0.051200
0.697370 0.598739 0.051200
0.764627 0.598739 0.051200
0.831884 0.598739 0.051200
0.899141 0.598739 0.051200
0.966398 0.598739 0.051200
0.996800 0.598739 0.051200
0.996800 0.598739 0.051200
0.024800 0.661044 0.051200
0.092057 0.661044 0.051200
0.159314 0.661044 0.051200
0.226571 0.661044 0.051200
0.293828 0.661044 0.051200
0.361085 0.661044 0.051200
0.428342 0.661044 0.051200
0.495599 0.661044 0.051200
0.562856 0.661044 0.051200
0.630113 0.661044 0.051200
0.697370 0.661044 0.051200
0.764627 0.661044 0.051200
0.831884 0.661044 0.051200
0.899141 0.661044 0.051200
0.966398 0.661044 0.051200
0.996800 0.661044 0.051200
0.996800 0.661044 0.051200
0.024800 0.723348 0.051200
0.092057 0.723348 0.051200
0.159314 0.723348 0.051200
0.226571 0.723348 0.051200
0.293828 0.723348 0.051200
0.361085 0.723348 0.051200
0.428342 0.723348 0.051200
0.495599 0.723348 0.051200
0.562856 0.723348 0.051200
0.630113 0.723348 0.051200
0.697370 0.723348 0.051200
0.764627 0.723348 0.051200
0.831884 0.723348 0.051200
0.899141 0.723348 0.051200
0.966398 0.723348 0.051200
0.996800 0.723348 0.051200
0.996800 0.723348 0.051200
0.024800 0.785653 0.051200
0.092057 0.785653 0.051200
0.159314 0.785653 0.051200
0.226571 0.785653 0.051200
0.293828 0.785653 0.051200
0.361085 0.785653 0.051200
0.428342 0.785653 0.051200
0.495599 0.785653 0.051200
0.562856 0.785653 0.051200
0.630113 0.785653 0.051200
0.697370 0.785653 0.051200
0.764627 0.785653 0.051200
0.831884 0.785653 0.051200
0.899141 0.785653 0.051200
0.966398 0.785653 0.051200
0.996800 0.785653 0.051200
0.996800 0.785653 0.051200
0.024800 0.847957 0.051200
0.092057 0.847957 0.051200
0.159314 0.847957 0.051200
0.226571 0.847957 0.051200
0.293828 0.847957 0.051200
0.361085 0.847957 0.051200
0.428342 0.847957 0.051200
0.495599 0.847957 0.051200
0.562856 0.847957 0.051200
0.630113 0.847957 0.051200
0.697370 0.847957 0.051200
0.764627 0.847957 0.051200
0.831884 0.847957 0.051200
0.899141 0.847957 0.051200
0.966398 0.847957 0.051200
0.996800 0.847957 0.051200
0.996800 0.847957 0.051200
0.024800 0.910261 0.051200
0.092057 0.910261 0.051200
0.159314 0.910261 0.051200
0.226571 0.910261 0.051200
0.293828 0.910261 0.051200
0.361085 0.910261 0.051200
0.428342 0.910261 0.051200
0.495599 0.910261 0.051200
0.562856 0.910261 0.051200
0.630113 0.910261 0.051200
0.697370 0.910261 0.051200
0.764627 0.910261 0.051200
0.831884 0.910261 0.051200
0.899141 0.910261 0.051200
0.966398 0.910261 0.051200
0.996800 0.910261 0.051200
0.996800 0.910261 0.051200
0.024800 0.962000 0.051200
0.092057 0.962000 0.051200
0.159314 0.962000 0.051200
0.226571 0.962000 0.051200
0.293828 0.962000 0.051200
0.361085 0.962000 0.051200
0.428342 0.962000 0.051200
0.495599 0.962000 0.051200
0.562856 0.962000 0.051200
0.630113 0.962000 0.051200
0.697370 0.962000 0.051200
0.764627 0.962000 0.051200
0.831884 0.962000 0.051200
0.899141 0.962000 0.051200
0.966398 0.962000 0.051200
0.996800 0.962000 0.051200
0.996800 0.962000 0.051200
0.024800 0.962000 0.051200
0.092057 0.962000 0.051200
0.159314 0.962000 0.051200
0.226571 0.962000 0.051200
0.293828 0.962000 0.051200
0.361085 0.962000 0.051200
0.428342 0.962000 0.051200
0.495599 0.962000 0.051200
0.562856 0.962000 0.051200
0.630113 0.962000 0.051200
0.697370 0.962000 0.051200
0.764627 0.962000 0.051200
0.831884 0.962000 0.051200
0.899141 0.962000 0.051200
0.966398 0.962000 0.051200
0.996800 0.962000 0.051200
0.996800 0.962000 0.051200
0.024800 0.038000 0.103934
0.092057 0.038000 0.103934
0.159314 0.038000 0.103934
0.226571 0.038000 0.103934
0.293828 0.038000 0.103934
0.361085 0.038000 0.103934
0.428342 0.038000 0.103934
0.495599 0.038000 0.103934
0.562856 0.038000 0.103934
0.630113 0.038000 0.103934
0.697370 0.038000 0.103934
0.764627 0.038000 0.103934
0.831884 0.038000 0.103934
0.899141 0.038000 0.103934
0.966398 0.038000 0.103934
0.996800 0.038000 0.103934
0.996800 0.038000 0.103934
0.024800 0.100304 0.103934
0.092057 0.100304 0.103934
0.159314 0.100304 0.103934
0.226571 0.100304 0.103934
0.293828 0.100304 0.103934
0.361085 0.100304 0.103934
0.428342 0.100304 0.103934
0.495599 0.100304 0.103934
0.562856 0.100304 0.103934
0.630113 0.100304 0.103934
0.697370 0.100304 0.103934
0.764627 0.100304 0.103934
0.831884 0.100304 0.103934
0.899141 0.100304 0.103934
0.966398 0.100304 0.103934
0.996800 0.100304 0.103934
0.996800 0.100304 0.103934
0.024800 0.162609 0.103934
0.092057 0.162609 0.103934
0.159314 0.162609 0.103934
0.226571 0.162609 0.103934
0.293828 0.162609 0.103934
0.361085 0.162609 0.103934
0.428342 0.162609 0.103934
0.495599 0.162609 0.103934
0.562856 0.162609 0.103934
0.630113 0.162609 0.103934
0.697370 0.162609 0.103934
0.764627 0.162609 0.103934
0.831884 0.162609 0.103934
0.899141 0.162609 0.103934
0.966398 0.162609 0.103934
0.996800 0.162609 0.103934
0.996800 0.162609 0.103934
0.024800 0.224913 0.103934
0.092057 0.224913 0.103934
0.159314 0.224913 0.103934
0.226571 0.224913 0.103934
0.293828 0.224913 0.103934
0.361085 0.224913 0.103934
0.428342 0.224913 0.103934
0.495599 0.224913 0.103934
0.562856 0.224913 0.103934
0.630113 0.224913 0.103934
0.697370 0.224913 0.103934
0.764627 0.224913 0.103934
0.831884 0.224913 0.103934
0.899141 0.224913 0.103934
0.966398 0.224913 0.103934
0.996800 0.224913 0.103934
0.996800 0.224913 0.103934
0.024800 0.287218 0.103934
0.092057 0.287218 0.103934
0.159314 0.287218 0.103934
0.226571 0.287218 0.103934
0.293828 0.287218 0.103934
0.361085 0.287218 0.103934
0.428342 0.287218 0.103934
0.495599 0.287218 0.103934
0.562856 0.287218 0.103934
0.630113 0.287218 0.103934
0.697370 0.287218 0.103934
0.764627 0.287218 0.103934
0.831884 0.287218 0.103934
0.899141 0.287218 0.103934
0.966398 0.287218 0.103934
0.996800 0.287218 0.103934
0.996800 0.287218 0.103934
0.024800 0.349522 0.103934
0.092057 0.349522 0.103934
0.159314 0.349522 0.103934
0.226571 0.349522 0.103934
0.293828 0.349522 0.103934
0.361085 0.349522 0.103934
0.428342 0.349522 0.103934
0.495599 0.349522 0.103934
0.562856 0.349522 0.103934
0.630113 0.349522 0.103934
0.697370 0.349522 0.103934
0.764627 0.349522 0.103934
0.831884 0.349522 0.103934
0.899141 0.349522 0.103934
0.966398 0.349522 0.103934
0.996800 0.349522 0.103934
0.996800 0.349522 0.103934
0.024800 0.411826 0.103934
0.092057 0.411826 0.103934
0.159314 0.411826 0.103934
0.226571 0.411826 0.103934
0.293828 0.411826 0.103934
0.361085 0.411826 0.103934
0.428342 0.411826 0.103934
0.495599 0.411826 0.103934
0.562856 0.411826 0.103934
0.630113 0.411826 0.103934
0.697370 0.411826 0.103934
0.764627 0.411826 0.103934
0.831884 0.411826 0.103934
0.899141 0.411826 0.103934
0.966398 0.411826 0.103934
0.996800 0.411826 0.103934
0.996800 0.411826 0.103934
0.024800 0.474131 0.103934
0.092057 0.474131 0.103934
0.159314 0.474131 0.103934
0.226571 0.474131 0.103934
0.293828 0.474131 0.103934
0.361085 0.474131 0.103934
0.428342 0.474131 0.103934
0.495599 0.474131 0.103934
0.562856 0.474131 0.103934
0.630113 0.474131 0.103934
0.697370 0.474131 0.103934
0.764627 0.474131 0.103934
0.831884 0.474131 0.103934
0.899141 0.474131 0.103934
0.966398 0.474131 0.103934
0.996800 0.474131 0.103934
0.996800 0.474131 0.103934
0.024800 0.536435 0.103934
0.092057 0.536435 0.103934
0.159314 0.536435 0.103934
0.226571 0.536435 0.103934
0.293828 0.536435 0.103934
0.361085 0.536435 0.103934
0.428342 0.536435 0.103934
0.495599 0.536435 0.103934
0.562856 0.536435 0.103934
0.630113 0.536435 0.103934
0.697370 0.536435 0.103934
0.764627 0.536435 0.103934
0.831884 0.536435 0.103934
0.899141 0.536435 0.103934
0.966398 0.536435 0.103934
0.996800 0.536435 0.103934
0.996800 0.536435 0.103934
0.024800 0.598739 0.103934
0.092057 0.598739 0.103934
0.159314 0.598739 0.103934
0.226571 0.598739 0.103934
0.293828 0.598739 0.103934
0.361085 0.598739 0.103934
0.428342 0.598739 0.103934
0.495599 0.598739 0.103934
0.562856 0.598739 0.103934
0.630113 0.598739 0.103934
0.697370 0.598739 0.103934
0.764627 0.598739 0.103934
0.831884 0.598739 0.103934
0.899141 0.598739 0.103934
0.966398 0.598739 0.103934
0.996800 0.598739 0.103934
0.996800 0.598739 0.103934
0.024800 0.661044 0.103934
0.092057 0.661044 0.103934
0.159314 0.661044 0.103934
0.226571 0.661044 0.103934
0.293828 0.661044 0.103934
0.361085 0.661044 0.103934
0.428342 0.661044 0.103934
0.495599 0.661044 0.103934
0.562856 0.661044 0.103934
0.630113 0.661044 0.103934
0.697370 0.661044 0.103934
0.764627 0.661044 0.103934
0.831884 0.661044 0.103934
0.899141 0.661044 0.103934
0.966398 0.661044 0.103934
0.996800 0.661044 0.103934
0.996800 0.661044 0.103934
0.024800 0.723348 0.103934
0.092057 0.723348 0.103934
0.159314 0.723348 0.103934
0.226571 0.723348 0.103934
0.293828 0.723348 0.103934
0.361085 0.723348 0.103934
0.428342 0.723348 0.103934
0.495599 0.723348 0.103934
0.562856 0.723348 0.103934
0.630113 0.723348 0.103934
0.697370 0.723348 0.103934
0.764627 0.723348 0.103934
0.831884 0.723348 0.103934
0.899141 0.723348 0.103934
0.966398 0.723348 0.103934
0.996800 0.723348 0.103934
0.996800 0.723348 0.103934
0.024800 0.785653 0.103934
0.092057 0.785653 0.103934
0.159314 0.785653 0.103934
0.226571 0.785653 0.103934
0.293828 0.785653 0.103934
0.361085 0.785653 0.103934
0.428342 0.785653 0.103934
0.495599 0.785653 0.103934
0.562856 0.785653 0.103934
0.630113 0.785653 0.103934
0.697370 0.785653 0.103934
0.764627 0.785653 0.103934
0.831884 0.785653 0.103934
0.899141 0.785653 0.103934
0.966398 0.785653 0.103934
0.996800 0.785653 0.103934
0.996800 0.785653 0.103934
0.024800 0.847957 0.103934
0.092057 0.847957 0.103934
0.159314 0.847957 0.103934
0.226571 0.847957 0.103934
0.293828 0.847957 0.103934
0.361085 0.847957 0.103934
0.428342 0.847957 0.103934
0.495599 0.847957 0.103934
0.562856 0.847957 0.103934
0.630113 0.847957 0.103934
0.697370 0.847957 0.103934
0.764627 0.847957 0.103934
0.831884 0.847957 0.103934
0.899141 0.847957 0.103934
0.966398 0.847957 0.103934
0.996800 0.847957 0.103934
0.996800 0.847957 0.103934
0.024800 0.910261 0.103934
0.092057 0.910261 0.103934
0.159314 0.910261 0.103934
0.226571 0.910261 0.103934
0.293828 0.910261 0.103934
0.361085 0.910261 0.103934
0.428342 0.910261 0.103934
0.495599 0.910261 0.103934
0.562856 0.910261 0.103934
0.630113 0.910261 0.103934
0.697370 0.910261 0.103934
0.764627 0.910261 0.103934
0.831884 0.910261 0.103934
0.899141 0.910261 0.103934
0.966398 0.910261 0.103934
0.996800 0.910261 0.103934
0.996800 0.910261 0.103934
0.024800 0.962000 0.103934
0.092057 0.962000 0.103934
0.159314 0.962000 0.103934
0.226571 0.962000 0.103934
0.293828 0.962000 0.103934
0.361085 0.962000 0.103934
0.428342 0.962000 0.103934
0.495599 0.962000 0.103934
0.562856 0.962000 0.103934
0.630113 0.962000 0.103934
0.697370 0.962000 0.103934
0.764627 0.962000 0.103934
0.831884 0.962000 0.103934
0.899141 0.962000 0.103934
0.966398 0.962000 0.103934
0.996800 0.962000 0.103934
0.996800 0.962000 0.103934
0.024800 0.962000 0.103934
0.092057 0.962000 0.103934
0.159314 0.962000 0.103934
0.226571 0.962000 0.103934
0.293828 0.962000 0.103934
0.361085 0.962000 0.103934
0.428342 0.962000 0.103934
0.495599 0.962000 0.103934
0.562856 0.962000 0.103934
0.630113 0.962000 0.103934
0.697370 0.962000 0.103934
0.764627 0.962000 0.103934
0.831884 0.962000 0.103934
0.899141 0.962000 0.103934
0.966398 0.962000 0.103934
0.996800 0.962000 0.103934
0.996800 0.962000 0.103934
0.024800 0.038000 0.156668
0.092057 0.038000 0.156668
0.159314 0.038000 0.156668
0.226571 0.038000 0.156668
0.293828 0.038000 0.156668
0.361085 0.038000 0.156668
0.428342 0.038000 0.156668
0.495599 0.038000 0.156668
0.562856 0.038000 0.156668
0.630113 0.038000 0.156668
0.697370 0.038000 0.156668
0.764627 0.038000 0.156668
0.831884 0.038000 0.156668
0.899141 0.038000 0.156668
0.966398 0.038000 0.156668
0.996800 0.038000 0.156668
0.996800 0.038000 0.156668
0.024800 0.100304 0.156668
0.092057 0.100304 0.156668
0.159314 0.100304 0.156668
0.226571 0.100304 0.156668
0.293828 0.100304 0.156668
0.361085 0.100304 0.156668
0.428342 0.100304 0.156668
0.495599 0.100304 0.156668
0.562856 0.100304 0.156668
0.630113 0.100304 0.156668
0.697370 0.100304 0.156668
0.764627 0.100304 0.156668
0.831884 0.100304 0.156668
0.899141 0.100304 0.156668
0.966398 0.100304 0.156668
0.996800 0.100304 0.156668
0.996800 0.100304 0.156668
0.024800 0.162609 0.156668
0.092057 0.162609 0.156668
0.159314 0.162609 0.156668
0.226571 0.162609 0.156668
0.293828 0.162609 0.156668
0.361085 0.162609 0.156668
0.428342 0.162609 0.156668
0.495599 0.162609 0.156668
0.562856 0.162609 0.156668
0.630113 0.162609 0.156668
0.697370 0.162609 0.156668
0.764627 0.162609 0.156668
0.831884 0.162609 0.156668
0.899141 0.162609 0.156668
0.966398 0.162609 0.156668
0.996800 0.162609 0.156668
0.996800 0.162609 0.156668
0.024800 0.224913 0.156668
0.092057 0.224913 0.156668
0.159314 0.224913 0.156668
0.226571 0.224913 0.156668
0.293828 0.224913 0.156668
0.361085 0.224913 0.156668
0.428342 0.224913 0.156668
0.495599 0.224913 0.156668
0.562856 0.224913 0.156668
0.630113 0.224913 0.156668
0.697370 0.224913 0.156668
0.764627 0.224913 0.156668
0.831884 0.224913 0.156668
0.899141 0.224913 0.156668
0.966398 0.224913 0.156668
0.996800 0.224913 0.156668
0.996800 0.224913 0.156668
0.024800 0.287218 0.156668
0.092057 0.287218 0.156668
0.159314 0.287218 0.156668
0.226571 0.287218 0.156668
0.293828 0.287218 0.156668
0.361085 0.287218 0.156668
0.428342 0.287218 0.156668
0.495599 0.287218 0.156668
0.562856 0.287218 0.156668
0.630113 0.287218 0.156668
0.697370 0.287218 0.156668
0.764627 0.287218 0.156668
0.831884 0.287218 0.156668
0.899141 0.287218 0.156668
0.966398 0.287218 0.156668
0.996800 0.287218 0.156668
0.996800 0.287218 0.156668
0.024800 0.349522 0.156668
0.092057 0.349522 0.156668
0.159314 0.349522 0.156668
0.226571 0.349522 0.156668
0.293828 0.349522 0.156668
0.361085 0.349522 0.156668
0.428342 0.349522 0.156668
0.495599 0.349522 0.156668
0.562856 0.349522 0.156668
0.630113 0.349522 0.156668
0.697370 0.349522 0.156668
0.764627 0.349522 0.156668
0.831884 0.349522 0.156668
0.899141 0.349522 0.156668
0.966398 0.349522 0.156668
0.996800 0.349522 0.156668
0.996800 0.349522 0.156668
0.024800 0.411826 0.156668
0.092057 0.411826 0.156668
0.159314 0.411826 0.156668
0.226571 0.411826 0.156668
0.293828 0.411826 0.156668
0.361085 0.411826 0.156668
0.428342 0.411826 0.156668
0.495599 0.411826 0.156668
0.562856 0.411826 0.156668
0.630113 0.411826 0.156668
0.697370 0.411826 0.156668
0.764627 0.411826 0.156668
0.831884 0.411826 0.156668
0.899141 0.411826 0.156668
0.966398 0.411826 0.156668
0.996800 0.411826 0.156668
0.996800 0.411826 0.156668
0.024800 0.474131 0.156668
0.092057 0.474131 0.156668
0.159314 0.474131 0.156668
0.226571 0.474131 0.156668
0.293828 0.474131 0.156668
0.361085 0.474131 0.156668
0.428342 0.474131 0.156668
0.495599 0.474131 0.156668
0.562856 0.474131 0.156668
0.630113 0.474131 0.156668
0.697370 0.474131 0.156668
0.764627 0.474131 0.156668
0.831884 0.474131 0.156668
0.899141 0.474131 0.156668
0.966398 0.474131 0.156668
0.996800 0.474131 0.156668
0.996800 0.474131 0.156668
0.024800 0.536435 0.156668
0.092057 0.536435 0.156668
0.159314 0.536435 0.156668
0.226571 0.536435 0.156668
0.293828 0.536435 0.156668
0.361085 0.536435 0.156668
0.428342 0.536435 0.156668
0.495599 0.536435 0.156668
0.562856 0.536435 0.156668
0.630113 0.536435 0.156668
0.697370 0.536435 0.156668
0.764627 0.536435 0.156668
0.831884 0.536435 0.156668
0.899141 0.536435 0.156668
0.966398 0.536435 0.156668
0.996800 0.536435 0.156668
0.996800 0.536435 0.156668
0.024800 0.598739 0.156668
0.092057 0.598739 0.156668
0.159314 0.598739 0.156668
0.226571 0.598739 0.156668
0.293828 0.598739 0.156668
0.361085 0.598739 0.156668
0.428342 0.598739 0.156668
0.495599 0.598739 0.156668
0.562856 0.598739 0.156668
0.630113 0.598739 0.156668
0.697370 0.598739 0.156668
0.764627 0.598739 0.156668
0.831884 0.598739 0.156668
0.899141 0.598739 0.156668
0.966398 0.598739 0.156668
0.996800 0.598739 0.156668
0.996800 0.598739 0.156668
0.024800 0.661044 0.156668
0.092057 0.661044 0.156668
0.159314 0.661044 0.156668
0.226571 0.661044 0.156668
0.293828 0.661044 0.156668
0.361085 0.661044 0.156668
0.428342 0.661044 0.156668
0.495599 0.661044 0.156668
0.562856 0.661044 0.156668
0.630113 0.661044 0.156668
0.697370 0.661044 0.156668
0.764627 0.661044 0.156668
0.831884 0.661044 0.156668
0.899141 0.661044 0.156668
0.966398 0.661044 0.156668
0.996800 0.661044 0.156668
0.996800 0.661044 0.156668
0.024800 0.723348 0.156668
0.092057 0.723348 0.156668
0.159314 0.723348 0.156668
0.226571 0.723348 0.156668
0.293828 0.723348 0.156668
0.361085 0.723348 0.156668
0.428342 0.723348 0.156668
0.495599 0.723348 0.156668
0.562856 0.723348 0.156668
0.630113 0.723348 0.156668
0.697370 0.723348 0.156668
0.764627 0.723348 0.156668
0.831884 0.723348 0.156668
0.899141 0.723348 0.156668
0.966398 0.723348 0.156668
0.996800 0.723348 0.156668
0.996800 0.723348 0.156668
0.024800 0.785653 0.156668
0.092057 0.785653 0.156668
0.159314 0.785653 0.156668
0.226571 0.785653 0.156668
0.293828 0.785653 0.156668
0.361085 0.785653 0.156668
0.428342 0.785653 0.156668
0.495599 0.785653 0.156668
0.562856 0.785653 0.156668
0.630113 0.785653 0.156668
0.697370 0.785653 0.156668
0.764627 0.785653 0.156668
0.831884 0.785653 0.156668
0.899141 0.785653 0.156668
0.966398 0.785653 0.156668
0.996800 0.785653 0.156668
0.996800 0.785653 0.156668
0.024800 0.847957 0.156668
0.092057 0.847957 0.156668
0.159314 0.847957 0.156668
0.226571 0.847957 0.156668
0.293828 0.847957 0.156668
0.361085 0.847957 0.156668
0.428342 0.847957 0.156668
0.495599 0.847957 0.156668
0.562856 0.847957 0.156668
0.630113 0.847957 0.156668
0.697370 0.847957 0.156668
0.764627 0.847957 0.156668
0.831884 0.847957 0.156668
0.899141 0.847957 0.156668
0.966398 0.847957 0.156668
0.996800 0.847957 0.156668
0.996800 0.847957 0.156668
0.024800 0.910261 0.156668
0.092057 0.910261 0.156668
0.159314 0.910261 0.156668
0.226571 0.910261 0.156668
0.293828 0.910261 0.156668
0.361085 0.910261 0.156668
0.428342 0.910261 0.156668
0.495599 0.910261 0.156668
0.562856 0.910261 0.156668
0.630113 0.910261 0.156668
0.697370 0.910261 0.156668
0.764627 0.910261 0.156668
0.831884 0.910261 0.156668
0.899141 0.910261 0.156668
0.966398 0.910261 0.156668
0.996800 0.910261 0.156668
0.996800 0.910261 0.156668
0.024800 0.962000 0.156668
0.092057 0.962000 0.156668
0.159314 0.962000 0.156668
0.226571 0.962000 0.156668
0.293828 0.962000 0.156668
0.361085 0.962000 0.156668
0.428342 0.962000 0.156668
0.495599 0.962000 0.156668
0.562856 0.962000 0.156668
0.630113 0.962000 0.156668
0.697370 0.962000 0.156668
0.764627 0.962000 0.156668
0.831884 0.962000 0.156668
0.899141 0.962000 0.156668
0.966398 0.962000 0.156668
0.996800 0.962000 0.156668
0.996800 0.962000 0.156668
0.024800 0.962000 0.156668
0.092057 0.962000 0.156668
0.159314 0.962000 0.156668
0.226571 0.962000 0.156668
0.293828 0.962000 0.156668
0.361085 0.962000 0.156668
0.428342 0.962000 0.156668
0.495599 0.962000 0.156668
0.562856 0.962000 0.156668
0.630113 0.962000 0.156668
0.697370 0.962000 0.156668
0.764627 0.962000 0.156668
0.831884 0.962000 0.156668
0.899141 0.962000 0.156668
0.966398 0.962000 0.156668
0.996800 0.962000 0.156668
0.996800 0.962000 0.156668
0.024800 0.038000 0.209402
0.092057 0.038000 0.209402
0.159314 0.038000 0.209402
0.226571 0.038000 0.209402
0.293828 0.038000 0.209402
0.361085 0.038000 0.209402
0.428342 0.038000 0.209402
0.495599 0.038000 0.209402
0.562856 0.038000 0.209402
0.630113 0.038000 0.209402
0.697370 0.038000 0.209402
0.764627 0.038000 0.209402
0.831884 0.038000 0.209402
0.899141 0.038000 0.209402
0.966398 0.038000 0.209402
0.996800 0.038000 0.209402
0.996800 0.038000 0.209402
0.024800 0.100304 0.209402
