assets/luts/warm_vintage.cube
TITLE "Warm Vintage"
LUT_3D_SIZE 9
DOMAIN_MIN 0.0 0.0 0.0
DOMAIN_MAX 1.0 1.0 1.0
0.024800 0.038000 0.051200
0.159314 0.038000 0.051200
0.293828 0.038000 0.051200
0.428342 0.038000 0.051200
0.562856 0.038000 0.051200
0.697370 0.038000 0.051200
0.831884 0.038000 0.051200
0.966398 0.038000 0.051200
0.996800 0.038000 0.051200
0.024800 0.162609 0.051200
0.159314 0.162609 0.051200
0.293828 0.162609 0.051200
0.428342 0.162609 0.051200
0.562856 0.162609 0.051200
0.697370 0.162609 0.051200
0.831884 0.162609 0.051200
0.966398 0.162609 0.051200
0.996800 0.162609 0.051200
0.024800 0.287218 0.051200
0.159314 0.287218 0.051200
0.293828 0.287218 0.051200
0.428342 0.287218 0.051200
0.562856 0.287218 0.051200
0.697370 0.287218 0.051200
0.831884 0.287218 0.051200
0.966398 0.287218 0.051200
0.996800 0.287218 0.051200
0.024800 0.411826 0.051200
0.159314 0.411826 0.051200
0.293828 0.411826 0.051200
0.428342 0.411826 0.051200
0.562856 0.411826 0.051200
0.697370 0.411826 0.051200
0.831884 0.411826 0.051200
0.966398 0.411826 0.051200
0.996800 0.411826 0.051200
0.024800 0.536435 0.051200
0.159314 0.536435 0.051200
0.293828 0.536435 0.051200
0.428342 0.536435 0.051200
0.562856 0.536435 0.051200
0.697370 0.536435 0.051200
0.831884 0.536435 0.051200
0.966398 0.536435 0.051200
0.996800 0.536435 0.051200
0.024800 0.661044 0.051200
0.159314 0.661044 0.051200
0.293828 0.661044 0.051200
0.428342 0.661044 0.051200
0.562856 0.661044 0.051200
0.697370 0.661044 0.051200
0.831884 0.661044 0.051200
0.966398 0.661044 0.051200
0.996800 0.661044 0.051200
0.024800 0.785653 0.051200
0.159314 0.785653 0.051200
0.293828 0.785653 0.051200
0.428342 0.785653 0.051200
0.562856 0.785653 0.051200
0.697370 0.785653 0.051200
0.831884 0.785653 0.051200
0.966398 0.785653 0.051200
0.996800 0.785653 0.051200
0.024800 0.910261 0.051200
0.159314 0.910261 0.051200
0.293828 0.910261 0.051200
0.428342 0.910261 0.051200
0.562856 0.910261 0.051200
0.697370 0.910261 0.051200
0.831884 0.910261 0.051200
0.966398 0.910261 0.051200
0.996800 0.910261 0.051200
0.024800 0.962000 0.051200
0.159314 0.962000 0.051200
0.293828 0.962000 0.051200
0.428342 0.962000 0.051200
0.562856 0.962000 0.051200
0.697370 0.962000 0.051200
0.831884 0.962000 0.051200
0.966398 0.962000 0.051200
0.996800 0.962000 0.051200
0.024800 0.038000 0.156668
0.159314 0.038000 0.156668
0.293828 0.038000 0.156668
0.428342 0.038000 0.156668
0.562856 0.038000 0.156668
0.697370 0.038000 0.156668
0.831884 0.038000 0.156668
0.966398 0.038000 0.156668
0.996800 0.038000 0.156668
0.024800 0.162609 0.156668
0.159314 0.162609 0.156668
0.293828 0.162609 0.156668
0.428342 0.162609 0.156668
0.562856 0.162609 0.156668
0.697370 0.162609 0.156668
0.831884 0.162609 0.156668
0.966398 0.162609 0.156668
0.996800 0.162609 0.156668
0.024800 0.287218 0.156668
0.159314 0.287218 0.156668
0.293828 0.287218 0.156668
0.428342 0.287218 0.156668
0.562856 0.287218 0.156668
0.697370 0.287218 0.156668
0.831884 0.287218 0.156668
0.966398 0.287218 0.156668
0.996800 0.287218 0.156668
0.024800 0.411826 0.156668
0.159314 0.411826 0.156668
0.293828 0.411826 0.156668
0.428342 0.411826 0.156668
0.562856 0.411826 0.156668
0.697370 0.411826 0.156668
0.831884 0.411826 0.156668
0.966398 0.411826 0.156668
0.996800 0.411826 0.156668
0.024800 0.536435 0.156668
0.159314 0.536435 0.156668
0.293828 0.536435 0.156668
0.428342 0.536435 0.156668
0.562856 0.536435 0.156668
0.697370 0.536435 0.156668
0.831884 0.536435 0.156668
0.966398 0.536435 0.156668
0.996800 0.536435 0.156668
0.024800 0.661044 0.156668
0.159314 0.661044 0.156668
0.293828 0.661044 0.156668
0.428342 0.661044 0.156668
0.562856 0.661044 0.156668
0.697370 0.661044 0.156668
0.831884 0.661044 0.156668
0.966398 0.661044 0.156668
0.996800 0.661044 0.156668
0.024800 0.785653 0.156668
0.159314 0.785653 0.156668
0.293828 0.785653 0.156668
0.428342 0.785653 0.156668
0.562856 0.785653 0.156668
0.697370 0.785653 0.156668
0.831884 0.785653 0.156668
0.966398 0.785653 0.156668
0.996800 0.785653 0.156668
0.024800 0.910261 0.156668
0.159314 0.910261 0.156668
0.293828 0.910261 0.156668
0.428342 0.910261 0.156668
0.562856 0.910261 0.156668
0.697370 0.910261 0.156668
0.831884 0.910261 0.156668
0.966398 0.910261 0.156668
0.996800 0.910261 0.156668
0.024800 0.962000 0.156668
0.159314 0.962000 0.156668
0.293828 0.962000 0.156668
0.428342 0.962000 0.156668
0.562856 0.962000 0.156668
0.697370 0.962000 0.156668
0.831884 0.962000 0.156668
0.966398 0.962000 0.156668
0.996800 0.962000 0.156668
0.024800 0.038000 0.262136
0.159314 0.038000 0.262136
0.293828 0.038000 0.262136
0.428342 0.038000 0.262136
0.562856 0.038000 0.262136
0.697370 0.038000 0.262136
0.831884 0.038000 0.262136
0.966398 0.038000 0.262136
0.996800 0.038000 0.262136
0.024800 0.162609 0.262136
0.159314 0.162609 0.262136
0.293828 0.162609 0.262136
0.428342 0.162609 0.262136
0.562856 0.162609 0.262136
0.697370 0.162609 0.262136
0.831884 0.162609 0.262136
0.966398 0.162609 0.262136
0.996800 0.162609 0.262136
0.024800 0.287218 0.262136
0.159314 0.287218 0.262136
0.293828 0.287218 0.262136
0.428342 0.287218 0.262136
0.562856 0.287218 0.262136
0.697370 0.287218 0.262136
0.831884 0.287218 0.262136
0.966398 0.287218 0.262136
0.996800 0.287218 0.262136
0.024800 0.411826 0.262136
0.159314 0.411826 0.262136
0.293828 0.411826 0.262136
0.428342 0.411826 0.262136
0.562856 0.411826 0.262136
0.697370 0.411826 0.262136
0.831884 0.411826 0.262136
0.966398 0.411826 0.262136
0.996800 0.411826 0.262136
0.024800 0.536435 0.262136
0.159314 0.536435 0.262136
0.293828 0.536435 0.262136
0.428342 0.536435 0.262136
0.562856 0.536435 0.262136
0.697370 0.536435 0.262136
0.831884 0.536435 0.262136
0.966398 0.536435 0.262136
0.996800 0.536435 0.262136
0.024800 0.661044 0.262136
0.159314 0.661044 0.262136
0.293828 0.661044 0.262136
0.428342 0.661044 0.262136
0.562856 0.661044 0.262136
0.697370 0.661044 0.262136
0.831884 0.661044 0.262136
0.966398 0.661044 0.262136
0.996800 0.661044 0.262136
0.024800 0.785653 0.262136
0.159314 0.785653 0.262136
0.293828 0.785653 0.262136
0.428342 0.785653 0.262136
0.562856 0.785653 0.262136
0.697370 0.785653 0.262136
0.831884 0.785653 0.262136
0.966398 0.785653 0.262136
0.996800 0.785653 0.262136
0.024800 0.910261 0.262136
0.159314 0.910261 0.262136
0.293828 0.910261 0.262136
0.428342 0.910261 0.262136
0.562856 0.910261 0.262136
0.697370 0.910261 0.262136
0.831884 0.910261 0.262136
0.966398 0.910261 0.262136
0.996800 0.910261 0.262136
0.024800 0.962000 0.262136
0.159314 0.962000 0.262136
0.293828 0.962000 0.262136
0.428342 0.962000 0.262136
0.562856 0.962000 0.262136
0.697370 0.962000 0.262136
0.831884 0.962000 0.262136
0.966398 0.962000 0.262136
0.996800 0.962000 0.262136
0.024800 0.038000 0.367604
0.159314 0.038000 0.367604
0.293828 0.038000 0.367604
0.428342 0.038000 0.367604
0.562856 0.038000 0.367604
0.697370 0.038000 0.367604
0.831884 0.038000 0.367604
0.966398 0.038000 0.367604
0.996800 0.038000 0.367604
0.024800 0.162609 0.367604
0.159314 0.162609 0.367604
0.293828 0.162609 0.367604
0.428342 0.162609 0.367604
0.562856 0.162609 0.367604
0.697370 0.162609 0.367604
0.831884 0.162609 0.367604
0.966398 0.162609 0.367604
0.996800 0.162609 0.367604
0.024800 0.287218 0.367604
0.159314 0.287218 0.367604
0.293828 0.287218 0.367604
0.428342 0.287218 0.367604
0.562856 0.287218 0.367604
0.697370 0.287218 0.367604
0.831884 0.287218 0.367604
0.966398 0.287218 0.367604
0.996800 0.287218 0.367604
0.024800 0.411826 0.367604
0.159314 0.411826 0.367604
0.293828 0.411826 0.367604
0.428342 0.411826 0.367604
0.562856 0.411826 0.367604
0.697370 0.411826 0.367604
0.831884 0.411826 0.367604
0.966398 0.411826 0.367604
0.996800 0.411826 0.367604
0.024800 0.536435 0.367604
0.159314 0.536435 0.367604
0.293828 0.536435 0.367604
0.428342 0.536435 0.367604
0.562856 0.536435 0.367604
0.697370 0.536435 0.367604
0.831884 0.536435 0.367604
0.966398 0.536435 0.367604
0.996800 0.536435 0.367604
0.024800 0.661044 0.367604
0.159314 0.661044 0.367604
0.293828 0.661044 0.367604
0.428342 0.661044 0.367604
0.562856 0.661044 0.367604
0.697370 0.661044 0.367604
0.831884 0.661044 0.367604
0.966398 0.661044 0.367604
0.996800 0.661044 0.367604
0.024800 0.785653 0.367604
0.159314 0.785653 0.367604
0.293828 0.785653 0.367604
0.428342 0.785653 0.367604
0.562856 0.785653 0.367604
0.697370 0.785653 0.367604
0.831884 0.785653 0.367604
0.966398 0.785653 0.367604
0.996800 0.785653 0.367604
0.024800 0.910261 0.367604
0.159314 0.910261 0.367604
0.293828 0.910261 0.367604
0.428342 0.910261 0.367604
0.562856 0.910261 0.367604
0.697370 0.910261 0.367604
0.831884 0.910261 0.367604
0.966398 0.910261 0.367604
0.996800 0.910261 0.367604
0.024800 0.962000 0.367604
0.159314 0.962000 0.367604
0.293828 0.962000 0.367604
0.428342 0.962000 0.367604
0.562856 0.962000 0.367604
0.697370 0.962000 0.367604
0.831884 0.962000 0.367604
0.966398 0.962000 0.367604
0.996800 0.962000 0.367604
0.024800 0.038000 0.473072
0.159314 0.038000 0.473072
0.293828 0.038000 0.473072
0.428342 0.038000 0.473072
0.562856 0.038000 0.473072
0.697370 0.038000 0.473072
0.831884 0.038000 0.473072
0.966398 0.038000 0.473072
0.996800 0.038000 0.473072
0.024800 0.162609 0.473072
0.159314 0.162609 0.473072
0.293828 0.162609 0.473072
0.428342 0.162609 0.473072
0.562856 0.162609 0.473072
0.697370 0.162609 0.473072
0.831884 0.162609 0.473072
0.966398 0.162609 0.473072
0.996800 0.162609 0.473072
0.024800 0.287218 0.473072
0.159314 0.287218 0.473072
0.293828 0.287218 0.473072
0.428342 0.287218 0.473072
0.562856 0.287218 0.473072
0.697370 0.287218 0.473072
0.831884 0.287218 0.473072
0.966398 0.287218 0.473072
0.996800 0.287218 0.473072
0.024800 0.411826 0.473072
0.159314 0.411826 0.473072
0.293828 0.411826 0.473072
0.428342 0.411826 0.473072
0.562856 0.411826 0.473072
0.697370 0.411826 0.473072
0.831884 0.411826 0.473072
0.966398 0.411826 0.473072
0.996800 0.411826 0.473072
0.024800 0.536435 0.473072
0.159314 0.536435 0.473072
0.293828 0.536435 0.473072
0.428342 0.536435 0.473072
0.562856 0.536435 0.473072
0.697370 0.536435 0.473072
0.831884 0.536435 0.473072
0.966398 0.536435 0.473072
0.996800 0.536435 0.473072
0.024800 0.661044 0.473072
0.159314 0.661044 0.473072
0.293828 0.661044 0.473072
0.428342 0.661044 0.473072
0.562856 0.661044 0.473072
0.697370 0.661044 0.473072
0.831884 0.661044 0.473072
0.966398 0.661044 0.473072
0.996800 0.661044 0.473072
0.024800 0.785653 0.473072
0.159314 0.785653 0.473072
0.293828 0.785653 0.473072
0.428342 0.785653 0.473072
0.562856 0.785653 0.473072
0.697370 0.785653 0.473072
0.831884 0.785653 0.473072
0.966398 0.785653 0.473072
0.996800 0.785653 0.473072
0.024800 0.910261 0.473072
0.159314 0.910261 0.473072
0.293828 0.910261 0.473072
0.428342 0.910261 0.473072
0.562856 0.910261 0.473072
0.697370 0.910261 0.473072
0.831884 0.910261 0.473072
0.966398 0.910261 0.473072
0.996800 0.910261 0.473072
0.024800 0.962000 0.473072
0.159314 0.962000 0.473072
0.293828 0.962000 0.473072
0.428342 0.962000 0.473072
0.562856 0.962000 0.473072
0.697370 0.962000 0.473072
0.831884 0.962000 0.473072
0.966398 0.962000 0.473072
0.996800 0.962000 0.473072
0.024800 0.038000 0.578540
0.159314 0.038000 0.578540
0.293828 0.038000 0.578540
0.428342 0.038000 0.578540
0.562856 0.038000 0.578540
0.697370 0.038000 0.578540
0.831884 0.038000 0.578540
0.966398 0.038000 0.578540
0.996800 0.038000 0.578540
0.024800 0.162609 0.578540
0.159314 0.162609 0.578540
0.293828 0.162609 0.578540
0.428342 0.162609 0.578540
0.562856 0.162609 0.578540
0.697370 0.162609 0.578540
0.831884 0.162609 0.578540
0.966398 0.162609 0.578540
0.996800 0.162609 0.578540
0.024800 0.287218 0.578540
0.159314 0.287218 0.578540
0.293828 0.287218 0.578540
0.428342 0.287218 0.578540
0.562856 0.287218 0.578540
0.697370 0.287218 0.578540
0.831884 0.287218 0.578540
0.966398 0.287218 0.578540
0.996800 0.287218 0.578540
0.024800 0.411826 0.578540
0.159314 0.411826 0.578540
0.293828 0.411826 0.578540
0.428342 0.411826 0.578540
0.562856 0.411826 0.578540
0.697370 0.411826 0.578540
0.831884 0.411826 0.578540
0.966398 0.411826 0.578540
0.996800 0.411826 0.578540
0.024800 0.536435 0.578540
0.159314 0.536435 0.578540
0.293828 0.536435 0.578540
0.428342 0.536435 0.578540
0.562856 0.536435 0.578540
0.697370 0.536435 0.578540
0.831884 0.536435 0.578540
0.966398 0.536435 0.578540
0.996800 0.536435 0.578540
0.024800 0.661044 0.578540
0.159314 0.661044 0.578540
0.293828 0.661044 0.578540
0.428342 0.661044 0.578540
0.562856 0.661044 0.578540
0.697370 0.661044 0.578540
0.831884 0.661044 0.578540
0.966398 0.661044 0.578540
0.996800 0.661044 0.578540
0.024800 0.785653 0.578540
0.159314 0.785653 0.578540
0.293828 0.785653 0.578540
0.428342 0.785653 0.578540
0.562856 0.785653 0.578540
0.697370 0.785653 0.578540
0.831884 0.785653 0.578540
0.966398 0.785653 0.578540
0.996800 0.785653 0.578540
0.024800 0.910261 0.578540
0.159314 0.910261 0.578540
0.293828 0.910261 0.578540
0.428342 0.910261 0.578540
0.562856 0.910261 0.578540
0.697370 0.910261 0.578540
0.831884 0.910261 0.578540
0.966398 0.910261 0.578540
0.996800 0.910261 0.578540
0.024800 0.962000 0.578540
0.159314 0.962000 0.578540
0.293828 0.962000 0.578540
0.428342 0.962000 0.578540
0.562856 0.962000 0.578540
0.697370 0.962000 0.578540
0.831884 0.962000 0.578540
0.966398 0.962000 0.578540
0.996800 0.962000 0.578540
0.024800 0.038000 0.684008
0.159314 0.038000 0.684008
0.293828 0.038000 0.684008
0.428342 0.038000 0.684008
0.562856 0.038000 0.684008
0.697370 0.038000 0.684008
0.831884 0.038000 0.684008
0.966398 0.038000 0.684008
0.996800 0.038000 0.684008
0.024800 0.162609 0.684008
0.159314 0.162609 0.684008
0.293828 0.162609 0.684008
0.428342 0.162609 0.684008
0.562856 0.162609 0.684008
0.697370 0.162609 0.684008
0.831884 0.162609 0.684008
0.966398 0.162609 0.684008
0.996800 0.162609 0.684008
0.024800 0.287218 0.684008
0.159314 0.287218 0.684008
0.293828 0.287218 0.684008
0.428342 0.287218 0.684008
0.562856 0.287218 0.684008
0.697370 0.287218 0.684008
0.831884 0.287218 0.684008
0.966398 0.287218 0.684008
0.996800 0.287218 0.684008
0.024800 0.411826 0.684008
0.159314 0.411826 0.684008
0.293828 0.411826 0.684008
0.428342 0.411826 0.684008
0.562856 0.411826 0.684008
0.697370 0.411826 0.684008
0.831884 0.411826 0.684008
0.966398 0.411826 0.684008
0.996800 0.411826 0.684008
0.024800 0.536435 0.684008
0.159314 0.536435 0.684008
0.293828 0.536435 0.684008
0.428342 0.536435 0.684008
0.562856 0.536435 0.684008
0.697370 0.536435 0.684008
0.831884 0.536435 0.684008
0.966398 0.536435 0.684008
0.996800 0.536435 0.684008
0.024800 0.661044 0.684008
0.159314 0.661044 0.684008
0.293828 0.661044 0.684008
0.428342 0.661044 0.684008
0.562856 0.661044 0.684008
0.697370 0.661044 0.684008
0.831884 0.661044 0.684008
0.966398 0.661044 0.684008
0.996800 0.661044 0.684008
0.024800 0.785653 0.684008
0.159314 0.785653 0.684008
0.293828 0.785653 0.684008
0.428342 0.785653 0.684008
0.562856 0.785653 0.684008
0.697370 0.785653 0.684008
0.831884 0.785653 0.684008
0.966398 0.785653 0.684008
0.996800 0.785653 0.684008
0.024800 0.910261 0.684008
0.159314 0.910261 0.684008
0.293828 0.910261 0.684008
0.428342 0.910261 0.684008
0.562856 0.910261 0.684008
0.697370 0.910261 0.684008
0.831884 0.910261 0.684008
0.966398 0.910261 0.684008
0.996800 0.910261 0.684008
0.024800 0.962000 0.684008
0.159314 0.962000 0.684008
0.293828 0.962000 0.684008
0.428342 0.962000 0.684008
0.562856 0.962000 0.684008
0.697370 0.962000 0.684008
0.831884 0.962000 0.684008
0.966398 0.962000 0.684008
0.996800 0.962000 0.684008
0.024800 0.038000 0.789476
0.159314 0.038000 0.789476
0.293828 0.038000 0.789476
0.428342 0.038000 0.789476
0.562856 0.038000 0.789476
0.697370 0.038000 0.789476
0.831884 0.038000 0.789476
0.966398 0.038000 0.789476
0.996800 0.038000 0.789476
0.024800 0.162609 0.789476
0.159314 0.162609 0.789476
0.293828 0.162609 0.789476
0.428342 0.162609 0.789476
0.562856 0.162609 0.789476
0.697370 0.162609 0.789476
0.831884 0.162609 0.789476
0.966398 0.162609 0.789476
0.996800 0.162609 0.789476
0.024800 0.287218 0.789476
0.159314 0.287218 0.789476
0.293828 0.287218 0.789476
0.428342 0.287218 0.789476
0.562856 0.287218 0.789476
0.697370 0.287218 0.789476
0.831884 0.287218 0.789476
0.966398 0.287218 0.789476
0.996800 0.287218 0.789476
0.024800 0.411826 0.789476
0.159314 0.411826 0.789476
0.293828 0.411826 0.789476
0.428342 0.411826 0.789476
0.562856 0.411826 0.789476
0.697370 0.411826 0.789476
0.831884 0.411826 0.789476
0.966398 0.411826 0.789476
0.996800 0.411826 0.789476
0.024800 0.536435 0.789476
0.159314 0.536435 0.789476
0.293828 0.536435 0.789476
0.428342 0.536435 0.789476
0.562856 0.536435 0.789476
0.697370 0.536435 0.789476
0.831884 0.536435 0.789476
0.966398 0.536435 0.789476
0.996800 0.536435 0.789476
0.024800 0.661044 0.789476
0.159314 0.661044 0.789476
0.293828 0.661044 0.789476
0.428342 0.661044 0.789476
0.562856 0.661044 0.789476
0.697370 0.661044 0.789476
0.831884 0.661044 0.789476
0.966398 0.661044 0.789476
0.996800 0.661044 0.789476
0.024800 0.785653 0.789476
0.159314 0.785653 0.789476
0.293828 0.785653 0.789476
0.428342 0.785653 0.789476
0.562856 0.785653 0.789476
0.697370 0.785653 0.789476
0.831884 0.785653 0.789476
0.966398 0.785653 0.789476
0.996800 0.785653 0.789476
0.024800 0.910261 0.789476
0.159314 0.910261 0.789476
0.293828 0.910261 0.789476
0.428342 0.910261 0.789476
0.562856 0.910261 0.789476
0.697370 0.910261 0.789476
0.831884 0.910261 0.789476
0.966398 0.910261 0.789476
0.996800 0.910261 0.789476
0.024800 0.962000 0.789476
0.159314 0.962000 0.789476
0.293828 0.962000 0.789476
0.428342 0.962000 0.789476
0.562856 0.962000 0.789476
0.697370 0.962000 0.789476
0.831884 0.962000 0.789476
0.966398 0.962000 0.789476
0.996800 0.962000 0.789476
0.024800 0.038000 0.894944
0.159314 0.038000 0.894944
0.293828 0.038000 0.894944
0.428342 0.038000 0.894944
0.562856 0.038000 0.894944
0.697370 0.038000 0.894944
0.831884 0.038000 0.894944
0.966398 0.038000 0.894944
0.996800 0.038000 0.894944
0.024800 0.162609 0.894944
0.159314 0.162609 0.894944
0.293828 0.162609 0.894944
0.428342 0.162609 0.894944
0.562856 0.162609 0.894944
0.697370 0.162609 0.894944
0.831884 0.162609 0.894944
0.966398 0.162609 0.894944
0.996800 0.162609 0.894944
0.024800 0.287218 0.894944
0.159314 0.287218 0.894944
0.293828 0.287218 0.894944
0.428342 0.287218 0.894944
0.562856 0.287218 0.894944
0.697370 0.287218 0.894944
0.831884 0.287218 0.894944
0.966398 0.287218 0.894944
0.996800 0.287218 0.894944
0.024800 0.411826 0.894944
0.159314 0.411826 0.894944
0.293828 0.411826 0.894944
0.428342 0.411826 0.894944
0.562856 0.411826 0.894944
0.697370 0.411826 0.894944
0.831884 0.411826 0.894944
0.966398 0.411826 0.894944
0.996800 0.411826 0.894944
0.024800 0.536435 0.894944
0.159314 0.536435 0.894944
0.293828 0.536435 0.894944
0.428342 0.536435 0.894944
0.562856 0.536435 0.894944
0.697370 0.536435 0.894944
0.831884 0.536435 0.894944
0.966398 0.536435 0.894944
0.996800 0.536435 0.894944
0.024800 0.661044 0.894944
0.159314 0.661044 0.894944
0.293828 0.661044 0.894944
0.428342 0.661044 0.894944
0.562856 0.661044 0.894944
0.697370 0.661044 0.894944
0.831884 0.661044 0.894944
0.966398 0.661044 0.894944
0.996800 0.661044 0.894944
0.024800 0.785653 0.894944
0.159314 0.785653 0.894944
0.293828 0.785653 0.894944
0.428342 0.785653 0.894944
0.562856 0.785653 0.894944
0.697370 0.785653 0.894944
0.831884 0.785653 0.894944
0.966398 0.785653 0.894944
0.996800 0.785653 0.894944
0.024800 0.910261 0.894944
0.159314 0.910261 0.894944
0.293828 0.910261 0.894944
0.428342 0.910261 0.894944
0.562856 0.910261 0.894944
0.697370 0.910261 0.894944
0.831884 0.910261 0.894944
0.966398 0.910261 0.894944
0.996800 0.910261 0.894944
0.024800 0.962000 0.894944
0.159314 0.962000 0.894944
0.293828 0.962000 0.894944
0.428342 0.962000 0.894944
0.562856 0.962000 0.894944
0.697370 0.962000 0.894944
0.831884 0.962000 0.894944
0.966398 0.962000 0.894944
0.996800 0.962000 0.894944
