assets/luts/warm_vintage.cube
TITLE "Warm Vintage"
LUT_3D_SIZE 5
DOMAIN_MIN 0.0 0.0 0.0
DOMAIN_MAX 1.0 1.0 1.0
0.024800 0.038000 0.051200
0.293828 0.038000 0.051200
0.562856 0.038000 0.051200
0.831884 0.038000 0.051200
0.996800 0.038000 0.051200
0.024800 0.287218 0.051200
0.293828 0.287218 0.051200
0.562856 0.287218 0.051200
0.831884 0.287218 0.051200
0.996800 0.287218 0.051200
0.024800 0.536435 0.051200
0.293828 0.536435 0.051200
0.562856 0.536435 0.051200
0.831884 0.536435 0.051200
0.996800 0.536435 0.051200
0.024800 0.785653 0.051200
0.293828 0.785653 0.051200
0.562856 0.785653 0.051200
0.831884 0.785653 0.051200
0.996800 0.785653 0.051200
0.024800 0.962000 0.051200
0.293828 0.962000 0.051200
0.562856 0.962000 0.051200
0.831884 0.962000 0.051200
0.996800 0.962000 0.051200
0.024800 0.038000 0.262136
0.293828 0.038000 0.262136
0.562856 0.038000 0.262136
0.831884 0.038000 0.262136
0.996800 0.038000 0.262136
0.024800 0.287218 0.262136
0.293828 0.287218 0.262136
0.562856 0.287218 0.262136
0.831884 0.287218 0.262136
0.996800 0.287218 0.262136
0.024800 0.536435 0.262136
0.293828 0.536435 0.262136
0.562856 0.536435 0.262136
0.831884 0.536435 0.262136
0.996800 0.536435 0.262136
0.024800 0.785653 0.262136
0.293828 0.785653 0.262136
0.562856 0.785653 0.262136
0.831884 0.785653 0.262136
0.996800 0.785653 0.262136
0.024800 0.962000 0.262136
0.293828 0.962000 0.262136
0.562856 0.962000 0.262136
0.831884 0.962000 0.262136
0.996800 0.962000 0.262136
0.024800 0.038000 0.473072
0.293828 0.038000 0.473072
0.562856 0.038000 0.473072
0.831884 0.038000 0.473072
0.996800 0.038000 0.473072
0.024800 0.287218 0.473072
0.293828 0.287218 0.473072
0.562856 0.287218 0.473072
0.831884 0.287218 0.473072
0.996800 0.287218 0.473072
0.024800 0.536435 0.473072
0.293828 0.536435 0.473072
0.562856 0.536435 0.473072
0.831884 0.536435 0.473072
0.996800 0.536435 0.473072
0.024800 0.785653 0.473072
0.293828 0.785653 0.473072
0.562856 0.785653 0.473072
0.831884 0.785653 0.473072
0.996800 0.785653 0.473072
0.024800 0.962000 0.473072
0.293828 0.962000 0.473072
0.562856 0.962000 0.473072
0.831884 0.962000 0.473072
0.996800 0.962000 0.473072
0.024800 0.038000 0.684008
0.293828 0.038000 0.684008
0.562856 0.038000 0.684008
0.831884 0.038000 0.684008
0.996800 0.038000 0.684008
0.024800 0.287218 0.684008
0.293828 0.287218 0.684008
0.562856 0.287218 0.684008
0.831884 0.287218 0.684008
0.996800 0.287218 0.684008
0.024800 0.536435 0.684008
0.293828 0.536435 0.684008
0.562856 0.536435 0.684008
0.831884 0.536435 0.684008
0.996800 0.536435 0.684008
0.024800 0.785653 0.684008
0.293828 0.785653 0.684008
0.562856 0.785653 0.684008
0.831884 0.785653 0.684008
0.996800 0.785653 0.684008
0.024800 0.962000 0.684008
0.293828 0.962000 0.684008
0.562856 0.962000 0.684008
0.831884 0.962000 0.684008
0.996800 0.962000 0.684008
0.024800 0.038000 0.894944
0.293828 0.038000 0.894944
0.562856 0.038000 0.894944
0.831884 0.038000 0.894944
0.996800 0.038000 0.894944
0.024800 0.287218 0.894944
0.293828 0.287218 0.894944
0.562856 0.287218 0.894944
0.831884 0.287218 0.894944
0.996800 0.287218 0.894944
0.024800 0.536435 0.894944
0.293828 0.536435 0.894944
0.562856 0.536435 0.894944
0.831884 0.536435 0.894944
0.996800 0.536435 0.894944
0.024800 0.785653 0.894944
0.293828 0.785653 0.894944
0.562856 0.785653 0.894944
0.831884 0.785653 0.894944
0.996800 0.785653 0.894944
0.024800 0.962000 0.894944
0.293828 0.962000 0.894944
0.562856 0.962000 0.894944
0.831884 0.962000 0.894944
0.996800 0.962000 0.894944
